; Generated by PictureToG-Code (Relief mode, Web)
; Tool diameter: 1 mm  Stepover: 40%
; Max depth: 1 mm  Feedrate: 400 mm/min
; Output size: 138.00 x 50.00 mm
; Strategy: Зигзаг (zigzag)
; Spindle speed: 15000 RPM
G21        ; mm
G90        ; absolute
G17        ; XY plane
G0 Z5.00
G0 X0 Y0
M03
S15000

G0 Z5.00
G0 X0.00 Y50.00
G1 Z-1.00 F300.0
G1 X0.40 Y50.00 F400.0
G1 X0.81 Y50.00
G1 X1.21 Y50.00
G1 X1.62 Y50.00
G1 X2.02 Y50.00
G1 X2.43 Y50.00
G1 X2.83 Y50.00
G1 X3.23 Y50.00
G1 X3.64 Y50.00
G1 X4.04 Y50.00
G1 X4.45 Y50.00
G1 X4.85 Y50.00
G1 X5.26 Y50.00
G1 X5.66 Y50.00
G1 X6.06 Y50.00
G1 X6.47 Y50.00
G1 X6.87 Y50.00
G1 X7.28 Y50.00
G1 X7.68 Y50.00
G1 X8.09 Y50.00
G1 X8.49 Y50.00
G1 X8.89 Y50.00
G1 X9.30 Y50.00
G1 X9.70 Y50.00
G1 X10.11 Y50.00
G1 X10.51 Y50.00
G1 X10.92 Y50.00
G1 X11.32 Y50.00
G1 X11.72 Y50.00
G1 X12.13 Y50.00
G1 X12.53 Y50.00
G1 X12.94 Y50.00
G1 X13.34 Y50.00
G1 X13.75 Y50.00
G1 X14.15 Y50.00
G1 X14.55 Y50.00
G1 X14.96 Y50.00
G1 X15.36 Y50.00
G1 X15.77 Y50.00
G1 X16.17 Y50.00
G1 X16.58 Y50.00
G1 X16.98 Y50.00
G1 X17.38 Y50.00
G1 X17.79 Y50.00
G1 X18.19 Y50.00
G1 X18.60 Y50.00
G1 X19.00 Y50.00
G1 X19.41 Y50.00
G1 X19.81 Y50.00
G1 X20.21 Y50.00
G1 X20.62 Y50.00
G1 X21.02 Y50.00
G1 X21.43 Y50.00
G1 X21.83 Y50.00
G1 X22.24 Y50.00
G1 X22.64 Y50.00
G1 X23.04 Y50.00
G1 X23.45 Y50.00
G1 X23.85 Y50.00
G1 X24.26 Y50.00
G1 X24.66 Y50.00
G1 X25.07 Y50.00
G1 X25.47 Y50.00
G1 X25.88 Y50.00
G1 X26.28 Y50.00
G1 X26.68 Y50.00
G1 X27.09 Y50.00
G1 X27.49 Y50.00
G1 X27.90 Y50.00
G1 X28.30 Y50.00
G1 X28.71 Y50.00
G1 X29.11 Y50.00
G1 X29.51 Y50.00
G1 X29.92 Y50.00
G1 X30.32 Y50.00
G1 X30.73 Y50.00
G1 X31.13 Y50.00
G1 X31.54 Y50.00
G1 X31.94 Y50.00
G1 X32.34 Y50.00
G1 X32.75 Y50.00
G1 X33.15 Y50.00
G1 X33.56 Y50.00
G1 X33.96 Y50.00
G1 X34.37 Y50.00
G1 X34.77 Y50.00
G1 X35.17 Y50.00
G1 X35.58 Y50.00
G1 X35.98 Y50.00
G1 X36.39 Y50.00
G1 X36.79 Y50.00
G1 X37.20 Y50.00
G1 X37.60 Y50.00
G1 X38.00 Y50.00
G1 X38.41 Y50.00
G1 X38.81 Y50.00
G1 X39.22 Y50.00
G1 X39.62 Y50.00
G1 X40.03 Y50.00
G1 X40.43 Y50.00
G1 X40.83 Y50.00
G1 X41.24 Y50.00
G1 X41.64 Y50.00
G1 X42.05 Y50.00
G1 X42.45 Y50.00
G1 X42.86 Y50.00
G1 X43.26 Y50.00
G1 X43.66 Y50.00
G1 X44.07 Y50.00
G1 X44.47 Y50.00
G1 X44.88 Y50.00
G1 X45.28 Y50.00
G1 X45.69 Y50.00
G1 X46.09 Y50.00
G1 X46.49 Y50.00
G1 X46.90 Y50.00
G1 X47.30 Y50.00
G1 X47.71 Y50.00
G1 X48.11 Y50.00
G1 X48.52 Y50.00
G1 X48.92 Y50.00
G1 X49.32 Y50.00
G1 X49.73 Y50.00
G1 X50.13 Y50.00
G1 X50.54 Y50.00
G1 X50.94 Y50.00
G1 X51.35 Y50.00
G1 X51.75 Y50.00
G1 X52.15 Y50.00
G1 X52.56 Y50.00
G1 X52.96 Y50.00
G1 X53.37 Y50.00
G1 X53.77 Y50.00
G1 X54.18 Y50.00
G1 X54.58 Y50.00
G1 X54.98 Y50.00
G1 X55.39 Y50.00
G1 X55.79 Y50.00
G1 X56.20 Y50.00
G1 X56.60 Y50.00
G1 X57.01 Y50.00
G1 X57.41 Y50.00
G1 X57.81 Y50.00
G1 X58.22 Y50.00
G1 X58.62 Y50.00
G1 X59.03 Y50.00
G1 X59.43 Y50.00
G1 X59.84 Y50.00
G1 X60.24 Y50.00
G1 X60.64 Y50.00
G1 X61.05 Y50.00
G1 X61.45 Y50.00
G1 X61.86 Y50.00
G1 X62.26 Y50.00
G1 X62.67 Y50.00
G1 X63.07 Y50.00
G1 X63.47 Y50.00
G1 X63.88 Y50.00
G1 X64.28 Y50.00
G1 X64.69 Y50.00
G1 X65.09 Y50.00
G1 X65.50 Y50.00
G1 X65.90 Y50.00
G1 X66.30 Y50.00
G1 X66.71 Y50.00
G1 X67.11 Y50.00
G1 X67.52 Y50.00
G1 X67.92 Y50.00
G1 X68.33 Y50.00
G1 X68.73 Y50.00
G1 X69.13 Y50.00
G1 X69.54 Y50.00
G1 X69.94 Y50.00
G1 X70.35 Y50.00
G1 X70.75 Y50.00
G1 X71.16 Y50.00
G1 X71.56 Y50.00
G1 X71.96 Y50.00
G1 X72.37 Y50.00
G1 X72.77 Y50.00
G1 X73.18 Y50.00
G1 X73.58 Y50.00
G1 X73.99 Y50.00
G1 X74.39 Y50.00
G1 X74.79 Y50.00
G1 X75.20 Y50.00
G1 X75.60 Y50.00
G1 X76.01 Y50.00
G1 X76.41 Y50.00
G1 X76.82 Y50.00
G1 X77.22 Y50.00
G1 X77.63 Y50.00
G1 X78.03 Y50.00
G1 X78.43 Y50.00
G1 X78.84 Y50.00
G1 X79.24 Y50.00
G1 X79.65 Y50.00
G1 X80.05 Y50.00
G1 X80.46 Y50.00
G1 X80.86 Y50.00
G1 X81.26 Y50.00
G1 X81.67 Y50.00
G1 X82.07 Y50.00
G1 X82.48 Y50.00
G1 X82.88 Y50.00
G1 X83.29 Y50.00
G1 X83.69 Y50.00
G1 X84.09 Y50.00
G1 X84.50 Y50.00
G1 X84.90 Y50.00
G1 X85.31 Y50.00
G1 X85.71 Y50.00
G1 X86.12 Y50.00
G1 X86.52 Y50.00
G1 X86.92 Y50.00
G1 X87.33 Y50.00
G1 X87.73 Y50.00
G1 X88.14 Y50.00
G1 X88.54 Y50.00
G1 X88.95 Y50.00
G1 X89.35 Y50.00
G1 X89.75 Y50.00
G1 X90.16 Y50.00
G1 X90.56 Y50.00
G1 X90.97 Y50.00
G1 X91.37 Y50.00
G1 X91.78 Y50.00
G1 X92.18 Y50.00
G1 X92.58 Y50.00
G1 X92.99 Y50.00
G1 X93.39 Y50.00
G1 X93.80 Y50.00
G1 X94.20 Y50.00
G1 X94.61 Y50.00
G1 X95.01 Y50.00
G1 X95.41 Y50.00
G1 X95.82 Y50.00
G1 X96.22 Y50.00
G1 X96.63 Y50.00
G1 X97.03 Y50.00
G1 X97.44 Y50.00
G1 X97.84 Y50.00
G1 X98.24 Y50.00
G1 X98.65 Y50.00
G1 X99.05 Y50.00
G1 X99.46 Y50.00
G1 X99.86 Y50.00
G1 X100.27 Y50.00
G1 X100.67 Y50.00
G1 X101.07 Y50.00
G1 X101.48 Y50.00
G1 X101.88 Y50.00
G1 X102.29 Y50.00
G1 X102.69 Y50.00
G1 X103.10 Y50.00
G1 X103.50 Y50.00
G1 X103.90 Y50.00
G1 X104.31 Y50.00
G1 X104.71 Y50.00
G1 X105.12 Y50.00
G1 X105.52 Y50.00
G1 X105.93 Y50.00
G1 X106.33 Y50.00
G1 X106.73 Y50.00
G1 X107.14 Y50.00
G1 X107.54 Y50.00
G1 X107.95 Y50.00
G1 X108.35 Y50.00
G1 X108.76 Y50.00
G1 X109.16 Y50.00
G1 X109.56 Y50.00
G1 X109.97 Y50.00
G1 X110.37 Y50.00
G1 X110.78 Y50.00
G1 X111.18 Y50.00
G1 X111.59 Y50.00
G1 X111.99 Y50.00
G1 X112.39 Y50.00
G1 X112.80 Y50.00
G1 X113.20 Y50.00
G1 X113.61 Y50.00
G1 X114.01 Y50.00
G1 X114.42 Y50.00
G1 X114.82 Y50.00
G1 X115.22 Y50.00
G1 X115.63 Y50.00
G1 X116.03 Y50.00
G1 X116.44 Y50.00
G1 X116.84 Y50.00
G1 X117.25 Y50.00
G1 X117.65 Y50.00
G1 X118.05 Y50.00
G1 X118.46 Y50.00
G1 X118.86 Y50.00
G1 X119.27 Y50.00
G1 X119.67 Y50.00
G1 X120.08 Y50.00
G1 X120.48 Y50.00
G1 X120.88 Y50.00
G1 X121.29 Y50.00
G1 X121.69 Y50.00
G1 X122.10 Y50.00
G1 X122.50 Y50.00
G1 X122.91 Y50.00
G1 X123.31 Y50.00
G1 X123.71 Y50.00
G1 X124.12 Y50.00
G1 X124.52 Y50.00
G1 X124.93 Y50.00
G1 X125.33 Y50.00
G1 X125.74 Y50.00
G1 X126.14 Y50.00
G1 X126.54 Y50.00
G1 X126.95 Y50.00
G1 X127.35 Y50.00
G1 X127.76 Y50.00
G1 X128.16 Y50.00
G1 X128.57 Y50.00
G1 X128.97 Y50.00
G1 X129.38 Y50.00
G1 X129.78 Y50.00
G1 X130.18 Y50.00
G1 X130.59 Y50.00
G1 X130.99 Y50.00
G1 X131.40 Y50.00
G1 X131.80 Y50.00
G1 X132.21 Y50.00
G1 X132.61 Y50.00
G1 X133.01 Y50.00
G1 X133.42 Y50.00
G1 X133.82 Y50.00
G1 X134.23 Y50.00
G1 X134.63 Y50.00
G1 X135.04 Y50.00
G1 X135.44 Y50.00
G1 X135.84 Y50.00
G1 X136.25 Y50.00
G1 X136.65 Y50.00
G1 X137.06 Y50.00
G1 X137.46 Y50.00
G1 X137.87 Y50.00
G0 Z5.00
G0 X137.97 Y49.59
G1 Z-1.00 F300.0
G1 X137.56 Y49.59 F400.0
G1 X137.16 Y49.59
G1 X136.75 Y49.59
G1 X136.35 Y49.59
G1 X135.94 Y49.59
G1 X135.54 Y49.59
G1 X135.14 Y49.59
G1 X134.73 Y49.59
G1 X134.33 Y49.59
G1 X133.92 Y49.59
G1 X133.52 Y49.59
G1 X133.11 Y49.59
G1 X132.71 Y49.59
G1 X132.31 Y49.59
G1 X131.90 Y49.59
G1 X131.50 Y49.59
G1 X131.09 Y49.59
G1 X130.69 Y49.59
G1 X130.28 Y49.59
G1 X129.88 Y49.59
G1 X129.48 Y49.59
G1 X129.07 Y49.59
G1 X128.67 Y49.59
G1 X128.26 Y49.59
G1 X127.86 Y49.59
G1 X127.45 Y49.59
G1 X127.05 Y49.59
G1 X126.65 Y49.59
G1 X126.24 Y49.59
G1 X125.84 Y49.59
G1 X125.43 Y49.59
G1 X125.03 Y49.59
G1 X124.62 Y49.59
G1 X124.22 Y49.59
G1 X123.82 Y49.59
G1 X123.41 Y49.59
G1 X123.01 Y49.59
G1 X122.60 Y49.59
G1 X122.20 Y49.59
G1 X121.79 Y49.59
G1 X121.39 Y49.59
G1 X120.99 Y49.59
G1 X120.58 Y49.59
G1 X120.18 Y49.59
G1 X119.77 Y49.59
G1 X119.37 Y49.59
G1 X118.96 Y49.59
G1 X118.56 Y49.59
G1 X118.16 Y49.59
G1 X117.75 Y49.59
G1 X117.35 Y49.59
G1 X116.94 Y49.59
G1 X116.54 Y49.59
G1 X116.13 Y49.59
G1 X115.73 Y49.59
G1 X115.33 Y49.59
G1 X114.92 Y49.59
G1 X114.52 Y49.59
G1 X114.11 Y49.59
G1 X113.71 Y49.59
G1 X113.30 Y49.59
G1 X112.90 Y49.59
G1 X112.50 Y49.59
G1 X112.09 Y49.59
G1 X111.69 Y49.59
G1 X111.28 Y49.59
G1 X110.88 Y49.59
G1 X110.47 Y49.59
G1 X110.07 Y49.59
G1 X109.67 Y49.59
G1 X109.26 Y49.59
G1 X108.86 Y49.59
G1 X108.45 Y49.59
G1 X108.05 Y49.59
G1 X107.64 Y49.59
G1 X107.24 Y49.59
G1 X106.84 Y49.59
G1 X106.43 Y49.59
G1 X106.03 Y49.59
G1 X105.62 Y49.59
G1 X105.22 Y49.59
G1 X104.81 Y49.59
G1 X104.41 Y49.59
G1 X104.01 Y49.59
G1 X103.60 Y49.59
G1 X103.20 Y49.59
G1 X102.79 Y49.59
G1 X102.39 Y49.59
G1 X101.98 Y49.59
G1 X101.58 Y49.59
G1 X101.18 Y49.59
G1 X100.77 Y49.59
G1 X100.37 Y49.59
G1 X99.96 Y49.59
G1 X99.56 Y49.59
G1 X99.15 Y49.59
G1 X98.75 Y49.59
G1 X98.35 Y49.59
G1 X97.94 Y49.59
G1 X97.54 Y49.59
G1 X97.13 Y49.59
G1 X96.73 Y49.59
G1 X96.32 Y49.59
G1 X95.92 Y49.59
G1 X95.52 Y49.59
G1 X95.11 Y49.59
G1 X94.71 Y49.59
G1 X94.30 Y49.59
G1 X93.90 Y49.59
G1 X93.49 Y49.59
G1 X93.09 Y49.59
G1 X92.69 Y49.59
G1 X92.28 Y49.59
G1 X91.88 Y49.59
G1 X91.47 Y49.59
G1 X91.07 Y49.59
G1 X90.66 Y49.59
G1 X90.26 Y49.59
G1 X89.85 Y49.59
G1 X89.45 Y49.59
G1 X89.05 Y49.59
G1 X88.64 Y49.59
G1 X88.24 Y49.59
G1 X87.83 Y49.59
G1 X87.43 Y49.59
G1 X87.02 Y49.59
G1 X86.62 Y49.59
G1 X86.22 Y49.59
G1 X85.81 Y49.59
G1 X85.41 Y49.59
G1 X85.00 Y49.59
G1 X84.60 Y49.59
G1 X84.19 Y49.59
G1 X83.79 Y49.59
G1 X83.39 Y49.59
G1 X82.98 Y49.59
G1 X82.58 Y49.59
G1 X82.17 Y49.59
G1 X81.77 Y49.59
G1 X81.36 Y49.59
G1 X80.96 Y49.59
G1 X80.56 Y49.59
G1 X80.15 Y49.59
G1 X79.75 Y49.59
G1 X79.34 Y49.59
G1 X78.94 Y49.59
G1 X78.53 Y49.59
G1 X78.13 Y49.59
G1 X77.73 Y49.59
G1 X77.32 Y49.59
G1 X76.92 Y49.59
G1 X76.51 Y49.59
G1 X76.11 Y49.59
G1 X75.70 Y49.59
G1 X75.30 Y49.59
G1 X74.90 Y49.59
G1 X74.49 Y49.59
G1 X74.09 Y49.59
G1 X73.68 Y49.59
G1 X73.28 Y49.59
G1 X72.87 Y49.59
G1 X72.47 Y49.59
G1 X72.07 Y49.59
G1 X71.66 Y49.59
G1 X71.26 Y49.59
G1 X70.85 Y49.59
G1 X70.45 Y49.59
G1 X70.04 Y49.59
G1 X69.64 Y49.59
G1 X69.24 Y49.59
G1 X68.83 Y49.59
G1 X68.43 Y49.59
G1 X68.02 Y49.59
G1 X67.62 Y49.59
G1 X67.21 Y49.59
G1 X66.81 Y49.59
G1 X66.41 Y49.59
G1 X66.00 Y49.59
G1 X65.60 Y49.59
G1 X65.19 Y49.59
G1 X64.79 Y49.59
G1 X64.38 Y49.59
G1 X63.98 Y49.59
G1 X63.58 Y49.59
G1 X63.17 Y49.59
G1 X62.77 Y49.59
G1 X62.36 Y49.59
G1 X61.96 Y49.59
G1 X61.55 Y49.59
G1 X61.15 Y49.59
G1 X60.75 Y49.59
G1 X60.34 Y49.59
G1 X59.94 Y49.59
G1 X59.53 Y49.59
G1 X59.13 Y49.59
G1 X58.72 Y49.59
G1 X58.32 Y49.59
G1 X57.92 Y49.59
G1 X57.51 Y49.59
G1 X57.11 Y49.59
G1 X56.70 Y49.59
G1 X56.30 Y49.59
G1 X55.89 Y49.59
G1 X55.49 Y49.59
G1 X55.09 Y49.59
G1 X54.68 Y49.59
G1 X54.28 Y49.59
G1 X53.87 Y49.59
G1 X53.47 Y49.59
G1 X53.06 Y49.59
G1 X52.66 Y49.59
G1 X52.26 Y49.59
G1 X51.85 Y49.59
G1 X51.45 Y49.59
G1 X51.04 Y49.59
G1 X50.64 Y49.59
G1 X50.23 Y49.59
G1 X49.83 Y49.59
G1 X49.43 Y49.59
G1 X49.02 Y49.59
G1 X48.62 Y49.59
G1 X48.21 Y49.59
G1 X47.81 Y49.59
G1 X47.40 Y49.59
G1 X47.00 Y49.59
G1 X46.60 Y49.59
G1 X46.19 Y49.59
G1 X45.79 Y49.59
G1 X45.38 Y49.59
G1 X44.98 Y49.59
G1 X44.57 Y49.59
G1 X44.17 Y49.59
G1 X43.77 Y49.59
G1 X43.36 Y49.59
G1 X42.96 Y49.59
G1 X42.55 Y49.59
G1 X42.15 Y49.59
G1 X41.74 Y49.59
G1 X41.34 Y49.59
G1 X40.94 Y49.59
G1 X40.53 Y49.59
G1 X40.13 Y49.59
G1 X39.72 Y49.59
G1 X39.32 Y49.59
G1 X38.91 Y49.59
G1 X38.51 Y49.59
G1 X38.10 Y49.59
G1 X37.70 Y49.59
G1 X37.30 Y49.59
G1 X36.89 Y49.59
G1 X36.49 Y49.59
G1 X36.08 Y49.59
G1 X35.68 Y49.59
G1 X35.27 Y49.59
G1 X34.87 Y49.59
G1 X34.47 Y49.59
G1 X34.06 Y49.59
G1 X33.66 Y49.59
G1 X33.25 Y49.59
G1 X32.85 Y49.59
G1 X32.44 Y49.59
G1 X32.04 Y49.59
G1 X31.64 Y49.59
G1 X31.23 Y49.59
G1 X30.83 Y49.59
G1 X30.42 Y49.59
G1 X30.02 Y49.59
G1 X29.61 Y49.59
G1 X29.21 Y49.59
G1 X28.81 Y49.59
G1 X28.40 Y49.59
G1 X28.00 Y49.59
G1 X27.59 Y49.59
G1 X27.19 Y49.59
G1 X26.78 Y49.59
G1 X26.38 Y49.59
G1 X25.98 Y49.59
G1 X25.57 Y49.59
G1 X25.17 Y49.59
G1 X24.76 Y49.59
G1 X24.36 Y49.59
G1 X23.95 Y49.59
G1 X23.55 Y49.59
G1 X23.15 Y49.59
G1 X22.74 Y49.59
G1 X22.34 Y49.59
G1 X21.93 Y49.59
G1 X21.53 Y49.59
G1 X21.12 Y49.59
G1 X20.72 Y49.59
G1 X20.32 Y49.59
G1 X19.91 Y49.59
G1 X19.51 Y49.59
G1 X19.10 Y49.59
G1 X18.70 Y49.59
G1 X18.29 Y49.59
G1 X17.89 Y49.59
G1 X17.49 Y49.59
G1 X17.08 Y49.59
G1 X16.68 Y49.59
G1 X16.27 Y49.59
G1 X15.87 Y49.59
G1 X15.46 Y49.59
G1 X15.06 Y49.59
G1 X14.66 Y49.59
G1 X14.25 Y49.59
G1 X13.85 Y49.59
G1 X13.44 Y49.59
G1 X13.04 Y49.59
G1 X12.63 Y49.59
G1 X12.23 Y49.59
G1 X11.83 Y49.59
G1 X11.42 Y49.59
G1 X11.02 Y49.59
G1 X10.61 Y49.59
G1 X10.21 Y49.59
G1 X9.80 Y49.59
G1 X9.40 Y49.59
G1 X9.00 Y49.59
G1 X8.59 Y49.59
G1 X8.19 Y49.59
G1 X7.78 Y49.59
G1 X7.38 Y49.59
G1 X6.97 Y49.59
G1 X6.57 Y49.59
G1 X6.17 Y49.59
G1 X5.76 Y49.59
G1 X5.36 Y49.59
G1 X4.95 Y49.59
G1 X4.55 Y49.59
G1 X4.14 Y49.59
G1 X3.74 Y49.59
G1 X3.34 Y49.59
G1 X2.93 Y49.59
G1 X2.53 Y49.59
G1 X2.12 Y49.59
G1 X1.72 Y49.59
G1 X1.31 Y49.59
G1 X0.91 Y49.59
G1 X0.51 Y49.59
G1 X0.10 Y49.59
G0 Z5.00
G0 X0.00 Y49.19
G1 Z-1.00 F300.0
G1 X0.40 Y49.19 F400.0
G1 X0.81 Y49.19
G1 X1.21 Y49.19
G1 X1.62 Y49.19
G1 X2.02 Y49.19
G1 X2.43 Y49.19
G1 X2.83 Y49.19
G1 X3.23 Y49.19
G1 X3.64 Y49.19
G1 X4.04 Y49.19
G1 X4.45 Y49.19
G1 X4.85 Y49.19
G1 X5.26 Y49.19
G1 X5.66 Y49.19
G1 X6.06 Y49.19
G1 X6.47 Y49.19
G1 X6.87 Y49.19
G1 X7.28 Y49.19
G1 X7.68 Y49.19
G1 X8.09 Y49.19
G1 X8.49 Y49.19
G1 X8.89 Y49.19
G1 X9.30 Y49.19
G1 X9.70 Y49.19
G1 X10.11 Y49.19
G1 X10.51 Y49.19
G1 X10.92 Y49.19
G1 X11.32 Y49.19
G1 X11.72 Y49.19
G1 X12.13 Y49.19
G1 X12.53 Y49.19
G1 X12.94 Y49.19
G1 X13.34 Y49.19
G1 X13.75 Y49.19
G1 X14.15 Y49.19
G1 X14.55 Y49.19
G1 X14.96 Y49.19
G1 X15.36 Y49.19
G1 X15.77 Y49.19
G1 X16.17 Y49.19
G1 X16.58 Y49.19
G1 X16.98 Y49.19
G1 X17.38 Y49.19
G1 X17.79 Y49.19
G1 X18.19 Y49.19
G1 X18.60 Y49.19
G1 X19.00 Y49.19
G1 X19.41 Y49.19
G1 X19.81 Y49.19
G1 X20.21 Y49.19
G1 X20.62 Y49.19
G1 X21.02 Y49.19
G1 X21.43 Y49.19
G1 X21.83 Y49.19
G1 X22.24 Y49.19
G1 X22.64 Y49.19
G1 X23.04 Y49.19
G1 X23.45 Y49.19
G1 X23.85 Y49.19
G1 X24.26 Y49.19
G1 X24.66 Y49.19
G1 X25.07 Y49.19
G1 X25.47 Y49.19
G1 X25.88 Y49.19
G1 X26.28 Y49.19
G1 X26.68 Y49.19
G1 X27.09 Y49.19
G1 X27.49 Y49.19
G1 X27.90 Y49.19
G1 X28.30 Y49.19
G1 X28.71 Y49.19
G1 X29.11 Y49.19
G1 X29.51 Y49.19
G1 X29.92 Y49.19
G1 X30.32 Y49.19
G1 X30.73 Y49.19
G1 X31.13 Y49.19
G1 X31.54 Y49.19
G1 X31.94 Y49.19
G1 X32.34 Y49.19
G1 X32.75 Y49.19
G1 X33.15 Y49.19
G1 X33.56 Y49.19
G1 X33.96 Y49.19
G1 X34.37 Y49.19
G1 X34.77 Y49.19
G1 X35.17 Y49.19
G1 X35.58 Y49.19
G1 X35.98 Y49.19
G1 X36.39 Y49.19
G1 X36.79 Y49.19
G1 X37.20 Y49.19
G1 X37.60 Y49.19
G1 X38.00 Y49.19
G1 X38.41 Y49.19
G1 X38.81 Y49.19
G1 X39.22 Y49.19
G1 X39.62 Y49.19
G1 X40.03 Y49.19
G1 X40.43 Y49.19
G1 X40.83 Y49.19
G1 X41.24 Y49.19
G1 X41.64 Y49.19
G1 X42.05 Y49.19
G1 X42.45 Y49.19
G1 X42.86 Y49.19
G1 X43.26 Y49.19
G1 X43.66 Y49.19
G1 X44.07 Y49.19
G1 X44.47 Y49.19
G1 X44.88 Y49.19
G1 X45.28 Y49.19
G1 X45.69 Y49.19
G1 X46.09 Y49.19
G1 X46.49 Y49.19
G1 X46.90 Y49.19
G1 X47.30 Y49.19
G1 X47.71 Y49.19
G1 X48.11 Y49.19
G1 X48.52 Y49.19
G1 X48.92 Y49.19
G1 X49.32 Y49.19
G1 X49.73 Y49.19
G1 X50.13 Y49.19
G1 X50.54 Y49.19
G1 X50.94 Y49.19
G1 X51.35 Y49.19
G1 X51.75 Y49.19
G1 X52.15 Y49.19
G1 X52.56 Y49.19
G1 X52.96 Y49.19
G1 X53.37 Y49.19
G1 X53.77 Y49.19
G1 X54.18 Y49.19
G1 X54.58 Y49.19
G1 X54.98 Y49.19
G1 X55.39 Y49.19
G1 X55.79 Y49.19
G1 X56.20 Y49.19
G1 X56.60 Y49.19
G1 X57.01 Y49.19
G1 X57.41 Y49.19
G1 X57.81 Y49.19
G1 X58.22 Y49.19
G1 X58.62 Y49.19
G1 X59.03 Y49.19
G1 X59.43 Y49.19
G1 X59.84 Y49.19
G1 X60.24 Y49.19
G1 X60.64 Y49.19
G1 X61.05 Y49.19
G1 X61.45 Y49.19
G1 X61.86 Y49.19
G1 X62.26 Y49.19
G1 X62.67 Y49.19
G1 X63.07 Y49.19
G1 X63.47 Y49.19
G1 X63.88 Y49.19
G1 X64.28 Y49.19
G1 X64.69 Y49.19
G1 X65.09 Y49.19
G1 X65.50 Y49.19
G1 X65.90 Y49.19
G1 X66.30 Y49.19
G1 X66.71 Y49.19
G1 X67.11 Y49.19
G1 X67.52 Y49.19
G1 X67.92 Y49.19
G1 X68.33 Y49.19
G1 X68.73 Y49.19
G1 X69.13 Y49.19
G1 X69.54 Y49.19
G1 X69.94 Y49.19 Z-0.99
G1 X70.35 Y49.19 Z-1.00 F300.0
G1 X70.75 Y49.19 F400.0
G1 X71.16 Y49.19
G1 X71.56 Y49.19
G1 X71.96 Y49.19
G1 X72.37 Y49.19
G1 X72.77 Y49.19
G1 X73.18 Y49.19
G1 X73.58 Y49.19
G1 X73.99 Y49.19
G1 X74.39 Y49.19
G1 X74.79 Y49.19
G1 X75.20 Y49.19
G1 X75.60 Y49.19
G1 X76.01 Y49.19
G1 X76.41 Y49.19
G1 X76.82 Y49.19
G1 X77.22 Y49.19
G1 X77.63 Y49.19
G1 X78.03 Y49.19
G1 X78.43 Y49.19
G1 X78.84 Y49.19
G1 X79.24 Y49.19
G1 X79.65 Y49.19
G1 X80.05 Y49.19
G1 X80.46 Y49.19
G1 X80.86 Y49.19
G1 X81.26 Y49.19
G1 X81.67 Y49.19
G1 X82.07 Y49.19
G1 X82.48 Y49.19
G1 X82.88 Y49.19
G1 X83.29 Y49.19
G1 X83.69 Y49.19
G1 X84.09 Y49.19
G1 X84.50 Y49.19
G1 X84.90 Y49.19
G1 X85.31 Y49.19
G1 X85.71 Y49.19
G1 X86.12 Y49.19
G1 X86.52 Y49.19
G1 X86.92 Y49.19
G1 X87.33 Y49.19
G1 X87.73 Y49.19
G1 X88.14 Y49.19
G1 X88.54 Y49.19
G1 X88.95 Y49.19
G1 X89.35 Y49.19
G1 X89.75 Y49.19
G1 X90.16 Y49.19
G1 X90.56 Y49.19
G1 X90.97 Y49.19
G1 X91.37 Y49.19
G1 X91.78 Y49.19
G1 X92.18 Y49.19
G1 X92.58 Y49.19
G1 X92.99 Y49.19
G1 X93.39 Y49.19
G1 X93.80 Y49.19
G1 X94.20 Y49.19
G1 X94.61 Y49.19
G1 X95.01 Y49.19
G1 X95.41 Y49.19
G1 X95.82 Y49.19
G1 X96.22 Y49.19
G1 X96.63 Y49.19
G1 X97.03 Y49.19
G1 X97.44 Y49.19
G1 X97.84 Y49.19
G1 X98.24 Y49.19
G1 X98.65 Y49.19
G1 X99.05 Y49.19
G1 X99.46 Y49.19
G1 X99.86 Y49.19
G1 X100.27 Y49.19
G1 X100.67 Y49.19
G1 X101.07 Y49.19
G1 X101.48 Y49.19
G1 X101.88 Y49.19
G1 X102.29 Y49.19
G1 X102.69 Y49.19
G1 X103.10 Y49.19
G1 X103.50 Y49.19
G1 X103.90 Y49.19
G1 X104.31 Y49.19
G1 X104.71 Y49.19
G1 X105.12 Y49.19
G1 X105.52 Y49.19
G1 X105.93 Y49.19
G1 X106.33 Y49.19
G1 X106.73 Y49.19
G1 X107.14 Y49.19
G1 X107.54 Y49.19
G1 X107.95 Y49.19
G1 X108.35 Y49.19
G1 X108.76 Y49.19
G1 X109.16 Y49.19
G1 X109.56 Y49.19
G1 X109.97 Y49.19
G1 X110.37 Y49.19
G1 X110.78 Y49.19
G1 X111.18 Y49.19
G1 X111.59 Y49.19
G1 X111.99 Y49.19
G1 X112.39 Y49.19
G1 X112.80 Y49.19
G1 X113.20 Y49.19
G1 X113.61 Y49.19
G1 X114.01 Y49.19
G1 X114.42 Y49.19
G1 X114.82 Y49.19
G1 X115.22 Y49.19
G1 X115.63 Y49.19
G1 X116.03 Y49.19
G1 X116.44 Y49.19
G1 X116.84 Y49.19
G1 X117.25 Y49.19
G1 X117.65 Y49.19
G1 X118.05 Y49.19
G1 X118.46 Y49.19
G1 X118.86 Y49.19
G1 X119.27 Y49.19
G1 X119.67 Y49.19
G1 X120.08 Y49.19
G1 X120.48 Y49.19
G1 X120.88 Y49.19
G1 X121.29 Y49.19
G1 X121.69 Y49.19
G1 X122.10 Y49.19
G1 X122.50 Y49.19
G1 X122.91 Y49.19
G1 X123.31 Y49.19
G1 X123.71 Y49.19
G1 X124.12 Y49.19
G1 X124.52 Y49.19
G1 X124.93 Y49.19
G1 X125.33 Y49.19
G1 X125.74 Y49.19
G1 X126.14 Y49.19
G1 X126.54 Y49.19
G1 X126.95 Y49.19
G1 X127.35 Y49.19
G1 X127.76 Y49.19
G1 X128.16 Y49.19
G1 X128.57 Y49.19
G1 X128.97 Y49.19
G1 X129.38 Y49.19
G1 X129.78 Y49.19
G1 X130.18 Y49.19
G1 X130.59 Y49.19
G1 X130.99 Y49.19
G1 X131.40 Y49.19
G1 X131.80 Y49.19
G1 X132.21 Y49.19
G1 X132.61 Y49.19
G1 X133.01 Y49.19
G1 X133.42 Y49.19
G1 X133.82 Y49.19
G1 X134.23 Y49.19
G1 X134.63 Y49.19
G1 X135.04 Y49.19
G1 X135.44 Y49.19
G1 X135.84 Y49.19
G1 X136.25 Y49.19
G1 X136.65 Y49.19
G1 X137.06 Y49.19
G1 X137.46 Y49.19
G1 X137.87 Y49.19
G0 Z5.00
G0 X137.97 Y48.78
G1 Z-1.00 F300.0
G1 X137.56 Y48.78 F400.0
G1 X137.16 Y48.78
G1 X136.75 Y48.78
G1 X136.35 Y48.78
G1 X135.94 Y48.78
G1 X135.54 Y48.78
G1 X135.14 Y48.78
G1 X134.73 Y48.78
G1 X134.33 Y48.78
G1 X133.92 Y48.78
G1 X133.52 Y48.78
G1 X133.11 Y48.78
G1 X132.71 Y48.78
G1 X132.31 Y48.78
G1 X131.90 Y48.78
G1 X131.50 Y48.78
G1 X131.09 Y48.78
G1 X130.69 Y48.78
G1 X130.28 Y48.78
G1 X129.88 Y48.78
G1 X129.48 Y48.78
G1 X129.07 Y48.78
G1 X128.67 Y48.78
G1 X128.26 Y48.78
G1 X127.86 Y48.78
G1 X127.45 Y48.78
G1 X127.05 Y48.78
G1 X126.65 Y48.78
G1 X126.24 Y48.78
G1 X125.84 Y48.78
G1 X125.43 Y48.78
G1 X125.03 Y48.78
G1 X124.62 Y48.78
G1 X124.22 Y48.78
G1 X123.82 Y48.78
G1 X123.41 Y48.78
G1 X123.01 Y48.78
G1 X122.60 Y48.78
G1 X122.20 Y48.78
G1 X121.79 Y48.78
G1 X121.39 Y48.78
G1 X120.99 Y48.78
G1 X120.58 Y48.78
G1 X120.18 Y48.78
G1 X119.77 Y48.78
G1 X119.37 Y48.78
G1 X118.96 Y48.78
G1 X118.56 Y48.78
G1 X118.16 Y48.78
G1 X117.75 Y48.78
G1 X117.35 Y48.78
G1 X116.94 Y48.78
G1 X116.54 Y48.78
G1 X116.13 Y48.78
G1 X115.73 Y48.78
G1 X115.33 Y48.78
G1 X114.92 Y48.78
G1 X114.52 Y48.78
G1 X114.11 Y48.78
G1 X113.71 Y48.78
G1 X113.30 Y48.78
G1 X112.90 Y48.78
G1 X112.50 Y48.78
G1 X112.09 Y48.78
G1 X111.69 Y48.78
G1 X111.28 Y48.78
G1 X110.88 Y48.78
G1 X110.47 Y48.78
G1 X110.07 Y48.78
G1 X109.67 Y48.78
G1 X109.26 Y48.78
G1 X108.86 Y48.78
G1 X108.45 Y48.78
G1 X108.05 Y48.78
G1 X107.64 Y48.78
G1 X107.24 Y48.78
G1 X106.84 Y48.78
G1 X106.43 Y48.78
G1 X106.03 Y48.78
G1 X105.62 Y48.78
G1 X105.22 Y48.78
G1 X104.81 Y48.78
G1 X104.41 Y48.78
G1 X104.01 Y48.78
G1 X103.60 Y48.78
G1 X103.20 Y48.78
G1 X102.79 Y48.78
G1 X102.39 Y48.78
G1 X101.98 Y48.78
G1 X101.58 Y48.78
G1 X101.18 Y48.78
G1 X100.77 Y48.78
G1 X100.37 Y48.78
G1 X99.96 Y48.78
G1 X99.56 Y48.78
G1 X99.15 Y48.78
G1 X98.75 Y48.78
G1 X98.35 Y48.78
G1 X97.94 Y48.78
G1 X97.54 Y48.78
G1 X97.13 Y48.78
G1 X96.73 Y48.78
G1 X96.32 Y48.78
G1 X95.92 Y48.78
G1 X95.52 Y48.78
G1 X95.11 Y48.78
G1 X94.71 Y48.78
G1 X94.30 Y48.78
G1 X93.90 Y48.78
G1 X93.49 Y48.78
G1 X93.09 Y48.78
G1 X92.69 Y48.78
G1 X92.28 Y48.78
G1 X91.88 Y48.78
G1 X91.47 Y48.78
G1 X91.07 Y48.78
G1 X90.66 Y48.78
G1 X90.26 Y48.78
G1 X89.85 Y48.78
G1 X89.45 Y48.78
G1 X89.05 Y48.78
G1 X88.64 Y48.78
G1 X88.24 Y48.78
G1 X87.83 Y48.78
G1 X87.43 Y48.78
G1 X87.02 Y48.78
G1 X86.62 Y48.78
G1 X86.22 Y48.78
G1 X85.81 Y48.78
G1 X85.41 Y48.78
G1 X85.00 Y48.78
G1 X84.60 Y48.78
G1 X84.19 Y48.78
G1 X83.79 Y48.78
G1 X83.39 Y48.78
G1 X82.98 Y48.78
G1 X82.58 Y48.78
G1 X82.17 Y48.78
G1 X81.77 Y48.78
G1 X81.36 Y48.78
G1 X80.96 Y48.78
G1 X80.56 Y48.78
G1 X80.15 Y48.78
G1 X79.75 Y48.78
G1 X79.34 Y48.78
G1 X78.94 Y48.78
G1 X78.53 Y48.78
G1 X78.13 Y48.78
G1 X77.73 Y48.78
G1 X77.32 Y48.78
G1 X76.92 Y48.78
G1 X76.51 Y48.78
G1 X76.11 Y48.78
G1 X75.70 Y48.78
G1 X75.30 Y48.78
G1 X74.90 Y48.78
G1 X74.49 Y48.78
G1 X74.09 Y48.78
G1 X73.68 Y48.78
G1 X73.28 Y48.78
G1 X72.87 Y48.78
G1 X72.47 Y48.78
G1 X72.07 Y48.78
G1 X71.66 Y48.78
G1 X71.26 Y48.78
G1 X70.85 Y48.78 Z-0.99
G1 X70.45 Y48.78 Z-0.47
G1 X70.04 Y48.78 Z-0.42
G1 X69.64 Y48.78 Z-0.60 F300.0
G1 X69.24 Y48.78 Z-1.00
G1 X68.83 Y48.78 F400.0
G1 X68.43 Y48.78
G1 X68.02 Y48.78
G1 X67.62 Y48.78
G1 X67.21 Y48.78
G1 X66.81 Y48.78
G1 X66.41 Y48.78
G1 X66.00 Y48.78
G1 X65.60 Y48.78
G1 X65.19 Y48.78
G1 X64.79 Y48.78
G1 X64.38 Y48.78
G1 X63.98 Y48.78
G1 X63.58 Y48.78
G1 X63.17 Y48.78
G1 X62.77 Y48.78
G1 X62.36 Y48.78
G1 X61.96 Y48.78
G1 X61.55 Y48.78
G1 X61.15 Y48.78
G1 X60.75 Y48.78
G1 X60.34 Y48.78
G1 X59.94 Y48.78
G1 X59.53 Y48.78
G1 X59.13 Y48.78
G1 X58.72 Y48.78
G1 X58.32 Y48.78
G1 X57.92 Y48.78
G1 X57.51 Y48.78
G1 X57.11 Y48.78
G1 X56.70 Y48.78
G1 X56.30 Y48.78
G1 X55.89 Y48.78
G1 X55.49 Y48.78
G1 X55.09 Y48.78
G1 X54.68 Y48.78
G1 X54.28 Y48.78
G1 X53.87 Y48.78
G1 X53.47 Y48.78
G1 X53.06 Y48.78
G1 X52.66 Y48.78
G1 X52.26 Y48.78
G1 X51.85 Y48.78
G1 X51.45 Y48.78
G1 X51.04 Y48.78
G1 X50.64 Y48.78
G1 X50.23 Y48.78
G1 X49.83 Y48.78
G1 X49.43 Y48.78
G1 X49.02 Y48.78
G1 X48.62 Y48.78
G1 X48.21 Y48.78
G1 X47.81 Y48.78
G1 X47.40 Y48.78
G1 X47.00 Y48.78
G1 X46.60 Y48.78
G1 X46.19 Y48.78
G1 X45.79 Y48.78
G1 X45.38 Y48.78
G1 X44.98 Y48.78
G1 X44.57 Y48.78
G1 X44.17 Y48.78
G1 X43.77 Y48.78
G1 X43.36 Y48.78
G1 X42.96 Y48.78
G1 X42.55 Y48.78
G1 X42.15 Y48.78
G1 X41.74 Y48.78
G1 X41.34 Y48.78
G1 X40.94 Y48.78
G1 X40.53 Y48.78
G1 X40.13 Y48.78
G1 X39.72 Y48.78
G1 X39.32 Y48.78
G1 X38.91 Y48.78
G1 X38.51 Y48.78
G1 X38.10 Y48.78
G1 X37.70 Y48.78
G1 X37.30 Y48.78
G1 X36.89 Y48.78
G1 X36.49 Y48.78
G1 X36.08 Y48.78
G1 X35.68 Y48.78
G1 X35.27 Y48.78
G1 X34.87 Y48.78
G1 X34.47 Y48.78
G1 X34.06 Y48.78
G1 X33.66 Y48.78
G1 X33.25 Y48.78
G1 X32.85 Y48.78
G1 X32.44 Y48.78
G1 X32.04 Y48.78
G1 X31.64 Y48.78
G1 X31.23 Y48.78
G1 X30.83 Y48.78
G1 X30.42 Y48.78
G1 X30.02 Y48.78
G1 X29.61 Y48.78
G1 X29.21 Y48.78
G1 X28.81 Y48.78
G1 X28.40 Y48.78
G1 X28.00 Y48.78
G1 X27.59 Y48.78
G1 X27.19 Y48.78
G1 X26.78 Y48.78
G1 X26.38 Y48.78
G1 X25.98 Y48.78
G1 X25.57 Y48.78
G1 X25.17 Y48.78
G1 X24.76 Y48.78
G1 X24.36 Y48.78
G1 X23.95 Y48.78
G1 X23.55 Y48.78
G1 X23.15 Y48.78
G1 X22.74 Y48.78
G1 X22.34 Y48.78
G1 X21.93 Y48.78
G1 X21.53 Y48.78
G1 X21.12 Y48.78
G1 X20.72 Y48.78
G1 X20.32 Y48.78
G1 X19.91 Y48.78
G1 X19.51 Y48.78
G1 X19.10 Y48.78
G1 X18.70 Y48.78
G1 X18.29 Y48.78
G1 X17.89 Y48.78
G1 X17.49 Y48.78
G1 X17.08 Y48.78
G1 X16.68 Y48.78
G1 X16.27 Y48.78
G1 X15.87 Y48.78
G1 X15.46 Y48.78
G1 X15.06 Y48.78
G1 X14.66 Y48.78
G1 X14.25 Y48.78
G1 X13.85 Y48.78
G1 X13.44 Y48.78
G1 X13.04 Y48.78
G1 X12.63 Y48.78
G1 X12.23 Y48.78
G1 X11.83 Y48.78
G1 X11.42 Y48.78
G1 X11.02 Y48.78
G1 X10.61 Y48.78
G1 X10.21 Y48.78
G1 X9.80 Y48.78
G1 X9.40 Y48.78
G1 X9.00 Y48.78
G1 X8.59 Y48.78
G1 X8.19 Y48.78
G1 X7.78 Y48.78
G1 X7.38 Y48.78
G1 X6.97 Y48.78
G1 X6.57 Y48.78
G1 X6.17 Y48.78
G1 X5.76 Y48.78
G1 X5.36 Y48.78
G1 X4.95 Y48.78
G1 X4.55 Y48.78
G1 X4.14 Y48.78
G1 X3.74 Y48.78
G1 X3.34 Y48.78
G1 X2.93 Y48.78
G1 X2.53 Y48.78
G1 X2.12 Y48.78
G1 X1.72 Y48.78
G1 X1.31 Y48.78
G1 X0.91 Y48.78
G1 X0.51 Y48.78
G1 X0.10 Y48.78
G0 Z5.00
G0 X0.00 Y48.38
G1 Z-1.00 F300.0
G1 X0.40 Y48.38 F400.0
G1 X0.81 Y48.38
G1 X1.21 Y48.38
G1 X1.62 Y48.38
G1 X2.02 Y48.38
G1 X2.43 Y48.38
G1 X2.83 Y48.38
G1 X3.23 Y48.38
G1 X3.64 Y48.38
G1 X4.04 Y48.38
G1 X4.45 Y48.38
G1 X4.85 Y48.38
G1 X5.26 Y48.38
G1 X5.66 Y48.38
G1 X6.06 Y48.38
G1 X6.47 Y48.38
G1 X6.87 Y48.38
G1 X7.28 Y48.38
G1 X7.68 Y48.38
G1 X8.09 Y48.38
G1 X8.49 Y48.38
G1 X8.89 Y48.38
G1 X9.30 Y48.38
G1 X9.70 Y48.38
G1 X10.11 Y48.38
G1 X10.51 Y48.38
G1 X10.92 Y48.38
G1 X11.32 Y48.38
G1 X11.72 Y48.38
G1 X12.13 Y48.38
G1 X12.53 Y48.38
G1 X12.94 Y48.38
G1 X13.34 Y48.38
G1 X13.75 Y48.38
G1 X14.15 Y48.38
G1 X14.55 Y48.38
G1 X14.96 Y48.38
G1 X15.36 Y48.38
G1 X15.77 Y48.38
G1 X16.17 Y48.38
G1 X16.58 Y48.38
G1 X16.98 Y48.38
G1 X17.38 Y48.38
G1 X17.79 Y48.38
G1 X18.19 Y48.38
G1 X18.60 Y48.38
G1 X19.00 Y48.38
G1 X19.41 Y48.38
G1 X19.81 Y48.38
G1 X20.21 Y48.38
G1 X20.62 Y48.38
G1 X21.02 Y48.38
G1 X21.43 Y48.38
G1 X21.83 Y48.38
G1 X22.24 Y48.38
G1 X22.64 Y48.38
G1 X23.04 Y48.38
G1 X23.45 Y48.38
G1 X23.85 Y48.38
G1 X24.26 Y48.38
G1 X24.66 Y48.38
G1 X25.07 Y48.38
G1 X25.47 Y48.38
G1 X25.88 Y48.38
G1 X26.28 Y48.38
G1 X26.68 Y48.38
G1 X27.09 Y48.38
G1 X27.49 Y48.38
G1 X27.90 Y48.38
G1 X28.30 Y48.38
G1 X28.71 Y48.38
G1 X29.11 Y48.38
G1 X29.51 Y48.38
G1 X29.92 Y48.38
G1 X30.32 Y48.38
G1 X30.73 Y48.38
G1 X31.13 Y48.38
G1 X31.54 Y48.38
G1 X31.94 Y48.38
G1 X32.34 Y48.38
G1 X32.75 Y48.38
G1 X33.15 Y48.38
G1 X33.56 Y48.38
G1 X33.96 Y48.38
G1 X34.37 Y48.38
G1 X34.77 Y48.38
G1 X35.17 Y48.38
G1 X35.58 Y48.38
G1 X35.98 Y48.38
G1 X36.39 Y48.38
G1 X36.79 Y48.38
G1 X37.20 Y48.38
G1 X37.60 Y48.38
G1 X38.00 Y48.38
G1 X38.41 Y48.38
G1 X38.81 Y48.38
G1 X39.22 Y48.38
G1 X39.62 Y48.38
G1 X40.03 Y48.38
G1 X40.43 Y48.38
G1 X40.83 Y48.38
G1 X41.24 Y48.38
G1 X41.64 Y48.38
G1 X42.05 Y48.38
G1 X42.45 Y48.38
G1 X42.86 Y48.38
G1 X43.26 Y48.38
G1 X43.66 Y48.38
G1 X44.07 Y48.38
G1 X44.47 Y48.38
G1 X44.88 Y48.38
G1 X45.28 Y48.38
G1 X45.69 Y48.38
G1 X46.09 Y48.38
G1 X46.49 Y48.38
G1 X46.90 Y48.38
G1 X47.30 Y48.38
G1 X47.71 Y48.38
G1 X48.11 Y48.38
G1 X48.52 Y48.38
G1 X48.92 Y48.38
G1 X49.32 Y48.38
G1 X49.73 Y48.38
G1 X50.13 Y48.38
G1 X50.54 Y48.38
G1 X50.94 Y48.38
G1 X51.35 Y48.38
G1 X51.75 Y48.38
G1 X52.15 Y48.38
G1 X52.56 Y48.38
G1 X52.96 Y48.38
G1 X53.37 Y48.38
G1 X53.77 Y48.38
G1 X54.18 Y48.38
G1 X54.58 Y48.38
G1 X54.98 Y48.38
G1 X55.39 Y48.38
G1 X55.79 Y48.38
G1 X56.20 Y48.38
G1 X56.60 Y48.38
G1 X57.01 Y48.38
G1 X57.41 Y48.38
G1 X57.81 Y48.38
G1 X58.22 Y48.38
G1 X58.62 Y48.38
G1 X59.03 Y48.38
G1 X59.43 Y48.38
G1 X59.84 Y48.38
G1 X60.24 Y48.38
G1 X60.64 Y48.38
G1 X61.05 Y48.38
G1 X61.45 Y48.38
G1 X61.86 Y48.38
G1 X62.26 Y48.38
G1 X62.67 Y48.38
G1 X63.07 Y48.38
G1 X63.47 Y48.38
G1 X63.88 Y48.38
G1 X64.28 Y48.38
G1 X64.69 Y48.38
G1 X65.09 Y48.38
G1 X65.50 Y48.38
G1 X65.90 Y48.38
G1 X66.30 Y48.38
G1 X66.71 Y48.38
G1 X67.11 Y48.38
G1 X67.52 Y48.38
G1 X67.92 Y48.38
G1 X68.33 Y48.38
G1 X68.73 Y48.38
G1 X69.13 Y48.38 Z-0.92
G1 X69.54 Y48.38 Z-0.45
G1 X69.94 Y48.38 Z-0.35
G1 X70.35 Y48.38 Z-0.36 F300.0
G1 X70.75 Y48.38 Z-0.48
G1 X71.16 Y48.38 Z-0.99
G1 X71.56 Y48.38 Z-1.00
G1 X71.96 Y48.38 F400.0
G1 X72.37 Y48.38
G1 X72.77 Y48.38
G1 X73.18 Y48.38
G1 X73.58 Y48.38
G1 X73.99 Y48.38
G1 X74.39 Y48.38
G1 X74.79 Y48.38
G1 X75.20 Y48.38
G1 X75.60 Y48.38
G1 X76.01 Y48.38
G1 X76.41 Y48.38
G1 X76.82 Y48.38
G1 X77.22 Y48.38
G1 X77.63 Y48.38
G1 X78.03 Y48.38
G1 X78.43 Y48.38
G1 X78.84 Y48.38
G1 X79.24 Y48.38
G1 X79.65 Y48.38
G1 X80.05 Y48.38
G1 X80.46 Y48.38
G1 X80.86 Y48.38
G1 X81.26 Y48.38
G1 X81.67 Y48.38
G1 X82.07 Y48.38
G1 X82.48 Y48.38
G1 X82.88 Y48.38
G1 X83.29 Y48.38
G1 X83.69 Y48.38
G1 X84.09 Y48.38
G1 X84.50 Y48.38
G1 X84.90 Y48.38
G1 X85.31 Y48.38
G1 X85.71 Y48.38
G1 X86.12 Y48.38
G1 X86.52 Y48.38
G1 X86.92 Y48.38
G1 X87.33 Y48.38
G1 X87.73 Y48.38
G1 X88.14 Y48.38
G1 X88.54 Y48.38
G1 X88.95 Y48.38
G1 X89.35 Y48.38
G1 X89.75 Y48.38
G1 X90.16 Y48.38
G1 X90.56 Y48.38
G1 X90.97 Y48.38
G1 X91.37 Y48.38
G1 X91.78 Y48.38
G1 X92.18 Y48.38
G1 X92.58 Y48.38
G1 X92.99 Y48.38
G1 X93.39 Y48.38
G1 X93.80 Y48.38
G1 X94.20 Y48.38
G1 X94.61 Y48.38
G1 X95.01 Y48.38
G1 X95.41 Y48.38
G1 X95.82 Y48.38
G1 X96.22 Y48.38
G1 X96.63 Y48.38
G1 X97.03 Y48.38
G1 X97.44 Y48.38
G1 X97.84 Y48.38
G1 X98.24 Y48.38
G1 X98.65 Y48.38
G1 X99.05 Y48.38
G1 X99.46 Y48.38
G1 X99.86 Y48.38
G1 X100.27 Y48.38
G1 X100.67 Y48.38
G1 X101.07 Y48.38
G1 X101.48 Y48.38
G1 X101.88 Y48.38
G1 X102.29 Y48.38
G1 X102.69 Y48.38
G1 X103.10 Y48.38
G1 X103.50 Y48.38
G1 X103.90 Y48.38
G1 X104.31 Y48.38
G1 X104.71 Y48.38
G1 X105.12 Y48.38
G1 X105.52 Y48.38
G1 X105.93 Y48.38
G1 X106.33 Y48.38
G1 X106.73 Y48.38
G1 X107.14 Y48.38
G1 X107.54 Y48.38
G1 X107.95 Y48.38
G1 X108.35 Y48.38
G1 X108.76 Y48.38
G1 X109.16 Y48.38
G1 X109.56 Y48.38
G1 X109.97 Y48.38
G1 X110.37 Y48.38
G1 X110.78 Y48.38
G1 X111.18 Y48.38
G1 X111.59 Y48.38
G1 X111.99 Y48.38
G1 X112.39 Y48.38
G1 X112.80 Y48.38
G1 X113.20 Y48.38
G1 X113.61 Y48.38
G1 X114.01 Y48.38
G1 X114.42 Y48.38
G1 X114.82 Y48.38
G1 X115.22 Y48.38
G1 X115.63 Y48.38
G1 X116.03 Y48.38
G1 X116.44 Y48.38
G1 X116.84 Y48.38
G1 X117.25 Y48.38
G1 X117.65 Y48.38
G1 X118.05 Y48.38
G1 X118.46 Y48.38
G1 X118.86 Y48.38
G1 X119.27 Y48.38
G1 X119.67 Y48.38
G1 X120.08 Y48.38
G1 X120.48 Y48.38
G1 X120.88 Y48.38
G1 X121.29 Y48.38
G1 X121.69 Y48.38
G1 X122.10 Y48.38
G1 X122.50 Y48.38
G1 X122.91 Y48.38
G1 X123.31 Y48.38
G1 X123.71 Y48.38
G1 X124.12 Y48.38
G1 X124.52 Y48.38
G1 X124.93 Y48.38
G1 X125.33 Y48.38
G1 X125.74 Y48.38
G1 X126.14 Y48.38
G1 X126.54 Y48.38
G1 X126.95 Y48.38
G1 X127.35 Y48.38
G1 X127.76 Y48.38
G1 X128.16 Y48.38
G1 X128.57 Y48.38
G1 X128.97 Y48.38
G1 X129.38 Y48.38
G1 X129.78 Y48.38
G1 X130.18 Y48.38
G1 X130.59 Y48.38
G1 X130.99 Y48.38
G1 X131.40 Y48.38
G1 X131.80 Y48.38
G1 X132.21 Y48.38
G1 X132.61 Y48.38
G1 X133.01 Y48.38
G1 X133.42 Y48.38
G1 X133.82 Y48.38
G1 X134.23 Y48.38
G1 X134.63 Y48.38
G1 X135.04 Y48.38
G1 X135.44 Y48.38
G1 X135.84 Y48.38
G1 X136.25 Y48.38
G1 X136.65 Y48.38
G1 X137.06 Y48.38
G1 X137.46 Y48.38
G1 X137.87 Y48.38
G0 Z5.00
G0 X137.97 Y47.97
G1 Z-1.00 F300.0
G1 X137.56 Y47.97 F400.0
G1 X137.16 Y47.97
G1 X136.75 Y47.97
G1 X136.35 Y47.97
G1 X135.94 Y47.97
G1 X135.54 Y47.97
G1 X135.14 Y47.97
G1 X134.73 Y47.97
G1 X134.33 Y47.97
G1 X133.92 Y47.97
G1 X133.52 Y47.97
G1 X133.11 Y47.97
G1 X132.71 Y47.97
G1 X132.31 Y47.97
G1 X131.90 Y47.97
G1 X131.50 Y47.97
G1 X131.09 Y47.97
G1 X130.69 Y47.97
G1 X130.28 Y47.97
G1 X129.88 Y47.97
G1 X129.48 Y47.97
G1 X129.07 Y47.97
G1 X128.67 Y47.97
G1 X128.26 Y47.97
G1 X127.86 Y47.97
G1 X127.45 Y47.97
G1 X127.05 Y47.97
G1 X126.65 Y47.97
G1 X126.24 Y47.97
G1 X125.84 Y47.97
G1 X125.43 Y47.97
G1 X125.03 Y47.97
G1 X124.62 Y47.97
G1 X124.22 Y47.97
G1 X123.82 Y47.97
G1 X123.41 Y47.97
G1 X123.01 Y47.97
G1 X122.60 Y47.97
G1 X122.20 Y47.97
G1 X121.79 Y47.97
G1 X121.39 Y47.97
G1 X120.99 Y47.97
G1 X120.58 Y47.97
G1 X120.18 Y47.97
G1 X119.77 Y47.97
G1 X119.37 Y47.97
G1 X118.96 Y47.97
G1 X118.56 Y47.97
G1 X118.16 Y47.97
G1 X117.75 Y47.97
G1 X117.35 Y47.97
G1 X116.94 Y47.97
G1 X116.54 Y47.97
G1 X116.13 Y47.97
G1 X115.73 Y47.97
G1 X115.33 Y47.97
G1 X114.92 Y47.97
G1 X114.52 Y47.97
G1 X114.11 Y47.97
G1 X113.71 Y47.97
G1 X113.30 Y47.97
G1 X112.90 Y47.97
G1 X112.50 Y47.97
G1 X112.09 Y47.97
G1 X111.69 Y47.97
G1 X111.28 Y47.97
G1 X110.88 Y47.97
G1 X110.47 Y47.97
G1 X110.07 Y47.97
G1 X109.67 Y47.97
G1 X109.26 Y47.97
G1 X108.86 Y47.97
G1 X108.45 Y47.97
G1 X108.05 Y47.97
G1 X107.64 Y47.97
G1 X107.24 Y47.97
G1 X106.84 Y47.97
G1 X106.43 Y47.97
G1 X106.03 Y47.97
G1 X105.62 Y47.97
G1 X105.22 Y47.97
G1 X104.81 Y47.97
G1 X104.41 Y47.97
G1 X104.01 Y47.97
G1 X103.60 Y47.97
G1 X103.20 Y47.97
G1 X102.79 Y47.97
G1 X102.39 Y47.97
G1 X101.98 Y47.97
G1 X101.58 Y47.97
G1 X101.18 Y47.97
G1 X100.77 Y47.97
G1 X100.37 Y47.97
G1 X99.96 Y47.97
G1 X99.56 Y47.97
G1 X99.15 Y47.97
G1 X98.75 Y47.97
G1 X98.35 Y47.97
G1 X97.94 Y47.97
G1 X97.54 Y47.97
G1 X97.13 Y47.97
G1 X96.73 Y47.97
G1 X96.32 Y47.97
G1 X95.92 Y47.97
G1 X95.52 Y47.97
G1 X95.11 Y47.97
G1 X94.71 Y47.97
G1 X94.30 Y47.97
G1 X93.90 Y47.97
G1 X93.49 Y47.97
G1 X93.09 Y47.97
G1 X92.69 Y47.97
G1 X92.28 Y47.97
G1 X91.88 Y47.97
G1 X91.47 Y47.97
G1 X91.07 Y47.97
G1 X90.66 Y47.97
G1 X90.26 Y47.97
G1 X89.85 Y47.97
G1 X89.45 Y47.97
G1 X89.05 Y47.97
G1 X88.64 Y47.97
G1 X88.24 Y47.97
G1 X87.83 Y47.97
G1 X87.43 Y47.97
G1 X87.02 Y47.97
G1 X86.62 Y47.97 Z-0.94
G1 X86.22 Y47.97 Z-0.98 F300.0
G1 X85.81 Y47.97 Z-0.99
G1 X85.41 Y47.97 F400.0
G1 X85.00 Y47.97 Z-1.00 F300.0
G1 X84.60 Y47.97 F400.0
G1 X84.19 Y47.97
G1 X83.79 Y47.97
G1 X83.39 Y47.97
G1 X82.98 Y47.97
G1 X82.58 Y47.97
G1 X82.17 Y47.97
G1 X81.77 Y47.97
G1 X81.36 Y47.97
G1 X80.96 Y47.97
G1 X80.56 Y47.97
G1 X80.15 Y47.97
G1 X79.75 Y47.97
G1 X79.34 Y47.97
G1 X78.94 Y47.97
G1 X78.53 Y47.97
G1 X78.13 Y47.97
G1 X77.73 Y47.97
G1 X77.32 Y47.97
G1 X76.92 Y47.97
G1 X76.51 Y47.97
G1 X76.11 Y47.97
G1 X75.70 Y47.97
G1 X75.30 Y47.97
G1 X74.90 Y47.97
G1 X74.49 Y47.97
G1 X74.09 Y47.97
G1 X73.68 Y47.97
G1 X73.28 Y47.97
G1 X72.87 Y47.97
G1 X72.47 Y47.97
G1 X72.07 Y47.97
G1 X71.66 Y47.97
G1 X71.26 Y47.97 Z-0.55
G1 X70.85 Y47.97 Z-0.47
G1 X70.45 Y47.97 Z-0.39
G1 X70.04 Y47.97 Z-0.38
G1 X69.64 Y47.97 Z-0.37
G1 X69.24 Y47.97 Z-0.47 F300.0
G1 X68.83 Y47.97 Z-0.71
G1 X68.43 Y47.97 Z-1.00
G1 X68.02 Y47.97 F400.0
G1 X67.62 Y47.97
G1 X67.21 Y47.97
G1 X66.81 Y47.97
G1 X66.41 Y47.97
G1 X66.00 Y47.97
G1 X65.60 Y47.97
G1 X65.19 Y47.97
G1 X64.79 Y47.97
G1 X64.38 Y47.97
G1 X63.98 Y47.97
G1 X63.58 Y47.97
G1 X63.17 Y47.97
G1 X62.77 Y47.97
G1 X62.36 Y47.97
G1 X61.96 Y47.97
G1 X61.55 Y47.97
G1 X61.15 Y47.97
G1 X60.75 Y47.97
G1 X60.34 Y47.97
G1 X59.94 Y47.97
G1 X59.53 Y47.97
G1 X59.13 Y47.97
G1 X58.72 Y47.97
G1 X58.32 Y47.97
G1 X57.92 Y47.97
G1 X57.51 Y47.97
G1 X57.11 Y47.97
G1 X56.70 Y47.97
G1 X56.30 Y47.97
G1 X55.89 Y47.97
G1 X55.49 Y47.97
G1 X55.09 Y47.97
G1 X54.68 Y47.97
G1 X54.28 Y47.97
G1 X53.87 Y47.97
G1 X53.47 Y47.97
G1 X53.06 Y47.97
G1 X52.66 Y47.97 Z-0.99
G1 X52.26 Y47.97
G1 X51.85 Y47.97
G1 X51.45 Y47.97
G1 X51.04 Y47.97 Z-0.94
G1 X50.64 Y47.97 Z-0.99 F300.0
G1 X50.23 Y47.97 Z-1.00
G1 X49.83 Y47.97 F400.0
G1 X49.43 Y47.97
G1 X49.02 Y47.97
G1 X48.62 Y47.97
G1 X48.21 Y47.97
G1 X47.81 Y47.97
G1 X47.40 Y47.97
G1 X47.00 Y47.97
G1 X46.60 Y47.97
G1 X46.19 Y47.97
G1 X45.79 Y47.97
G1 X45.38 Y47.97
G1 X44.98 Y47.97
G1 X44.57 Y47.97
G1 X44.17 Y47.97
G1 X43.77 Y47.97
G1 X43.36 Y47.97
G1 X42.96 Y47.97
G1 X42.55 Y47.97
G1 X42.15 Y47.97
G1 X41.74 Y47.97
G1 X41.34 Y47.97
G1 X40.94 Y47.97
G1 X40.53 Y47.97
G1 X40.13 Y47.97
G1 X39.72 Y47.97
G1 X39.32 Y47.97
G1 X38.91 Y47.97
G1 X38.51 Y47.97
G1 X38.10 Y47.97
G1 X37.70 Y47.97
G1 X37.30 Y47.97
G1 X36.89 Y47.97
G1 X36.49 Y47.97
G1 X36.08 Y47.97
G1 X35.68 Y47.97
G1 X35.27 Y47.97
G1 X34.87 Y47.97
G1 X34.47 Y47.97
G1 X34.06 Y47.97
G1 X33.66 Y47.97
G1 X33.25 Y47.97
G1 X32.85 Y47.97
G1 X32.44 Y47.97
G1 X32.04 Y47.97
G1 X31.64 Y47.97
G1 X31.23 Y47.97
G1 X30.83 Y47.97
G1 X30.42 Y47.97
G1 X30.02 Y47.97
G1 X29.61 Y47.97
G1 X29.21 Y47.97
G1 X28.81 Y47.97
G1 X28.40 Y47.97
G1 X28.00 Y47.97
G1 X27.59 Y47.97
G1 X27.19 Y47.97
G1 X26.78 Y47.97
G1 X26.38 Y47.97
G1 X25.98 Y47.97
G1 X25.57 Y47.97
G1 X25.17 Y47.97
G1 X24.76 Y47.97
G1 X24.36 Y47.97
G1 X23.95 Y47.97
G1 X23.55 Y47.97
G1 X23.15 Y47.97
G1 X22.74 Y47.97
G1 X22.34 Y47.97
G1 X21.93 Y47.97
G1 X21.53 Y47.97
G1 X21.12 Y47.97
G1 X20.72 Y47.97
G1 X20.32 Y47.97
G1 X19.91 Y47.97
G1 X19.51 Y47.97
G1 X19.10 Y47.97
G1 X18.70 Y47.97
G1 X18.29 Y47.97
G1 X17.89 Y47.97
G1 X17.49 Y47.97
G1 X17.08 Y47.97
G1 X16.68 Y47.97
G1 X16.27 Y47.97
G1 X15.87 Y47.97
G1 X15.46 Y47.97
G1 X15.06 Y47.97
G1 X14.66 Y47.97
G1 X14.25 Y47.97
G1 X13.85 Y47.97
G1 X13.44 Y47.97
G1 X13.04 Y47.97
G1 X12.63 Y47.97
G1 X12.23 Y47.97
G1 X11.83 Y47.97
G1 X11.42 Y47.97
G1 X11.02 Y47.97
G1 X10.61 Y47.97
G1 X10.21 Y47.97
G1 X9.80 Y47.97
G1 X9.40 Y47.97
G1 X9.00 Y47.97
G1 X8.59 Y47.97
G1 X8.19 Y47.97
G1 X7.78 Y47.97
G1 X7.38 Y47.97
G1 X6.97 Y47.97
G1 X6.57 Y47.97
G1 X6.17 Y47.97
G1 X5.76 Y47.97
G1 X5.36 Y47.97
G1 X4.95 Y47.97
G1 X4.55 Y47.97
G1 X4.14 Y47.97
G1 X3.74 Y47.97
G1 X3.34 Y47.97
G1 X2.93 Y47.97
G1 X2.53 Y47.97
G1 X2.12 Y47.97
G1 X1.72 Y47.97
G1 X1.31 Y47.97
G1 X0.91 Y47.97
G1 X0.51 Y47.97
G1 X0.10 Y47.97
G0 Z5.00
G0 X0.00 Y47.57
G1 Z-1.00 F300.0
G1 X0.40 Y47.57 F400.0
G1 X0.81 Y47.57
G1 X1.21 Y47.57
G1 X1.62 Y47.57
G1 X2.02 Y47.57
G1 X2.43 Y47.57
G1 X2.83 Y47.57
G1 X3.23 Y47.57
G1 X3.64 Y47.57
G1 X4.04 Y47.57
G1 X4.45 Y47.57
G1 X4.85 Y47.57
G1 X5.26 Y47.57
G1 X5.66 Y47.57
G1 X6.06 Y47.57
G1 X6.47 Y47.57
G1 X6.87 Y47.57
G1 X7.28 Y47.57
G1 X7.68 Y47.57
G1 X8.09 Y47.57
G1 X8.49 Y47.57
G1 X8.89 Y47.57
G1 X9.30 Y47.57
G1 X9.70 Y47.57
G1 X10.11 Y47.57
G1 X10.51 Y47.57
G1 X10.92 Y47.57
G1 X11.32 Y47.57
G1 X11.72 Y47.57
G1 X12.13 Y47.57
G1 X12.53 Y47.57
G1 X12.94 Y47.57
G1 X13.34 Y47.57
G1 X13.75 Y47.57
G1 X14.15 Y47.57
G1 X14.55 Y47.57
G1 X14.96 Y47.57
G1 X15.36 Y47.57
G1 X15.77 Y47.57
G1 X16.17 Y47.57
G1 X16.58 Y47.57
G1 X16.98 Y47.57
G1 X17.38 Y47.57
G1 X17.79 Y47.57
G1 X18.19 Y47.57
G1 X18.60 Y47.57
G1 X19.00 Y47.57
G1 X19.41 Y47.57
G1 X19.81 Y47.57
G1 X20.21 Y47.57
G1 X20.62 Y47.57
G1 X21.02 Y47.57
G1 X21.43 Y47.57
G1 X21.83 Y47.57
G1 X22.24 Y47.57
G1 X22.64 Y47.57
G1 X23.04 Y47.57
G1 X23.45 Y47.57
G1 X23.85 Y47.57
G1 X24.26 Y47.57
G1 X24.66 Y47.57
G1 X25.07 Y47.57
G1 X25.47 Y47.57
G1 X25.88 Y47.57
G1 X26.28 Y47.57
G1 X26.68 Y47.57
G1 X27.09 Y47.57
G1 X27.49 Y47.57
G1 X27.90 Y47.57
G1 X28.30 Y47.57
G1 X28.71 Y47.57
G1 X29.11 Y47.57
G1 X29.51 Y47.57
G1 X29.92 Y47.57
G1 X30.32 Y47.57
G1 X30.73 Y47.57
G1 X31.13 Y47.57
G1 X31.54 Y47.57
G1 X31.94 Y47.57
G1 X32.34 Y47.57
G1 X32.75 Y47.57
G1 X33.15 Y47.57
G1 X33.56 Y47.57
G1 X33.96 Y47.57
G1 X34.37 Y47.57
G1 X34.77 Y47.57
G1 X35.17 Y47.57
G1 X35.58 Y47.57
G1 X35.98 Y47.57
G1 X36.39 Y47.57
G1 X36.79 Y47.57
G1 X37.20 Y47.57
G1 X37.60 Y47.57
G1 X38.00 Y47.57
G1 X38.41 Y47.57
G1 X38.81 Y47.57
G1 X39.22 Y47.57
G1 X39.62 Y47.57
G1 X40.03 Y47.57
G1 X40.43 Y47.57
G1 X40.83 Y47.57
G1 X41.24 Y47.57
G1 X41.64 Y47.57
G1 X42.05 Y47.57
G1 X42.45 Y47.57
G1 X42.86 Y47.57
G1 X43.26 Y47.57
G1 X43.66 Y47.57
G1 X44.07 Y47.57
G1 X44.47 Y47.57
G1 X44.88 Y47.57
G1 X45.28 Y47.57
G1 X45.69 Y47.57
G1 X46.09 Y47.57
G1 X46.49 Y47.57
G1 X46.90 Y47.57
G1 X47.30 Y47.57
G1 X47.71 Y47.57
G1 X48.11 Y47.57
G1 X48.52 Y47.57
G1 X48.92 Y47.57
G1 X49.32 Y47.57
G1 X49.73 Y47.57
G1 X50.13 Y47.57
G1 X50.54 Y47.57
G1 X50.94 Y47.57 Z-0.87
G1 X51.35 Y47.57 Z-0.15
G1 X51.75 Y47.57 Z-0.14
G1 X52.15 Y47.57 Z-0.19 F300.0
G1 X52.56 Y47.57 Z-0.17 F400.0
G1 X52.96 Y47.57 Z-0.16
G1 X53.37 Y47.57 Z-0.18 F300.0
G1 X53.77 Y47.57 Z-0.24
G1 X54.18 Y47.57 Z-0.29
G1 X54.58 Y47.57 Z-0.61
G1 X54.98 Y47.57 Z-0.62
G1 X55.39 Y47.57 Z-0.84
G1 X55.79 Y47.57 Z-0.87
G1 X56.20 Y47.57 F400.0
G1 X56.60 Y47.57
G1 X57.01 Y47.57
G1 X57.41 Y47.57
G1 X57.81 Y47.57 Z-0.89 F300.0
G1 X58.22 Y47.57 Z-0.98
G1 X58.62 Y47.57 Z-0.99
G1 X59.03 Y47.57 F400.0
G1 X59.43 Y47.57 Z-1.00 F300.0
G1 X59.84 Y47.57 F400.0
G1 X60.24 Y47.57
G1 X60.64 Y47.57
G1 X61.05 Y47.57
G1 X61.45 Y47.57
G1 X61.86 Y47.57
G1 X62.26 Y47.57
G1 X62.67 Y47.57
G1 X63.07 Y47.57
G1 X63.47 Y47.57
G1 X63.88 Y47.57
G1 X64.28 Y47.57
G1 X64.69 Y47.57
G1 X65.09 Y47.57
G1 X65.50 Y47.57
G1 X65.90 Y47.57
G1 X66.30 Y47.57
G1 X66.71 Y47.57
G1 X67.11 Y47.57
G1 X67.52 Y47.57
G1 X67.92 Y47.57
G1 X68.33 Y47.57 Z-0.82
G1 X68.73 Y47.57 Z-0.48
G1 X69.13 Y47.57 Z-0.42
G1 X69.54 Y47.57
G1 X69.94 Y47.57 Z-0.45 F300.0
G1 X70.35 Y47.57 F400.0
G1 X70.75 Y47.57 Z-0.43
G1 X71.16 Y47.57 Z-0.47 F300.0
G1 X71.56 Y47.57 Z-0.52
G1 X71.96 Y47.57 Z-0.89
G1 X72.37 Y47.57 Z-0.99
G1 X72.77 Y47.57 Z-1.00
G1 X73.18 Y47.57 F400.0
G1 X73.58 Y47.57
G1 X73.99 Y47.57
G1 X74.39 Y47.57
G1 X74.79 Y47.57
G1 X75.20 Y47.57
G1 X75.60 Y47.57
G1 X76.01 Y47.57
G1 X76.41 Y47.57
G1 X76.82 Y47.57
G1 X77.22 Y47.57
G1 X77.63 Y47.57
G1 X78.03 Y47.57
G1 X78.43 Y47.57
G1 X78.84 Y47.57
G1 X79.24 Y47.57 Z-0.98
G1 X79.65 Y47.57 Z-0.89
G1 X80.05 Y47.57
G1 X80.46 Y47.57
G1 X80.86 Y47.57
G1 X81.26 Y47.57
G1 X81.67 Y47.57 Z-0.88
G1 X82.07 Y47.57
G1 X82.48 Y47.57 Z-0.65
G1 X82.88 Y47.57 Z-0.64
G1 X83.29 Y47.57 Z-0.47
G1 X83.69 Y47.57 Z-0.31
G1 X84.09 Y47.57 Z-0.24
G1 X84.50 Y47.57
G1 X84.90 Y47.57 Z-0.22
G1 X85.31 Y47.57 Z-0.23 F300.0
G1 X85.71 Y47.57 Z-0.21 F400.0
G1 X86.12 Y47.57 Z-0.19
G1 X86.52 Y47.57
G1 X86.92 Y47.57 Z-1.00 F300.0
G1 X87.33 Y47.57 F400.0
G1 X87.73 Y47.57
G1 X88.14 Y47.57
G1 X88.54 Y47.57
G1 X88.95 Y47.57
G1 X89.35 Y47.57
G1 X89.75 Y47.57
G1 X90.16 Y47.57
G1 X90.56 Y47.57
G1 X90.97 Y47.57
G1 X91.37 Y47.57
G1 X91.78 Y47.57
G1 X92.18 Y47.57
G1 X92.58 Y47.57
G1 X92.99 Y47.57
G1 X93.39 Y47.57
G1 X93.80 Y47.57
G1 X94.20 Y47.57
G1 X94.61 Y47.57
G1 X95.01 Y47.57
G1 X95.41 Y47.57
G1 X95.82 Y47.57
G1 X96.22 Y47.57
G1 X96.63 Y47.57
G1 X97.03 Y47.57
G1 X97.44 Y47.57
G1 X97.84 Y47.57
G1 X98.24 Y47.57
G1 X98.65 Y47.57
G1 X99.05 Y47.57
G1 X99.46 Y47.57
G1 X99.86 Y47.57
G1 X100.27 Y47.57
G1 X100.67 Y47.57
G1 X101.07 Y47.57
G1 X101.48 Y47.57
G1 X101.88 Y47.57
G1 X102.29 Y47.57
G1 X102.69 Y47.57
G1 X103.10 Y47.57
G1 X103.50 Y47.57
G1 X103.90 Y47.57
G1 X104.31 Y47.57
G1 X104.71 Y47.57
G1 X105.12 Y47.57
G1 X105.52 Y47.57
G1 X105.93 Y47.57
G1 X106.33 Y47.57
G1 X106.73 Y47.57
G1 X107.14 Y47.57
G1 X107.54 Y47.57
G1 X107.95 Y47.57
G1 X108.35 Y47.57
G1 X108.76 Y47.57
G1 X109.16 Y47.57
G1 X109.56 Y47.57
G1 X109.97 Y47.57
G1 X110.37 Y47.57
G1 X110.78 Y47.57
G1 X111.18 Y47.57
G1 X111.59 Y47.57
G1 X111.99 Y47.57
G1 X112.39 Y47.57
G1 X112.80 Y47.57
G1 X113.20 Y47.57
G1 X113.61 Y47.57
G1 X114.01 Y47.57
G1 X114.42 Y47.57
G1 X114.82 Y47.57
G1 X115.22 Y47.57
G1 X115.63 Y47.57
G1 X116.03 Y47.57
G1 X116.44 Y47.57
G1 X116.84 Y47.57
G1 X117.25 Y47.57
G1 X117.65 Y47.57
G1 X118.05 Y47.57
G1 X118.46 Y47.57
G1 X118.86 Y47.57
G1 X119.27 Y47.57
G1 X119.67 Y47.57
G1 X120.08 Y47.57
G1 X120.48 Y47.57
G1 X120.88 Y47.57
G1 X121.29 Y47.57
G1 X121.69 Y47.57
G1 X122.10 Y47.57
G1 X122.50 Y47.57
G1 X122.91 Y47.57
G1 X123.31 Y47.57
G1 X123.71 Y47.57
G1 X124.12 Y47.57
G1 X124.52 Y47.57
G1 X124.93 Y47.57
G1 X125.33 Y47.57
G1 X125.74 Y47.57
G1 X126.14 Y47.57
G1 X126.54 Y47.57
G1 X126.95 Y47.57
G1 X127.35 Y47.57
G1 X127.76 Y47.57
G1 X128.16 Y47.57
G1 X128.57 Y47.57
G1 X128.97 Y47.57
G1 X129.38 Y47.57
G1 X129.78 Y47.57
G1 X130.18 Y47.57
G1 X130.59 Y47.57
G1 X130.99 Y47.57
G1 X131.40 Y47.57
G1 X131.80 Y47.57
G1 X132.21 Y47.57
G1 X132.61 Y47.57
G1 X133.01 Y47.57
G1 X133.42 Y47.57
G1 X133.82 Y47.57
G1 X134.23 Y47.57
G1 X134.63 Y47.57
G1 X135.04 Y47.57
G1 X135.44 Y47.57
G1 X135.84 Y47.57
G1 X136.25 Y47.57
G1 X136.65 Y47.57
G1 X137.06 Y47.57
G1 X137.46 Y47.57
G1 X137.87 Y47.57
G0 Z5.00
G0 X137.97 Y47.16
G1 Z-1.00 F300.0
G1 X137.56 Y47.16 F400.0
G1 X137.16 Y47.16
G1 X136.75 Y47.16
G1 X136.35 Y47.16
G1 X135.94 Y47.16
G1 X135.54 Y47.16
G1 X135.14 Y47.16
G1 X134.73 Y47.16
G1 X134.33 Y47.16
G1 X133.92 Y47.16
G1 X133.52 Y47.16
G1 X133.11 Y47.16
G1 X132.71 Y47.16
G1 X132.31 Y47.16
G1 X131.90 Y47.16
G1 X131.50 Y47.16
G1 X131.09 Y47.16
G1 X130.69 Y47.16
G1 X130.28 Y47.16
G1 X129.88 Y47.16
G1 X129.48 Y47.16
G1 X129.07 Y47.16
G1 X128.67 Y47.16
G1 X128.26 Y47.16
G1 X127.86 Y47.16
G1 X127.45 Y47.16
G1 X127.05 Y47.16
G1 X126.65 Y47.16
G1 X126.24 Y47.16
G1 X125.84 Y47.16
G1 X125.43 Y47.16
G1 X125.03 Y47.16
G1 X124.62 Y47.16
G1 X124.22 Y47.16
G1 X123.82 Y47.16
G1 X123.41 Y47.16
G1 X123.01 Y47.16
G1 X122.60 Y47.16
G1 X122.20 Y47.16
G1 X121.79 Y47.16
G1 X121.39 Y47.16
G1 X120.99 Y47.16
G1 X120.58 Y47.16
G1 X120.18 Y47.16
G1 X119.77 Y47.16
G1 X119.37 Y47.16
G1 X118.96 Y47.16
G1 X118.56 Y47.16
G1 X118.16 Y47.16
G1 X117.75 Y47.16
G1 X117.35 Y47.16
G1 X116.94 Y47.16
G1 X116.54 Y47.16
G1 X116.13 Y47.16
G1 X115.73 Y47.16
G1 X115.33 Y47.16
G1 X114.92 Y47.16
G1 X114.52 Y47.16
G1 X114.11 Y47.16
G1 X113.71 Y47.16
G1 X113.30 Y47.16
G1 X112.90 Y47.16
G1 X112.50 Y47.16
G1 X112.09 Y47.16
G1 X111.69 Y47.16
G1 X111.28 Y47.16
G1 X110.88 Y47.16
G1 X110.47 Y47.16
G1 X110.07 Y47.16
G1 X109.67 Y47.16
G1 X109.26 Y47.16
G1 X108.86 Y47.16
G1 X108.45 Y47.16
G1 X108.05 Y47.16
G1 X107.64 Y47.16
G1 X107.24 Y47.16
G1 X106.84 Y47.16
G1 X106.43 Y47.16
G1 X106.03 Y47.16
G1 X105.62 Y47.16
G1 X105.22 Y47.16
G1 X104.81 Y47.16
G1 X104.41 Y47.16
G1 X104.01 Y47.16
G1 X103.60 Y47.16
G1 X103.20 Y47.16
G1 X102.79 Y47.16
G1 X102.39 Y47.16
G1 X101.98 Y47.16
G1 X101.58 Y47.16
G1 X101.18 Y47.16
G1 X100.77 Y47.16
G1 X100.37 Y47.16
G1 X99.96 Y47.16
G1 X99.56 Y47.16
G1 X99.15 Y47.16
G1 X98.75 Y47.16
G1 X98.35 Y47.16
G1 X97.94 Y47.16
G1 X97.54 Y47.16
G1 X97.13 Y47.16
G1 X96.73 Y47.16
G1 X96.32 Y47.16
G1 X95.92 Y47.16
G1 X95.52 Y47.16
G1 X95.11 Y47.16
G1 X94.71 Y47.16
G1 X94.30 Y47.16
G1 X93.90 Y47.16
G1 X93.49 Y47.16
G1 X93.09 Y47.16
G1 X92.69 Y47.16
G1 X92.28 Y47.16
G1 X91.88 Y47.16
G1 X91.47 Y47.16
G1 X91.07 Y47.16
G1 X90.66 Y47.16
G1 X90.26 Y47.16
G1 X89.85 Y47.16
G1 X89.45 Y47.16
G1 X89.05 Y47.16
G1 X88.64 Y47.16
G1 X88.24 Y47.16
G1 X87.83 Y47.16
G1 X87.43 Y47.16
G1 X87.02 Y47.16
G1 X86.62 Y47.16 Z-0.99
G1 X86.22 Y47.16 Z-0.22
G1 X85.81 Y47.16 Z-0.07
G1 X85.41 Y47.16 Z-0.08
G1 X85.00 Y47.16 Z-0.10 F300.0
G1 X84.60 Y47.16 Z-0.12
G1 X84.19 Y47.16 Z-0.15
G1 X83.79 Y47.16 Z-0.18
G1 X83.39 Y47.16 Z-0.21
G1 X82.98 Y47.16 Z-0.23
G1 X82.58 Y47.16 Z-0.25
G1 X82.17 Y47.16 Z-0.28
G1 X81.77 Y47.16 Z-0.29 F400.0
G1 X81.36 Y47.16 Z-0.31 F300.0
G1 X80.96 Y47.16 Z-0.33
G1 X80.56 Y47.16 Z-0.34
G1 X80.15 Y47.16 Z-0.35 F400.0
G1 X79.75 Y47.16 Z-0.37 F300.0
G1 X79.34 Y47.16 Z-0.38
G1 X78.94 Y47.16 Z-0.40
G1 X78.53 Y47.16 Z-0.42
G1 X78.13 Y47.16 Z-0.51
G1 X77.73 Y47.16 Z-0.99
G1 X77.32 Y47.16 Z-1.00
G1 X76.92 Y47.16 F400.0
G1 X76.51 Y47.16
G1 X76.11 Y47.16
G1 X75.70 Y47.16
G1 X75.30 Y47.16
G1 X74.90 Y47.16
G1 X74.49 Y47.16
G1 X74.09 Y47.16
G1 X73.68 Y47.16
G1 X73.28 Y47.16
G1 X72.87 Y47.16 Z-0.99
G1 X72.47 Y47.16 Z-0.50
G1 X72.07 Y47.16 Z-0.47
G1 X71.66 Y47.16 Z-0.44
G1 X71.26 Y47.16
G1 X70.85 Y47.16 Z-0.49 F300.0
G1 X70.45 Y47.16 Z-0.52
G1 X70.04 Y47.16 F400.0
G1 X69.64 Y47.16 Z-0.51
G1 X69.24 Y47.16 Z-0.46
G1 X68.83 Y47.16 Z-0.41
G1 X68.43 Y47.16 Z-0.44 F300.0
G1 X68.02 Y47.16 Z-0.46
G1 X67.62 Y47.16 Z-0.98
G1 X67.21 Y47.16 Z-1.00
G1 X66.81 Y47.16 F400.0
G1 X66.41 Y47.16
G1 X66.00 Y47.16
G1 X65.60 Y47.16
G1 X65.19 Y47.16
G1 X64.79 Y47.16
G1 X64.38 Y47.16
G1 X63.98 Y47.16
G1 X63.58 Y47.16
G1 X63.17 Y47.16
G1 X62.77 Y47.16
G1 X62.36 Y47.16
G1 X61.96 Y47.16
G1 X61.55 Y47.16
G1 X61.15 Y47.16
G1 X60.75 Y47.16
G1 X60.34 Y47.16
G1 X59.94 Y47.16 Z-0.99
G1 X59.53 Y47.16 Z-0.44
G1 X59.13 Y47.16 Z-0.29
G1 X58.72 Y47.16 Z-0.28
G1 X58.32 Y47.16 Z-0.29
G1 X57.92 Y47.16
G1 X57.51 Y47.16
G1 X57.11 Y47.16 Z-0.27
G1 X56.70 Y47.16 Z-0.26
G1 X56.30 Y47.16 Z-0.25
G1 X55.89 Y47.16 Z-0.24
G1 X55.49 Y47.16 Z-0.23
G1 X55.09 Y47.16 Z-0.21
G1 X54.68 Y47.16 Z-0.18
G1 X54.28 Y47.16 Z-0.16
G1 X53.87 Y47.16 Z-0.15
G1 X53.47 Y47.16 Z-0.13
G1 X53.06 Y47.16 Z-0.11
G1 X52.66 Y47.16 Z-0.09
G1 X52.26 Y47.16
G1 X51.85 Y47.16 Z-0.07
G1 X51.45 Y47.16 Z-0.16 F300.0
G1 X51.04 Y47.16 Z-0.98
G1 X50.64 Y47.16 Z-1.00
G1 X50.23 Y47.16 F400.0
G1 X49.83 Y47.16
G1 X49.43 Y47.16
G1 X49.02 Y47.16
G1 X48.62 Y47.16
G1 X48.21 Y47.16
G1 X47.81 Y47.16
G1 X47.40 Y47.16
G1 X47.00 Y47.16
G1 X46.60 Y47.16
G1 X46.19 Y47.16
G1 X45.79 Y47.16
G1 X45.38 Y47.16
G1 X44.98 Y47.16
G1 X44.57 Y47.16
G1 X44.17 Y47.16
G1 X43.77 Y47.16
G1 X43.36 Y47.16
G1 X42.96 Y47.16
G1 X42.55 Y47.16
G1 X42.15 Y47.16
G1 X41.74 Y47.16
G1 X41.34 Y47.16
G1 X40.94 Y47.16
G1 X40.53 Y47.16
G1 X40.13 Y47.16
G1 X39.72 Y47.16
G1 X39.32 Y47.16
G1 X38.91 Y47.16
G1 X38.51 Y47.16
G1 X38.10 Y47.16
G1 X37.70 Y47.16
G1 X37.30 Y47.16
G1 X36.89 Y47.16
G1 X36.49 Y47.16
G1 X36.08 Y47.16
G1 X35.68 Y47.16
G1 X35.27 Y47.16
G1 X34.87 Y47.16
G1 X34.47 Y47.16
G1 X34.06 Y47.16
G1 X33.66 Y47.16
G1 X33.25 Y47.16
G1 X32.85 Y47.16
G1 X32.44 Y47.16
G1 X32.04 Y47.16
G1 X31.64 Y47.16
G1 X31.23 Y47.16
G1 X30.83 Y47.16
G1 X30.42 Y47.16
G1 X30.02 Y47.16
G1 X29.61 Y47.16
G1 X29.21 Y47.16
G1 X28.81 Y47.16
G1 X28.40 Y47.16
G1 X28.00 Y47.16
G1 X27.59 Y47.16
G1 X27.19 Y47.16
G1 X26.78 Y47.16
G1 X26.38 Y47.16
G1 X25.98 Y47.16
G1 X25.57 Y47.16
G1 X25.17 Y47.16
G1 X24.76 Y47.16
G1 X24.36 Y47.16
G1 X23.95 Y47.16
G1 X23.55 Y47.16
G1 X23.15 Y47.16
G1 X22.74 Y47.16
G1 X22.34 Y47.16
G1 X21.93 Y47.16
G1 X21.53 Y47.16
G1 X21.12 Y47.16
G1 X20.72 Y47.16
G1 X20.32 Y47.16
G1 X19.91 Y47.16
G1 X19.51 Y47.16
G1 X19.10 Y47.16
G1 X18.70 Y47.16
G1 X18.29 Y47.16
G1 X17.89 Y47.16
G1 X17.49 Y47.16
G1 X17.08 Y47.16
G1 X16.68 Y47.16
G1 X16.27 Y47.16
G1 X15.87 Y47.16
G1 X15.46 Y47.16
G1 X15.06 Y47.16
G1 X14.66 Y47.16
G1 X14.25 Y47.16
G1 X13.85 Y47.16
G1 X13.44 Y47.16
G1 X13.04 Y47.16
G1 X12.63 Y47.16
G1 X12.23 Y47.16
G1 X11.83 Y47.16
G1 X11.42 Y47.16
G1 X11.02 Y47.16
G1 X10.61 Y47.16
G1 X10.21 Y47.16
G1 X9.80 Y47.16
G1 X9.40 Y47.16
G1 X9.00 Y47.16
G1 X8.59 Y47.16
G1 X8.19 Y47.16
G1 X7.78 Y47.16
G1 X7.38 Y47.16
G1 X6.97 Y47.16
G1 X6.57 Y47.16
G1 X6.17 Y47.16
G1 X5.76 Y47.16
G1 X5.36 Y47.16
G1 X4.95 Y47.16
G1 X4.55 Y47.16
G1 X4.14 Y47.16
G1 X3.74 Y47.16
G1 X3.34 Y47.16
G1 X2.93 Y47.16
G1 X2.53 Y47.16
G1 X2.12 Y47.16
G1 X1.72 Y47.16
G1 X1.31 Y47.16
G1 X0.91 Y47.16
G1 X0.51 Y47.16
G1 X0.10 Y47.16
G0 Z5.00
G0 X0.00 Y46.76
G1 Z-1.00 F300.0
G1 X0.40 Y46.76 F400.0
G1 X0.81 Y46.76
G1 X1.21 Y46.76
G1 X1.62 Y46.76
G1 X2.02 Y46.76
G1 X2.43 Y46.76
G1 X2.83 Y46.76
G1 X3.23 Y46.76
G1 X3.64 Y46.76
G1 X4.04 Y46.76
G1 X4.45 Y46.76
G1 X4.85 Y46.76
G1 X5.26 Y46.76
G1 X5.66 Y46.76
G1 X6.06 Y46.76
G1 X6.47 Y46.76
G1 X6.87 Y46.76
G1 X7.28 Y46.76
G1 X7.68 Y46.76
G1 X8.09 Y46.76
G1 X8.49 Y46.76
G1 X8.89 Y46.76
G1 X9.30 Y46.76
G1 X9.70 Y46.76
G1 X10.11 Y46.76
G1 X10.51 Y46.76
G1 X10.92 Y46.76
G1 X11.32 Y46.76
G1 X11.72 Y46.76
G1 X12.13 Y46.76
G1 X12.53 Y46.76
G1 X12.94 Y46.76
G1 X13.34 Y46.76
G1 X13.75 Y46.76
G1 X14.15 Y46.76
G1 X14.55 Y46.76
G1 X14.96 Y46.76
G1 X15.36 Y46.76
G1 X15.77 Y46.76
G1 X16.17 Y46.76
G1 X16.58 Y46.76
G1 X16.98 Y46.76
G1 X17.38 Y46.76
G1 X17.79 Y46.76
G1 X18.19 Y46.76
G1 X18.60 Y46.76
G1 X19.00 Y46.76
G1 X19.41 Y46.76
G1 X19.81 Y46.76
G1 X20.21 Y46.76
G1 X20.62 Y46.76
G1 X21.02 Y46.76
G1 X21.43 Y46.76
G1 X21.83 Y46.76
G1 X22.24 Y46.76
G1 X22.64 Y46.76
G1 X23.04 Y46.76
G1 X23.45 Y46.76
G1 X23.85 Y46.76
G1 X24.26 Y46.76
G1 X24.66 Y46.76
G1 X25.07 Y46.76
G1 X25.47 Y46.76
G1 X25.88 Y46.76
G1 X26.28 Y46.76
G1 X26.68 Y46.76
G1 X27.09 Y46.76
G1 X27.49 Y46.76
G1 X27.90 Y46.76
G1 X28.30 Y46.76
G1 X28.71 Y46.76
G1 X29.11 Y46.76
G1 X29.51 Y46.76
G1 X29.92 Y46.76
G1 X30.32 Y46.76
G1 X30.73 Y46.76
G1 X31.13 Y46.76
G1 X31.54 Y46.76
G1 X31.94 Y46.76
G1 X32.34 Y46.76
G1 X32.75 Y46.76
G1 X33.15 Y46.76
G1 X33.56 Y46.76
G1 X33.96 Y46.76
G1 X34.37 Y46.76
G1 X34.77 Y46.76
G1 X35.17 Y46.76
G1 X35.58 Y46.76
G1 X35.98 Y46.76
G1 X36.39 Y46.76
G1 X36.79 Y46.76
G1 X37.20 Y46.76
G1 X37.60 Y46.76
G1 X38.00 Y46.76
G1 X38.41 Y46.76
G1 X38.81 Y46.76
G1 X39.22 Y46.76
G1 X39.62 Y46.76
G1 X40.03 Y46.76
G1 X40.43 Y46.76
G1 X40.83 Y46.76
G1 X41.24 Y46.76
G1 X41.64 Y46.76
G1 X42.05 Y46.76
G1 X42.45 Y46.76
G1 X42.86 Y46.76
G1 X43.26 Y46.76
G1 X43.66 Y46.76
G1 X44.07 Y46.76
G1 X44.47 Y46.76
G1 X44.88 Y46.76
G1 X45.28 Y46.76
G1 X45.69 Y46.76
G1 X46.09 Y46.76
G1 X46.49 Y46.76
G1 X46.90 Y46.76
G1 X47.30 Y46.76
G1 X47.71 Y46.76
G1 X48.11 Y46.76
G1 X48.52 Y46.76
G1 X48.92 Y46.76
G1 X49.32 Y46.76
G1 X49.73 Y46.76
G1 X50.13 Y46.76
G1 X50.54 Y46.76
G1 X50.94 Y46.76
G1 X51.35 Y46.76 Z-0.39
G1 X51.75 Y46.76 Z-0.13
G1 X52.15 Y46.76 Z-0.09
G1 X52.56 Y46.76 Z-0.11 F300.0
G1 X52.96 Y46.76 Z-0.13
G1 X53.37 Y46.76 Z-0.15
G1 X53.77 Y46.76 Z-0.16
G1 X54.18 Y46.76 Z-0.18
G1 X54.58 Y46.76 Z-0.20
G1 X54.98 Y46.76 Z-0.22
G1 X55.39 Y46.76 Z-0.24
G1 X55.79 Y46.76 Z-0.25
G1 X56.20 Y46.76 Z-0.27
G1 X56.60 Y46.76 Z-0.28
G1 X57.01 Y46.76 Z-0.29 F400.0
G1 X57.41 Y46.76 Z-0.31 F300.0
G1 X57.81 Y46.76 F400.0
G1 X58.22 Y46.76 Z-0.32 F300.0
G1 X58.62 Y46.76 Z-0.33
G1 X59.03 Y46.76 F400.0
G1 X59.43 Y46.76 Z-0.32
G1 X59.84 Y46.76 Z-0.31
G1 X60.24 Y46.76
G1 X60.64 Y46.76 Z-0.98 F300.0
G1 X61.05 Y46.76 Z-1.00
G1 X61.45 Y46.76 F400.0
G1 X61.86 Y46.76
G1 X62.26 Y46.76
G1 X62.67 Y46.76
G1 X63.07 Y46.76
G1 X63.47 Y46.76
G1 X63.88 Y46.76
G1 X64.28 Y46.76
G1 X64.69 Y46.76
G1 X65.09 Y46.76
G1 X65.50 Y46.76
G1 X65.90 Y46.76
G1 X66.30 Y46.76
G1 X66.71 Y46.76
G1 X67.11 Y46.76 Z-0.70
G1 X67.52 Y46.76 Z-0.45
G1 X67.92 Y46.76 Z-0.40
G1 X68.33 Y46.76 Z-0.42 F300.0
G1 X68.73 Y46.76 Z-0.46
G1 X69.13 Y46.76 Z-0.52
G1 X69.54 Y46.76 Z-0.57
G1 X69.94 Y46.76 Z-0.59
G1 X70.35 Y46.76 Z-0.60
G1 X70.75 Y46.76 Z-0.56 F400.0
G1 X71.16 Y46.76 Z-0.51
G1 X71.56 Y46.76 Z-0.45
G1 X71.96 Y46.76 Z-0.38
G1 X72.37 Y46.76
G1 X72.77 Y46.76 Z-0.41 F300.0
G1 X73.18 Y46.76 Z-0.52
G1 X73.58 Y46.76 Z-1.00
G1 X73.99 Y46.76 F400.0
G1 X74.39 Y46.76
G1 X74.79 Y46.76
G1 X75.20 Y46.76
G1 X75.60 Y46.76
G1 X76.01 Y46.76
G1 X76.41 Y46.76
G1 X76.82 Y46.76
G1 X77.22 Y46.76 Z-0.60
G1 X77.63 Y46.76 Z-0.44
G1 X78.03 Y46.76
G1 X78.43 Y46.76 Z-0.43
G1 X78.84 Y46.76 Z-0.42
G1 X79.24 Y46.76 Z-0.41
G1 X79.65 Y46.76 Z-0.40
G1 X80.05 Y46.76 Z-0.38
G1 X80.46 Y46.76 Z-0.36
G1 X80.86 Y46.76 Z-0.34
G1 X81.26 Y46.76 Z-0.31
G1 X81.67 Y46.76 Z-0.29
G1 X82.07 Y46.76 Z-0.26
G1 X82.48 Y46.76 Z-0.24
G1 X82.88 Y46.76 Z-0.21
G1 X83.29 Y46.76 Z-0.19
G1 X83.69 Y46.76 Z-0.16
G1 X84.09 Y46.76 Z-0.15
G1 X84.50 Y46.76 Z-0.12
G1 X84.90 Y46.76 Z-0.11
G1 X85.31 Y46.76 Z-0.09
G1 X85.71 Y46.76 Z-0.12 F300.0
G1 X86.12 Y46.76 Z-0.25
G1 X86.52 Y46.76 Z-1.00
G1 X86.92 Y46.76 F400.0
G1 X87.33 Y46.76
G1 X87.73 Y46.76
G1 X88.14 Y46.76
G1 X88.54 Y46.76
G1 X88.95 Y46.76
G1 X89.35 Y46.76
G1 X89.75 Y46.76
G1 X90.16 Y46.76
G1 X90.56 Y46.76
G1 X90.97 Y46.76
G1 X91.37 Y46.76
G1 X91.78 Y46.76
G1 X92.18 Y46.76
G1 X92.58 Y46.76
G1 X92.99 Y46.76
G1 X93.39 Y46.76
G1 X93.80 Y46.76
G1 X94.20 Y46.76
G1 X94.61 Y46.76
G1 X95.01 Y46.76
G1 X95.41 Y46.76
G1 X95.82 Y46.76
G1 X96.22 Y46.76
G1 X96.63 Y46.76
G1 X97.03 Y46.76
G1 X97.44 Y46.76
G1 X97.84 Y46.76
G1 X98.24 Y46.76
G1 X98.65 Y46.76
G1 X99.05 Y46.76
G1 X99.46 Y46.76
G1 X99.86 Y46.76
G1 X100.27 Y46.76
G1 X100.67 Y46.76
G1 X101.07 Y46.76
G1 X101.48 Y46.76
G1 X101.88 Y46.76
G1 X102.29 Y46.76
G1 X102.69 Y46.76
G1 X103.10 Y46.76
G1 X103.50 Y46.76
G1 X103.90 Y46.76
G1 X104.31 Y46.76
G1 X104.71 Y46.76
G1 X105.12 Y46.76
G1 X105.52 Y46.76
G1 X105.93 Y46.76
G1 X106.33 Y46.76
G1 X106.73 Y46.76
G1 X107.14 Y46.76
G1 X107.54 Y46.76
G1 X107.95 Y46.76
G1 X108.35 Y46.76
G1 X108.76 Y46.76
G1 X109.16 Y46.76
G1 X109.56 Y46.76
G1 X109.97 Y46.76
G1 X110.37 Y46.76
G1 X110.78 Y46.76
G1 X111.18 Y46.76
G1 X111.59 Y46.76
G1 X111.99 Y46.76
G1 X112.39 Y46.76
G1 X112.80 Y46.76
G1 X113.20 Y46.76
G1 X113.61 Y46.76
G1 X114.01 Y46.76
G1 X114.42 Y46.76
G1 X114.82 Y46.76
G1 X115.22 Y46.76
G1 X115.63 Y46.76
G1 X116.03 Y46.76
G1 X116.44 Y46.76
G1 X116.84 Y46.76
G1 X117.25 Y46.76
G1 X117.65 Y46.76
G1 X118.05 Y46.76
G1 X118.46 Y46.76
G1 X118.86 Y46.76
G1 X119.27 Y46.76
G1 X119.67 Y46.76
G1 X120.08 Y46.76
G1 X120.48 Y46.76
G1 X120.88 Y46.76
G1 X121.29 Y46.76
G1 X121.69 Y46.76
G1 X122.10 Y46.76
G1 X122.50 Y46.76
G1 X122.91 Y46.76
G1 X123.31 Y46.76
G1 X123.71 Y46.76
G1 X124.12 Y46.76
G1 X124.52 Y46.76
G1 X124.93 Y46.76
G1 X125.33 Y46.76
G1 X125.74 Y46.76
G1 X126.14 Y46.76
G1 X126.54 Y46.76
G1 X126.95 Y46.76
G1 X127.35 Y46.76
G1 X127.76 Y46.76
G1 X128.16 Y46.76
G1 X128.57 Y46.76
G1 X128.97 Y46.76
G1 X129.38 Y46.76
G1 X129.78 Y46.76
G1 X130.18 Y46.76
G1 X130.59 Y46.76
G1 X130.99 Y46.76
G1 X131.40 Y46.76
G1 X131.80 Y46.76
G1 X132.21 Y46.76
G1 X132.61 Y46.76
G1 X133.01 Y46.76
G1 X133.42 Y46.76
G1 X133.82 Y46.76
G1 X134.23 Y46.76
G1 X134.63 Y46.76
G1 X135.04 Y46.76
G1 X135.44 Y46.76
G1 X135.84 Y46.76
G1 X136.25 Y46.76
G1 X136.65 Y46.76
G1 X137.06 Y46.76
G1 X137.46 Y46.76
G1 X137.87 Y46.76
G0 Z5.00
G0 X137.97 Y46.35
G1 Z-1.00 F300.0
G1 X137.56 Y46.35 F400.0
G1 X137.16 Y46.35
G1 X136.75 Y46.35
G1 X136.35 Y46.35
G1 X135.94 Y46.35
G1 X135.54 Y46.35
G1 X135.14 Y46.35
G1 X134.73 Y46.35
G1 X134.33 Y46.35
G1 X133.92 Y46.35
G1 X133.52 Y46.35
G1 X133.11 Y46.35
G1 X132.71 Y46.35
G1 X132.31 Y46.35
G1 X131.90 Y46.35
G1 X131.50 Y46.35
G1 X131.09 Y46.35
G1 X130.69 Y46.35
G1 X130.28 Y46.35
G1 X129.88 Y46.35
G1 X129.48 Y46.35
G1 X129.07 Y46.35
G1 X128.67 Y46.35
G1 X128.26 Y46.35
G1 X127.86 Y46.35
G1 X127.45 Y46.35
G1 X127.05 Y46.35
G1 X126.65 Y46.35
G1 X126.24 Y46.35
G1 X125.84 Y46.35
G1 X125.43 Y46.35
G1 X125.03 Y46.35
G1 X124.62 Y46.35
G1 X124.22 Y46.35
G1 X123.82 Y46.35
G1 X123.41 Y46.35
G1 X123.01 Y46.35
G1 X122.60 Y46.35
G1 X122.20 Y46.35
G1 X121.79 Y46.35
G1 X121.39 Y46.35
G1 X120.99 Y46.35
G1 X120.58 Y46.35
G1 X120.18 Y46.35
G1 X119.77 Y46.35
G1 X119.37 Y46.35
G1 X118.96 Y46.35
G1 X118.56 Y46.35
G1 X118.16 Y46.35
G1 X117.75 Y46.35
G1 X117.35 Y46.35
G1 X116.94 Y46.35
G1 X116.54 Y46.35
G1 X116.13 Y46.35
G1 X115.73 Y46.35
G1 X115.33 Y46.35
G1 X114.92 Y46.35
G1 X114.52 Y46.35
G1 X114.11 Y46.35
G1 X113.71 Y46.35
G1 X113.30 Y46.35
G1 X112.90 Y46.35
G1 X112.50 Y46.35
G1 X112.09 Y46.35
G1 X111.69 Y46.35
G1 X111.28 Y46.35
G1 X110.88 Y46.35
G1 X110.47 Y46.35
G1 X110.07 Y46.35
G1 X109.67 Y46.35
G1 X109.26 Y46.35
G1 X108.86 Y46.35
G1 X108.45 Y46.35
G1 X108.05 Y46.35
G1 X107.64 Y46.35
G1 X107.24 Y46.35
G1 X106.84 Y46.35
G1 X106.43 Y46.35
G1 X106.03 Y46.35
G1 X105.62 Y46.35
G1 X105.22 Y46.35
G1 X104.81 Y46.35
G1 X104.41 Y46.35
G1 X104.01 Y46.35
G1 X103.60 Y46.35
G1 X103.20 Y46.35
G1 X102.79 Y46.35
G1 X102.39 Y46.35
G1 X101.98 Y46.35
G1 X101.58 Y46.35
G1 X101.18 Y46.35
G1 X100.77 Y46.35
G1 X100.37 Y46.35
G1 X99.96 Y46.35
G1 X99.56 Y46.35
G1 X99.15 Y46.35
G1 X98.75 Y46.35
G1 X98.35 Y46.35
G1 X97.94 Y46.35
G1 X97.54 Y46.35
G1 X97.13 Y46.35
G1 X96.73 Y46.35
G1 X96.32 Y46.35
G1 X95.92 Y46.35
G1 X95.52 Y46.35
G1 X95.11 Y46.35
G1 X94.71 Y46.35
G1 X94.30 Y46.35
G1 X93.90 Y46.35
G1 X93.49 Y46.35
G1 X93.09 Y46.35
G1 X92.69 Y46.35
G1 X92.28 Y46.35
G1 X91.88 Y46.35
G1 X91.47 Y46.35
G1 X91.07 Y46.35
G1 X90.66 Y46.35
G1 X90.26 Y46.35
G1 X89.85 Y46.35
G1 X89.45 Y46.35
G1 X89.05 Y46.35
G1 X88.64 Y46.35
G1 X88.24 Y46.35
G1 X87.83 Y46.35
G1 X87.43 Y46.35
G1 X87.02 Y46.35
G1 X86.62 Y46.35
G1 X86.22 Y46.35 Z-0.67
G1 X85.81 Y46.35 Z-0.23
G1 X85.41 Y46.35 Z-0.09
G1 X85.00 Y46.35 Z-0.11 F300.0
G1 X84.60 Y46.35 Z-0.13
G1 X84.19 Y46.35 Z-0.16
G1 X83.79 Y46.35 Z-0.18
G1 X83.39 Y46.35 Z-0.21
G1 X82.98 Y46.35 Z-0.24
G1 X82.58 Y46.35 Z-0.26
G1 X82.17 Y46.35 Z-0.29
G1 X81.77 Y46.35 Z-0.31
G1 X81.36 Y46.35 Z-0.34
G1 X80.96 Y46.35 Z-0.37
G1 X80.56 Y46.35 Z-0.39
G1 X80.15 Y46.35 Z-0.42
G1 X79.75 Y46.35 Z-0.44
G1 X79.34 Y46.35 Z-0.45
G1 X78.94 Y46.35 Z-0.46
G1 X78.53 Y46.35 Z-0.47 F400.0
G1 X78.13 Y46.35 Z-0.48 F300.0
G1 X77.73 Y46.35 F400.0
G1 X77.32 Y46.35
G1 X76.92 Y46.35 Z-0.47
G1 X76.51 Y46.35 Z-0.68 F300.0
G1 X76.11 Y46.35 Z-0.99
G1 X75.70 Y46.35 Z-1.00
G1 X75.30 Y46.35 F400.0
G1 X74.90 Y46.35
G1 X74.49 Y46.35
G1 X74.09 Y46.35 Z-0.99
G1 X73.68 Y46.35 Z-0.37
G1 X73.28 Y46.35 Z-0.36
G1 X72.87 Y46.35 Z-0.31
G1 X72.47 Y46.35 Z-0.35 F300.0
G1 X72.07 Y46.35 Z-0.42
G1 X71.66 Y46.35 Z-0.49
G1 X71.26 Y46.35 Z-0.56
G1 X70.85 Y46.35 Z-0.62
G1 X70.45 Y46.35 Z-0.66
G1 X70.04 Y46.35 Z-0.68
G1 X69.64 Y46.35 Z-0.66 F400.0
G1 X69.24 Y46.35 Z-0.61
G1 X68.83 Y46.35 Z-0.56
G1 X68.43 Y46.35 Z-0.50
G1 X68.02 Y46.35 Z-0.44
G1 X67.62 Y46.35 Z-0.40
G1 X67.21 Y46.35
G1 X66.81 Y46.35 Z-0.43 F300.0
G1 X66.41 Y46.35 Z-0.44
G1 X66.00 Y46.35 Z-0.85
G1 X65.60 Y46.35 Z-1.00
G1 X65.19 Y46.35 F400.0
G1 X64.79 Y46.35
G1 X64.38 Y46.35
G1 X63.98 Y46.35
G1 X63.58 Y46.35
G1 X63.17 Y46.35
G1 X62.77 Y46.35
G1 X62.36 Y46.35
G1 X61.96 Y46.35
G1 X61.55 Y46.35
G1 X61.15 Y46.35 Z-0.65
G1 X60.75 Y46.35 Z-0.32
G1 X60.34 Y46.35 Z-0.34 F300.0
G1 X59.94 Y46.35 Z-0.35 F400.0
G1 X59.53 Y46.35 Z-0.36 F300.0
G1 X59.13 Y46.35 Z-0.37
G1 X58.72 Y46.35 F400.0
G1 X58.32 Y46.35 Z-0.36
G1 X57.92 Y46.35
G1 X57.51 Y46.35 Z-0.35
G1 X57.11 Y46.35 Z-0.34
G1 X56.70 Y46.35 Z-0.32
G1 X56.30 Y46.35 Z-0.31
G1 X55.89 Y46.35 Z-0.29
G1 X55.49 Y46.35 Z-0.27
G1 X55.09 Y46.35 Z-0.24
G1 X54.68 Y46.35 Z-0.22
G1 X54.28 Y46.35 Z-0.20
G1 X53.87 Y46.35 Z-0.18
G1 X53.47 Y46.35 Z-0.16
G1 X53.06 Y46.35 Z-0.15
G1 X52.66 Y46.35 Z-0.13
G1 X52.26 Y46.35 Z-0.11
G1 X51.85 Y46.35 Z-0.15 F300.0
G1 X51.45 Y46.35 Z-0.45
G1 X51.04 Y46.35 Z-1.00
G1 X50.64 Y46.35 F400.0
G1 X50.23 Y46.35
G1 X49.83 Y46.35
G1 X49.43 Y46.35
G1 X49.02 Y46.35
G1 X48.62 Y46.35
G1 X48.21 Y46.35
G1 X47.81 Y46.35
G1 X47.40 Y46.35
G1 X47.00 Y46.35
G1 X46.60 Y46.35
G1 X46.19 Y46.35
G1 X45.79 Y46.35
G1 X45.38 Y46.35
G1 X44.98 Y46.35
G1 X44.57 Y46.35
G1 X44.17 Y46.35
G1 X43.77 Y46.35
G1 X43.36 Y46.35
G1 X42.96 Y46.35
G1 X42.55 Y46.35
G1 X42.15 Y46.35
G1 X41.74 Y46.35
G1 X41.34 Y46.35
G1 X40.94 Y46.35
G1 X40.53 Y46.35
G1 X40.13 Y46.35
G1 X39.72 Y46.35
G1 X39.32 Y46.35
G1 X38.91 Y46.35
G1 X38.51 Y46.35
G1 X38.10 Y46.35
G1 X37.70 Y46.35
G1 X37.30 Y46.35
G1 X36.89 Y46.35
G1 X36.49 Y46.35
G1 X36.08 Y46.35
G1 X35.68 Y46.35
G1 X35.27 Y46.35
G1 X34.87 Y46.35
G1 X34.47 Y46.35
G1 X34.06 Y46.35
G1 X33.66 Y46.35
G1 X33.25 Y46.35
G1 X32.85 Y46.35
G1 X32.44 Y46.35
G1 X32.04 Y46.35
G1 X31.64 Y46.35
G1 X31.23 Y46.35
G1 X30.83 Y46.35
G1 X30.42 Y46.35
G1 X30.02 Y46.35
G1 X29.61 Y46.35
G1 X29.21 Y46.35
G1 X28.81 Y46.35
G1 X28.40 Y46.35
G1 X28.00 Y46.35
G1 X27.59 Y46.35
G1 X27.19 Y46.35
G1 X26.78 Y46.35
G1 X26.38 Y46.35
G1 X25.98 Y46.35
G1 X25.57 Y46.35
G1 X25.17 Y46.35
G1 X24.76 Y46.35
G1 X24.36 Y46.35
G1 X23.95 Y46.35
G1 X23.55 Y46.35
G1 X23.15 Y46.35
G1 X22.74 Y46.35
G1 X22.34 Y46.35
G1 X21.93 Y46.35
G1 X21.53 Y46.35
G1 X21.12 Y46.35
G1 X20.72 Y46.35
G1 X20.32 Y46.35
G1 X19.91 Y46.35
G1 X19.51 Y46.35
G1 X19.10 Y46.35
G1 X18.70 Y46.35
G1 X18.29 Y46.35
G1 X17.89 Y46.35
G1 X17.49 Y46.35
G1 X17.08 Y46.35
G1 X16.68 Y46.35
G1 X16.27 Y46.35
G1 X15.87 Y46.35
G1 X15.46 Y46.35
G1 X15.06 Y46.35
G1 X14.66 Y46.35
G1 X14.25 Y46.35
G1 X13.85 Y46.35
G1 X13.44 Y46.35
G1 X13.04 Y46.35
G1 X12.63 Y46.35
G1 X12.23 Y46.35
G1 X11.83 Y46.35
G1 X11.42 Y46.35
G1 X11.02 Y46.35
G1 X10.61 Y46.35
G1 X10.21 Y46.35
G1 X9.80 Y46.35
G1 X9.40 Y46.35
G1 X9.00 Y46.35
G1 X8.59 Y46.35
G1 X8.19 Y46.35
G1 X7.78 Y46.35
G1 X7.38 Y46.35
G1 X6.97 Y46.35
G1 X6.57 Y46.35
G1 X6.17 Y46.35
G1 X5.76 Y46.35
G1 X5.36 Y46.35
G1 X4.95 Y46.35
G1 X4.55 Y46.35
G1 X4.14 Y46.35
G1 X3.74 Y46.35
G1 X3.34 Y46.35
G1 X2.93 Y46.35
G1 X2.53 Y46.35
G1 X2.12 Y46.35
G1 X1.72 Y46.35
G1 X1.31 Y46.35
G1 X0.91 Y46.35
G1 X0.51 Y46.35
G1 X0.10 Y46.35
G0 Z5.00
G0 X0.00 Y45.95
G1 Z-1.00 F300.0
G1 X0.40 Y45.95 F400.0
G1 X0.81 Y45.95
G1 X1.21 Y45.95
G1 X1.62 Y45.95
G1 X2.02 Y45.95
G1 X2.43 Y45.95
G1 X2.83 Y45.95
G1 X3.23 Y45.95
G1 X3.64 Y45.95
G1 X4.04 Y45.95
G1 X4.45 Y45.95
G1 X4.85 Y45.95
G1 X5.26 Y45.95
G1 X5.66 Y45.95
G1 X6.06 Y45.95
G1 X6.47 Y45.95
G1 X6.87 Y45.95
G1 X7.28 Y45.95
G1 X7.68 Y45.95
G1 X8.09 Y45.95
G1 X8.49 Y45.95
G1 X8.89 Y45.95
G1 X9.30 Y45.95
G1 X9.70 Y45.95
G1 X10.11 Y45.95
G1 X10.51 Y45.95
G1 X10.92 Y45.95
G1 X11.32 Y45.95
G1 X11.72 Y45.95
G1 X12.13 Y45.95
G1 X12.53 Y45.95
G1 X12.94 Y45.95
G1 X13.34 Y45.95
G1 X13.75 Y45.95
G1 X14.15 Y45.95
G1 X14.55 Y45.95
G1 X14.96 Y45.95
G1 X15.36 Y45.95
G1 X15.77 Y45.95
G1 X16.17 Y45.95
G1 X16.58 Y45.95
G1 X16.98 Y45.95
G1 X17.38 Y45.95
G1 X17.79 Y45.95
G1 X18.19 Y45.95
G1 X18.60 Y45.95
G1 X19.00 Y45.95
G1 X19.41 Y45.95
G1 X19.81 Y45.95
G1 X20.21 Y45.95
G1 X20.62 Y45.95
G1 X21.02 Y45.95
G1 X21.43 Y45.95
G1 X21.83 Y45.95
G1 X22.24 Y45.95
G1 X22.64 Y45.95
G1 X23.04 Y45.95
G1 X23.45 Y45.95
G1 X23.85 Y45.95
G1 X24.26 Y45.95
G1 X24.66 Y45.95
G1 X25.07 Y45.95
G1 X25.47 Y45.95
G1 X25.88 Y45.95
G1 X26.28 Y45.95
G1 X26.68 Y45.95
G1 X27.09 Y45.95
G1 X27.49 Y45.95
G1 X27.90 Y45.95
G1 X28.30 Y45.95
G1 X28.71 Y45.95
G1 X29.11 Y45.95
G1 X29.51 Y45.95
G1 X29.92 Y45.95
G1 X30.32 Y45.95
G1 X30.73 Y45.95
G1 X31.13 Y45.95
G1 X31.54 Y45.95
G1 X31.94 Y45.95
G1 X32.34 Y45.95
G1 X32.75 Y45.95
G1 X33.15 Y45.95
G1 X33.56 Y45.95
G1 X33.96 Y45.95
G1 X34.37 Y45.95
G1 X34.77 Y45.95
G1 X35.17 Y45.95
G1 X35.58 Y45.95
G1 X35.98 Y45.95
G1 X36.39 Y45.95
G1 X36.79 Y45.95
G1 X37.20 Y45.95
G1 X37.60 Y45.95
G1 X38.00 Y45.95
G1 X38.41 Y45.95
G1 X38.81 Y45.95
G1 X39.22 Y45.95
G1 X39.62 Y45.95
G1 X40.03 Y45.95
G1 X40.43 Y45.95
G1 X40.83 Y45.95
G1 X41.24 Y45.95
G1 X41.64 Y45.95
G1 X42.05 Y45.95
G1 X42.45 Y45.95
G1 X42.86 Y45.95
G1 X43.26 Y45.95
G1 X43.66 Y45.95
G1 X44.07 Y45.95
G1 X44.47 Y45.95
G1 X44.88 Y45.95
G1 X45.28 Y45.95
G1 X45.69 Y45.95
G1 X46.09 Y45.95
G1 X46.49 Y45.95
G1 X46.90 Y45.95
G1 X47.30 Y45.95
G1 X47.71 Y45.95
G1 X48.11 Y45.95
G1 X48.52 Y45.95
G1 X48.92 Y45.95
G1 X49.32 Y45.95
G1 X49.73 Y45.95
G1 X50.13 Y45.95
G1 X50.54 Y45.95
G1 X50.94 Y45.95
G1 X51.35 Y45.95
G1 X51.75 Y45.95 Z-0.22
G1 X52.15 Y45.95 Z-0.11
G1 X52.56 Y45.95 Z-0.14 F300.0
G1 X52.96 Y45.95 Z-0.15 F400.0
G1 X53.37 Y45.95 Z-0.18 F300.0
G1 X53.77 Y45.95 Z-0.20
G1 X54.18 Y45.95 Z-0.22
G1 X54.58 Y45.95 Z-0.25
G1 X54.98 Y45.95 Z-0.27
G1 X55.39 Y45.95 Z-0.29
G1 X55.79 Y45.95 Z-0.32
G1 X56.20 Y45.95 Z-0.34
G1 X56.60 Y45.95 Z-0.36
G1 X57.01 Y45.95 Z-0.37
G1 X57.41 Y45.95 Z-0.38
G1 X57.81 Y45.95 Z-0.40
G1 X58.22 Y45.95 F400.0
G1 X58.62 Y45.95 Z-0.41
G1 X59.03 Y45.95
G1 X59.43 Y45.95
G1 X59.84 Y45.95 Z-0.40
G1 X60.24 Y45.95 Z-0.38
G1 X60.64 Y45.95 Z-0.37
G1 X61.05 Y45.95 Z-0.35
G1 X61.45 Y45.95 Z-0.32
G1 X61.86 Y45.95 Z-0.51 F300.0
G1 X62.26 Y45.95 Z-0.99
G1 X62.67 Y45.95 Z-1.00
G1 X63.07 Y45.95 F400.0
G1 X63.47 Y45.95
G1 X63.88 Y45.95
G1 X64.28 Y45.95 Z-0.99
G1 X64.69 Y45.95 Z-0.73
G1 X65.09 Y45.95 Z-0.38
G1 X65.50 Y45.95 Z-0.40 F300.0
G1 X65.90 Y45.95 Z-0.39 F400.0
G1 X66.30 Y45.95 Z-0.40 F300.0
G1 X66.71 Y45.95 F400.0
G1 X67.11 Y45.95 Z-0.43 F300.0
G1 X67.52 Y45.95 Z-0.47
G1 X67.92 Y45.95 Z-0.51
G1 X68.33 Y45.95 Z-0.56
G1 X68.73 Y45.95 Z-0.62
G1 X69.13 Y45.95 Z-0.67
G1 X69.54 Y45.95 Z-0.72
G1 X69.94 Y45.95 Z-0.74
G1 X70.35 Y45.95 F400.0
G1 X70.75 Y45.95 Z-0.70
G1 X71.16 Y45.95 Z-0.64
G1 X71.56 Y45.95 Z-0.56
G1 X71.96 Y45.95 Z-0.48
G1 X72.37 Y45.95 Z-0.42
G1 X72.77 Y45.95 Z-0.35
G1 X73.18 Y45.95 Z-0.31
G1 X73.58 Y45.95 Z-0.29
G1 X73.99 Y45.95 Z-0.35 F300.0
G1 X74.39 Y45.95 Z-0.37
G1 X74.79 Y45.95 Z-0.99
G1 X75.20 Y45.95 Z-1.00
G1 X75.60 Y45.95 Z-0.89 F400.0
G1 X76.01 Y45.95 Z-0.46
G1 X76.41 Y45.95 Z-0.49 F300.0
G1 X76.82 Y45.95 Z-0.51
G1 X77.22 Y45.95 Z-0.52
G1 X77.63 Y45.95 F400.0
G1 X78.03 Y45.95
G1 X78.43 Y45.95 Z-0.51
G1 X78.84 Y45.95
G1 X79.24 Y45.95 Z-0.49
G1 X79.65 Y45.95 Z-0.48
G1 X80.05 Y45.95 Z-0.46
G1 X80.46 Y45.95 Z-0.44
G1 X80.86 Y45.95 Z-0.41
G1 X81.26 Y45.95 Z-0.38
G1 X81.67 Y45.95 Z-0.35
G1 X82.07 Y45.95 Z-0.33
G1 X82.48 Y45.95 Z-0.29
G1 X82.88 Y45.95 Z-0.27
G1 X83.29 Y45.95 Z-0.24
G1 X83.69 Y45.95 Z-0.21
G1 X84.09 Y45.95 Z-0.18
G1 X84.50 Y45.95 Z-0.15
G1 X84.90 Y45.95 Z-0.13
G1 X85.31 Y45.95 Z-0.11
G1 X85.71 Y45.95 Z-0.24 F300.0
G1 X86.12 Y45.95 Z-0.66
G1 X86.52 Y45.95 Z-1.00
G1 X86.92 Y45.95 F400.0
G1 X87.33 Y45.95
G1 X87.73 Y45.95
G1 X88.14 Y45.95
G1 X88.54 Y45.95
G1 X88.95 Y45.95
G1 X89.35 Y45.95
G1 X89.75 Y45.95
G1 X90.16 Y45.95
G1 X90.56 Y45.95
G1 X90.97 Y45.95
G1 X91.37 Y45.95
G1 X91.78 Y45.95
G1 X92.18 Y45.95
G1 X92.58 Y45.95
G1 X92.99 Y45.95
G1 X93.39 Y45.95
G1 X93.80 Y45.95
G1 X94.20 Y45.95
G1 X94.61 Y45.95
G1 X95.01 Y45.95
G1 X95.41 Y45.95
G1 X95.82 Y45.95
G1 X96.22 Y45.95
G1 X96.63 Y45.95
G1 X97.03 Y45.95
G1 X97.44 Y45.95
G1 X97.84 Y45.95
G1 X98.24 Y45.95
G1 X98.65 Y45.95
G1 X99.05 Y45.95
G1 X99.46 Y45.95
G1 X99.86 Y45.95
G1 X100.27 Y45.95
G1 X100.67 Y45.95
G1 X101.07 Y45.95
G1 X101.48 Y45.95
G1 X101.88 Y45.95
G1 X102.29 Y45.95
G1 X102.69 Y45.95
G1 X103.10 Y45.95
G1 X103.50 Y45.95
G1 X103.90 Y45.95
G1 X104.31 Y45.95
G1 X104.71 Y45.95
G1 X105.12 Y45.95
G1 X105.52 Y45.95
G1 X105.93 Y45.95
G1 X106.33 Y45.95
G1 X106.73 Y45.95
G1 X107.14 Y45.95
G1 X107.54 Y45.95
G1 X107.95 Y45.95
G1 X108.35 Y45.95
G1 X108.76 Y45.95
G1 X109.16 Y45.95
G1 X109.56 Y45.95
G1 X109.97 Y45.95
G1 X110.37 Y45.95
G1 X110.78 Y45.95
G1 X111.18 Y45.95
G1 X111.59 Y45.95
G1 X111.99 Y45.95
G1 X112.39 Y45.95
G1 X112.80 Y45.95
G1 X113.20 Y45.95
G1 X113.61 Y45.95
G1 X114.01 Y45.95
G1 X114.42 Y45.95
G1 X114.82 Y45.95
G1 X115.22 Y45.95
G1 X115.63 Y45.95
G1 X116.03 Y45.95
G1 X116.44 Y45.95
G1 X116.84 Y45.95
G1 X117.25 Y45.95
G1 X117.65 Y45.95
G1 X118.05 Y45.95
G1 X118.46 Y45.95
G1 X118.86 Y45.95
G1 X119.27 Y45.95
G1 X119.67 Y45.95
G1 X120.08 Y45.95
G1 X120.48 Y45.95
G1 X120.88 Y45.95
G1 X121.29 Y45.95
G1 X121.69 Y45.95
G1 X122.10 Y45.95
G1 X122.50 Y45.95
G1 X122.91 Y45.95
G1 X123.31 Y45.95
G1 X123.71 Y45.95
G1 X124.12 Y45.95
G1 X124.52 Y45.95
G1 X124.93 Y45.95
G1 X125.33 Y45.95
G1 X125.74 Y45.95
G1 X126.14 Y45.95
G1 X126.54 Y45.95
G1 X126.95 Y45.95
G1 X127.35 Y45.95
G1 X127.76 Y45.95
G1 X128.16 Y45.95
G1 X128.57 Y45.95
G1 X128.97 Y45.95
G1 X129.38 Y45.95
G1 X129.78 Y45.95
G1 X130.18 Y45.95
G1 X130.59 Y45.95
G1 X130.99 Y45.95
G1 X131.40 Y45.95
G1 X131.80 Y45.95
G1 X132.21 Y45.95
G1 X132.61 Y45.95
G1 X133.01 Y45.95
G1 X133.42 Y45.95
G1 X133.82 Y45.95
G1 X134.23 Y45.95
G1 X134.63 Y45.95
G1 X135.04 Y45.95
G1 X135.44 Y45.95
G1 X135.84 Y45.95
G1 X136.25 Y45.95
G1 X136.65 Y45.95
G1 X137.06 Y45.95
G1 X137.46 Y45.95
G1 X137.87 Y45.95
G0 Z5.00
G0 X137.97 Y45.54
G1 Z-1.00 F300.0
G1 X137.56 Y45.54 F400.0
G1 X137.16 Y45.54
G1 X136.75 Y45.54
G1 X136.35 Y45.54
G1 X135.94 Y45.54
G1 X135.54 Y45.54
G1 X135.14 Y45.54
G1 X134.73 Y45.54
G1 X134.33 Y45.54
G1 X133.92 Y45.54
G1 X133.52 Y45.54
G1 X133.11 Y45.54
G1 X132.71 Y45.54
G1 X132.31 Y45.54
G1 X131.90 Y45.54
G1 X131.50 Y45.54
G1 X131.09 Y45.54
G1 X130.69 Y45.54
G1 X130.28 Y45.54
G1 X129.88 Y45.54
G1 X129.48 Y45.54
G1 X129.07 Y45.54
G1 X128.67 Y45.54
G1 X128.26 Y45.54
G1 X127.86 Y45.54
G1 X127.45 Y45.54
G1 X127.05 Y45.54
G1 X126.65 Y45.54
G1 X126.24 Y45.54
G1 X125.84 Y45.54
G1 X125.43 Y45.54
G1 X125.03 Y45.54
G1 X124.62 Y45.54
G1 X124.22 Y45.54
G1 X123.82 Y45.54
G1 X123.41 Y45.54
G1 X123.01 Y45.54
G1 X122.60 Y45.54
G1 X122.20 Y45.54
G1 X121.79 Y45.54
G1 X121.39 Y45.54
G1 X120.99 Y45.54
G1 X120.58 Y45.54
G1 X120.18 Y45.54
G1 X119.77 Y45.54
G1 X119.37 Y45.54
G1 X118.96 Y45.54
G1 X118.56 Y45.54
G1 X118.16 Y45.54
G1 X117.75 Y45.54
G1 X117.35 Y45.54
G1 X116.94 Y45.54
G1 X116.54 Y45.54
G1 X116.13 Y45.54
G1 X115.73 Y45.54
G1 X115.33 Y45.54
G1 X114.92 Y45.54
G1 X114.52 Y45.54
G1 X114.11 Y45.54
G1 X113.71 Y45.54
G1 X113.30 Y45.54
G1 X112.90 Y45.54
G1 X112.50 Y45.54
G1 X112.09 Y45.54
G1 X111.69 Y45.54
G1 X111.28 Y45.54
G1 X110.88 Y45.54
G1 X110.47 Y45.54
G1 X110.07 Y45.54
G1 X109.67 Y45.54
G1 X109.26 Y45.54
G1 X108.86 Y45.54
G1 X108.45 Y45.54
G1 X108.05 Y45.54
G1 X107.64 Y45.54
G1 X107.24 Y45.54
G1 X106.84 Y45.54
G1 X106.43 Y45.54
G1 X106.03 Y45.54
G1 X105.62 Y45.54
G1 X105.22 Y45.54
G1 X104.81 Y45.54
G1 X104.41 Y45.54
G1 X104.01 Y45.54
G1 X103.60 Y45.54
G1 X103.20 Y45.54
G1 X102.79 Y45.54
G1 X102.39 Y45.54
G1 X101.98 Y45.54
G1 X101.58 Y45.54
G1 X101.18 Y45.54
G1 X100.77 Y45.54
G1 X100.37 Y45.54
G1 X99.96 Y45.54
G1 X99.56 Y45.54
G1 X99.15 Y45.54
G1 X98.75 Y45.54
G1 X98.35 Y45.54
G1 X97.94 Y45.54
G1 X97.54 Y45.54
G1 X97.13 Y45.54
G1 X96.73 Y45.54
G1 X96.32 Y45.54
G1 X95.92 Y45.54
G1 X95.52 Y45.54
G1 X95.11 Y45.54
G1 X94.71 Y45.54
G1 X94.30 Y45.54
G1 X93.90 Y45.54
G1 X93.49 Y45.54
G1 X93.09 Y45.54
G1 X92.69 Y45.54
G1 X92.28 Y45.54
G1 X91.88 Y45.54
G1 X91.47 Y45.54
G1 X91.07 Y45.54
G1 X90.66 Y45.54
G1 X90.26 Y45.54
G1 X89.85 Y45.54
G1 X89.45 Y45.54
G1 X89.05 Y45.54
G1 X88.64 Y45.54
G1 X88.24 Y45.54
G1 X87.83 Y45.54
G1 X87.43 Y45.54
G1 X87.02 Y45.54
G1 X86.62 Y45.54
G1 X86.22 Y45.54 Z-0.99
G1 X85.81 Y45.54 Z-0.29
G1 X85.41 Y45.54 Z-0.17
G1 X85.00 Y45.54 Z-0.14
G1 X84.60 Y45.54 Z-0.16 F300.0
G1 X84.19 Y45.54 Z-0.20
G1 X83.79 Y45.54 Z-0.22
G1 X83.39 Y45.54 Z-0.25
G1 X82.98 Y45.54 Z-0.28
G1 X82.58 Y45.54 Z-0.32
G1 X82.17 Y45.54 Z-0.35
G1 X81.77 Y45.54 Z-0.38
G1 X81.36 Y45.54 Z-0.42
G1 X80.96 Y45.54 Z-0.44
G1 X80.56 Y45.54 Z-0.47
G1 X80.15 Y45.54 Z-0.49
G1 X79.75 Y45.54 Z-0.51
G1 X79.34 Y45.54 Z-0.53
G1 X78.94 Y45.54 Z-0.54
G1 X78.53 Y45.54 Z-0.55
G1 X78.13 Y45.54 Z-0.56
G1 X77.73 Y45.54 F400.0
G1 X77.32 Y45.54 Z-0.55
G1 X76.92 Y45.54
G1 X76.51 Y45.54 Z-0.53
G1 X76.11 Y45.54 Z-0.52
G1 X75.70 Y45.54 Z-0.51
G1 X75.30 Y45.54 Z-0.42
G1 X74.90 Y45.54 Z-0.34
G1 X74.49 Y45.54 Z-0.30
G1 X74.09 Y45.54 Z-0.27
G1 X73.68 Y45.54 Z-0.31 F300.0
G1 X73.28 Y45.54 Z-0.35
G1 X72.87 Y45.54 Z-0.40
G1 X72.47 Y45.54 Z-0.45
G1 X72.07 Y45.54 Z-0.51
G1 X71.66 Y45.54 Z-0.59
G1 X71.26 Y45.54 Z-0.67
G1 X70.85 Y45.54 Z-0.73
G1 X70.45 Y45.54 Z-0.78
G1 X70.04 Y45.54 Z-0.80
G1 X69.64 Y45.54 Z-0.78 F400.0
G1 X69.24 Y45.54 Z-0.75
G1 X68.83 Y45.54 Z-0.69
G1 X68.43 Y45.54 Z-0.64
G1 X68.02 Y45.54 Z-0.60
G1 X67.62 Y45.54 Z-0.56
G1 X67.21 Y45.54 Z-0.53
G1 X66.81 Y45.54 Z-0.49
G1 X66.41 Y45.54 Z-0.46
G1 X66.00 Y45.54 Z-0.42
G1 X65.60 Y45.54 Z-0.39
G1 X65.19 Y45.54 Z-0.35
G1 X64.79 Y45.54 Z-0.33
G1 X64.38 Y45.54 Z-0.31
G1 X63.98 Y45.54 Z-0.29
G1 X63.58 Y45.54 Z-0.26
G1 X63.17 Y45.54 Z-0.82 F300.0
G1 X62.77 Y45.54 Z-0.42 F400.0
G1 X62.36 Y45.54 Z-0.28
G1 X61.96 Y45.54 Z-0.33 F300.0
G1 X61.55 Y45.54 Z-0.36
G1 X61.15 Y45.54 Z-0.38
G1 X60.75 Y45.54 Z-0.40
G1 X60.34 Y45.54 Z-0.42
G1 X59.94 Y45.54 Z-0.44
G1 X59.53 Y45.54 Z-0.45
G1 X59.13 Y45.54 F400.0
G1 X58.72 Y45.54
G1 X58.32 Y45.54
G1 X57.92 Y45.54 Z-0.44
G1 X57.51 Y45.54 Z-0.43
G1 X57.11 Y45.54 Z-0.42
G1 X56.70 Y45.54 Z-0.39
G1 X56.30 Y45.54 Z-0.38
G1 X55.89 Y45.54 Z-0.35
G1 X55.49 Y45.54 Z-0.33
G1 X55.09 Y45.54 Z-0.30
G1 X54.68 Y45.54 Z-0.28
G1 X54.28 Y45.54 Z-0.25
G1 X53.87 Y45.54 Z-0.22
G1 X53.47 Y45.54 Z-0.20
G1 X53.06 Y45.54 Z-0.17
G1 X52.66 Y45.54 Z-0.15
G1 X52.26 Y45.54 Z-0.13
G1 X51.85 Y45.54 Z-0.23 F300.0
G1 X51.45 Y45.54 Z-0.99
G1 X51.04 Y45.54 Z-1.00
G1 X50.64 Y45.54 F400.0
G1 X50.23 Y45.54
G1 X49.83 Y45.54
G1 X49.43 Y45.54
G1 X49.02 Y45.54
G1 X48.62 Y45.54
G1 X48.21 Y45.54
G1 X47.81 Y45.54
G1 X47.40 Y45.54
G1 X47.00 Y45.54
G1 X46.60 Y45.54
G1 X46.19 Y45.54
G1 X45.79 Y45.54
G1 X45.38 Y45.54
G1 X44.98 Y45.54
G1 X44.57 Y45.54
G1 X44.17 Y45.54
G1 X43.77 Y45.54
G1 X43.36 Y45.54
G1 X42.96 Y45.54
G1 X42.55 Y45.54
G1 X42.15 Y45.54
G1 X41.74 Y45.54
G1 X41.34 Y45.54
G1 X40.94 Y45.54
G1 X40.53 Y45.54
G1 X40.13 Y45.54
G1 X39.72 Y45.54
G1 X39.32 Y45.54
G1 X38.91 Y45.54
G1 X38.51 Y45.54
G1 X38.10 Y45.54
G1 X37.70 Y45.54
G1 X37.30 Y45.54
G1 X36.89 Y45.54
G1 X36.49 Y45.54
G1 X36.08 Y45.54
G1 X35.68 Y45.54
G1 X35.27 Y45.54
G1 X34.87 Y45.54
G1 X34.47 Y45.54
G1 X34.06 Y45.54
G1 X33.66 Y45.54
G1 X33.25 Y45.54
G1 X32.85 Y45.54
G1 X32.44 Y45.54
G1 X32.04 Y45.54
G1 X31.64 Y45.54
G1 X31.23 Y45.54
G1 X30.83 Y45.54
G1 X30.42 Y45.54
G1 X30.02 Y45.54
G1 X29.61 Y45.54
G1 X29.21 Y45.54
G1 X28.81 Y45.54
G1 X28.40 Y45.54
G1 X28.00 Y45.54
G1 X27.59 Y45.54
G1 X27.19 Y45.54
G1 X26.78 Y45.54
G1 X26.38 Y45.54
G1 X25.98 Y45.54
G1 X25.57 Y45.54
G1 X25.17 Y45.54
G1 X24.76 Y45.54
G1 X24.36 Y45.54
G1 X23.95 Y45.54
G1 X23.55 Y45.54
G1 X23.15 Y45.54
G1 X22.74 Y45.54
G1 X22.34 Y45.54
G1 X21.93 Y45.54
G1 X21.53 Y45.54
G1 X21.12 Y45.54
G1 X20.72 Y45.54
G1 X20.32 Y45.54
G1 X19.91 Y45.54
G1 X19.51 Y45.54
G1 X19.10 Y45.54
G1 X18.70 Y45.54
G1 X18.29 Y45.54
G1 X17.89 Y45.54
G1 X17.49 Y45.54
G1 X17.08 Y45.54
G1 X16.68 Y45.54
G1 X16.27 Y45.54
G1 X15.87 Y45.54
G1 X15.46 Y45.54
G1 X15.06 Y45.54
G1 X14.66 Y45.54
G1 X14.25 Y45.54
G1 X13.85 Y45.54
G1 X13.44 Y45.54
G1 X13.04 Y45.54
G1 X12.63 Y45.54
G1 X12.23 Y45.54
G1 X11.83 Y45.54
G1 X11.42 Y45.54
G1 X11.02 Y45.54
G1 X10.61 Y45.54
G1 X10.21 Y45.54
G1 X9.80 Y45.54
G1 X9.40 Y45.54
G1 X9.00 Y45.54
G1 X8.59 Y45.54
G1 X8.19 Y45.54
G1 X7.78 Y45.54
G1 X7.38 Y45.54
G1 X6.97 Y45.54
G1 X6.57 Y45.54
G1 X6.17 Y45.54
G1 X5.76 Y45.54
G1 X5.36 Y45.54
G1 X4.95 Y45.54
G1 X4.55 Y45.54
G1 X4.14 Y45.54
G1 X3.74 Y45.54
G1 X3.34 Y45.54
G1 X2.93 Y45.54
G1 X2.53 Y45.54
G1 X2.12 Y45.54
G1 X1.72 Y45.54
G1 X1.31 Y45.54
G1 X0.91 Y45.54
G1 X0.51 Y45.54
G1 X0.10 Y45.54
G0 Z5.00
G0 X0.00 Y45.14
G1 Z-1.00 F300.0
G1 X0.40 Y45.14 F400.0
G1 X0.81 Y45.14
G1 X1.21 Y45.14
G1 X1.62 Y45.14
G1 X2.02 Y45.14
G1 X2.43 Y45.14
G1 X2.83 Y45.14
G1 X3.23 Y45.14
G1 X3.64 Y45.14
G1 X4.04 Y45.14
G1 X4.45 Y45.14
G1 X4.85 Y45.14
G1 X5.26 Y45.14
G1 X5.66 Y45.14
G1 X6.06 Y45.14
G1 X6.47 Y45.14
G1 X6.87 Y45.14
G1 X7.28 Y45.14
G1 X7.68 Y45.14
G1 X8.09 Y45.14
G1 X8.49 Y45.14
G1 X8.89 Y45.14
G1 X9.30 Y45.14
G1 X9.70 Y45.14
G1 X10.11 Y45.14
G1 X10.51 Y45.14
G1 X10.92 Y45.14
G1 X11.32 Y45.14
G1 X11.72 Y45.14
G1 X12.13 Y45.14
G1 X12.53 Y45.14
G1 X12.94 Y45.14
G1 X13.34 Y45.14
G1 X13.75 Y45.14
G1 X14.15 Y45.14
G1 X14.55 Y45.14
G1 X14.96 Y45.14
G1 X15.36 Y45.14
G1 X15.77 Y45.14
G1 X16.17 Y45.14
G1 X16.58 Y45.14
G1 X16.98 Y45.14
G1 X17.38 Y45.14
G1 X17.79 Y45.14
G1 X18.19 Y45.14
G1 X18.60 Y45.14
G1 X19.00 Y45.14
G1 X19.41 Y45.14
G1 X19.81 Y45.14
G1 X20.21 Y45.14
G1 X20.62 Y45.14
G1 X21.02 Y45.14
G1 X21.43 Y45.14
G1 X21.83 Y45.14
G1 X22.24 Y45.14
G1 X22.64 Y45.14
G1 X23.04 Y45.14
G1 X23.45 Y45.14
G1 X23.85 Y45.14
G1 X24.26 Y45.14
G1 X24.66 Y45.14
G1 X25.07 Y45.14
G1 X25.47 Y45.14
G1 X25.88 Y45.14
G1 X26.28 Y45.14
G1 X26.68 Y45.14
G1 X27.09 Y45.14
G1 X27.49 Y45.14
G1 X27.90 Y45.14
G1 X28.30 Y45.14
G1 X28.71 Y45.14
G1 X29.11 Y45.14
G1 X29.51 Y45.14
G1 X29.92 Y45.14
G1 X30.32 Y45.14
G1 X30.73 Y45.14
G1 X31.13 Y45.14
G1 X31.54 Y45.14
G1 X31.94 Y45.14
G1 X32.34 Y45.14
G1 X32.75 Y45.14
G1 X33.15 Y45.14
G1 X33.56 Y45.14
G1 X33.96 Y45.14
G1 X34.37 Y45.14
G1 X34.77 Y45.14
G1 X35.17 Y45.14
G1 X35.58 Y45.14
G1 X35.98 Y45.14
G1 X36.39 Y45.14
G1 X36.79 Y45.14
G1 X37.20 Y45.14
G1 X37.60 Y45.14
G1 X38.00 Y45.14
G1 X38.41 Y45.14
G1 X38.81 Y45.14
G1 X39.22 Y45.14
G1 X39.62 Y45.14
G1 X40.03 Y45.14
G1 X40.43 Y45.14
G1 X40.83 Y45.14
G1 X41.24 Y45.14
G1 X41.64 Y45.14
G1 X42.05 Y45.14
G1 X42.45 Y45.14
G1 X42.86 Y45.14
G1 X43.26 Y45.14
G1 X43.66 Y45.14
G1 X44.07 Y45.14
G1 X44.47 Y45.14
G1 X44.88 Y45.14
G1 X45.28 Y45.14
G1 X45.69 Y45.14
G1 X46.09 Y45.14
G1 X46.49 Y45.14
G1 X46.90 Y45.14
G1 X47.30 Y45.14
G1 X47.71 Y45.14
G1 X48.11 Y45.14
G1 X48.52 Y45.14
G1 X48.92 Y45.14
G1 X49.32 Y45.14
G1 X49.73 Y45.14
G1 X50.13 Y45.14
G1 X50.54 Y45.14
G1 X50.94 Y45.14
G1 X51.35 Y45.14
G1 X51.75 Y45.14 Z-0.30
G1 X52.15 Y45.14 Z-0.17
G1 X52.56 Y45.14 Z-0.16
G1 X52.96 Y45.14 Z-0.18 F300.0
G1 X53.37 Y45.14 Z-0.22
G1 X53.77 Y45.14 Z-0.24
G1 X54.18 Y45.14 Z-0.27
G1 X54.58 Y45.14 Z-0.29
G1 X54.98 Y45.14 Z-0.33
G1 X55.39 Y45.14 Z-0.35
G1 X55.79 Y45.14 Z-0.38
G1 X56.20 Y45.14 Z-0.41
G1 X56.60 Y45.14 Z-0.43
G1 X57.01 Y45.14 Z-0.45
G1 X57.41 Y45.14 Z-0.47
G1 X57.81 Y45.14 Z-0.48
G1 X58.22 Y45.14 Z-0.49
G1 X58.62 Y45.14 F400.0
G1 X59.03 Y45.14 Z-0.50 F300.0
G1 X59.43 Y45.14 Z-0.49 F400.0
G1 X59.84 Y45.14 Z-0.48
G1 X60.24 Y45.14 Z-0.47
G1 X60.64 Y45.14 Z-0.44
G1 X61.05 Y45.14 Z-0.42
G1 X61.45 Y45.14 Z-0.40
G1 X61.86 Y45.14 Z-0.37
G1 X62.26 Y45.14 Z-0.34
G1 X62.67 Y45.14 Z-0.32
G1 X63.07 Y45.14 Z-0.28
G1 X63.47 Y45.14 Z-0.30 F300.0
G1 X63.88 Y45.14 Z-0.32
G1 X64.28 Y45.14 Z-0.35
G1 X64.69 Y45.14 Z-0.38
G1 X65.09 Y45.14 Z-0.43
G1 X65.50 Y45.14 Z-0.46
G1 X65.90 Y45.14 Z-0.50
G1 X66.30 Y45.14 Z-0.54
G1 X66.71 Y45.14 Z-0.57
G1 X67.11 Y45.14 Z-0.60
G1 X67.52 Y45.14 Z-0.63
G1 X67.92 Y45.14 Z-0.66
G1 X68.33 Y45.14 Z-0.69
G1 X68.73 Y45.14 Z-0.74
G1 X69.13 Y45.14 Z-0.78
G1 X69.54 Y45.14 Z-0.82
G1 X69.94 Y45.14 Z-0.84
G1 X70.35 Y45.14 Z-0.83 F400.0
G1 X70.75 Y45.14 Z-0.78
G1 X71.16 Y45.14 Z-0.73
G1 X71.56 Y45.14 Z-0.66
G1 X71.96 Y45.14 Z-0.59
G1 X72.37 Y45.14 Z-0.53
G1 X72.77 Y45.14 Z-0.46
G1 X73.18 Y45.14 Z-0.42
G1 X73.58 Y45.14 Z-0.37
G1 X73.99 Y45.14 Z-0.35
G1 X74.39 Y45.14 Z-0.30
G1 X74.79 Y45.14 Z-0.26
G1 X75.20 Y45.14
G1 X75.60 Y45.14 Z-0.33 F300.0
G1 X76.01 Y45.14 Z-0.42
G1 X76.41 Y45.14 Z-0.57
G1 X76.82 Y45.14 Z-0.58
G1 X77.22 Y45.14 F400.0
G1 X77.63 Y45.14 Z-0.59 F300.0
G1 X78.03 Y45.14 F400.0
G1 X78.43 Y45.14
G1 X78.84 Y45.14 Z-0.58
G1 X79.24 Y45.14 Z-0.57
G1 X79.65 Y45.14 Z-0.56
G1 X80.05 Y45.14 Z-0.53
G1 X80.46 Y45.14 Z-0.51
G1 X80.86 Y45.14 Z-0.48
G1 X81.26 Y45.14 Z-0.45
G1 X81.67 Y45.14 Z-0.42
G1 X82.07 Y45.14 Z-0.39
G1 X82.48 Y45.14 Z-0.35
G1 X82.88 Y45.14 Z-0.32
G1 X83.29 Y45.14 Z-0.28
G1 X83.69 Y45.14 Z-0.25
G1 X84.09 Y45.14 Z-0.22
G1 X84.50 Y45.14 Z-0.19
G1 X84.90 Y45.14 Z-0.16
G1 X85.31 Y45.14 Z-0.18 F300.0
G1 X85.71 Y45.14 Z-0.31
G1 X86.12 Y45.14 Z-0.99
G1 X86.52 Y45.14 Z-1.00
G1 X86.92 Y45.14 F400.0
G1 X87.33 Y45.14
G1 X87.73 Y45.14
G1 X88.14 Y45.14
G1 X88.54 Y45.14
G1 X88.95 Y45.14
G1 X89.35 Y45.14
G1 X89.75 Y45.14
G1 X90.16 Y45.14
G1 X90.56 Y45.14
G1 X90.97 Y45.14
G1 X91.37 Y45.14
G1 X91.78 Y45.14
G1 X92.18 Y45.14
G1 X92.58 Y45.14
G1 X92.99 Y45.14
G1 X93.39 Y45.14
G1 X93.80 Y45.14
G1 X94.20 Y45.14
G1 X94.61 Y45.14
G1 X95.01 Y45.14
G1 X95.41 Y45.14
G1 X95.82 Y45.14
G1 X96.22 Y45.14
G1 X96.63 Y45.14
G1 X97.03 Y45.14
G1 X97.44 Y45.14
G1 X97.84 Y45.14
G1 X98.24 Y45.14
G1 X98.65 Y45.14
G1 X99.05 Y45.14
G1 X99.46 Y45.14
G1 X99.86 Y45.14
G1 X100.27 Y45.14
G1 X100.67 Y45.14
G1 X101.07 Y45.14
G1 X101.48 Y45.14
G1 X101.88 Y45.14
G1 X102.29 Y45.14
G1 X102.69 Y45.14
G1 X103.10 Y45.14
G1 X103.50 Y45.14
G1 X103.90 Y45.14
G1 X104.31 Y45.14
G1 X104.71 Y45.14
G1 X105.12 Y45.14
G1 X105.52 Y45.14
G1 X105.93 Y45.14
G1 X106.33 Y45.14
G1 X106.73 Y45.14
G1 X107.14 Y45.14
G1 X107.54 Y45.14
G1 X107.95 Y45.14
G1 X108.35 Y45.14
G1 X108.76 Y45.14
G1 X109.16 Y45.14
G1 X109.56 Y45.14
G1 X109.97 Y45.14
G1 X110.37 Y45.14
G1 X110.78 Y45.14
G1 X111.18 Y45.14
G1 X111.59 Y45.14
G1 X111.99 Y45.14
G1 X112.39 Y45.14
G1 X112.80 Y45.14
G1 X113.20 Y45.14
G1 X113.61 Y45.14
G1 X114.01 Y45.14
G1 X114.42 Y45.14
G1 X114.82 Y45.14
G1 X115.22 Y45.14
G1 X115.63 Y45.14
G1 X116.03 Y45.14
G1 X116.44 Y45.14
G1 X116.84 Y45.14
G1 X117.25 Y45.14
G1 X117.65 Y45.14
G1 X118.05 Y45.14
G1 X118.46 Y45.14
G1 X118.86 Y45.14
G1 X119.27 Y45.14
G1 X119.67 Y45.14
G1 X120.08 Y45.14
G1 X120.48 Y45.14
G1 X120.88 Y45.14
G1 X121.29 Y45.14
G1 X121.69 Y45.14
G1 X122.10 Y45.14
G1 X122.50 Y45.14
G1 X122.91 Y45.14
G1 X123.31 Y45.14
G1 X123.71 Y45.14
G1 X124.12 Y45.14
G1 X124.52 Y45.14
G1 X124.93 Y45.14
G1 X125.33 Y45.14
G1 X125.74 Y45.14
G1 X126.14 Y45.14
G1 X126.54 Y45.14
G1 X126.95 Y45.14
G1 X127.35 Y45.14
G1 X127.76 Y45.14
G1 X128.16 Y45.14
G1 X128.57 Y45.14
G1 X128.97 Y45.14
G1 X129.38 Y45.14
G1 X129.78 Y45.14
G1 X130.18 Y45.14
G1 X130.59 Y45.14
G1 X130.99 Y45.14
G1 X131.40 Y45.14
G1 X131.80 Y45.14
G1 X132.21 Y45.14
G1 X132.61 Y45.14
G1 X133.01 Y45.14
G1 X133.42 Y45.14
G1 X133.82 Y45.14
G1 X134.23 Y45.14
G1 X134.63 Y45.14
G1 X135.04 Y45.14
G1 X135.44 Y45.14
G1 X135.84 Y45.14
G1 X136.25 Y45.14
G1 X136.65 Y45.14
G1 X137.06 Y45.14
G1 X137.46 Y45.14
G1 X137.87 Y45.14
G0 Z5.00
G0 X137.97 Y44.73
G1 Z-1.00 F300.0
G1 X137.56 Y44.73 F400.0
G1 X137.16 Y44.73
G1 X136.75 Y44.73
G1 X136.35 Y44.73
G1 X135.94 Y44.73
G1 X135.54 Y44.73
G1 X135.14 Y44.73
G1 X134.73 Y44.73
G1 X134.33 Y44.73
G1 X133.92 Y44.73
G1 X133.52 Y44.73
G1 X133.11 Y44.73
G1 X132.71 Y44.73
G1 X132.31 Y44.73
G1 X131.90 Y44.73
G1 X131.50 Y44.73
G1 X131.09 Y44.73
G1 X130.69 Y44.73
G1 X130.28 Y44.73
G1 X129.88 Y44.73
G1 X129.48 Y44.73
G1 X129.07 Y44.73
G1 X128.67 Y44.73
G1 X128.26 Y44.73
G1 X127.86 Y44.73
G1 X127.45 Y44.73
G1 X127.05 Y44.73
G1 X126.65 Y44.73
G1 X126.24 Y44.73
G1 X125.84 Y44.73
G1 X125.43 Y44.73
G1 X125.03 Y44.73
G1 X124.62 Y44.73
G1 X124.22 Y44.73
G1 X123.82 Y44.73
G1 X123.41 Y44.73
G1 X123.01 Y44.73
G1 X122.60 Y44.73
G1 X122.20 Y44.73
G1 X121.79 Y44.73
G1 X121.39 Y44.73
G1 X120.99 Y44.73
G1 X120.58 Y44.73
G1 X120.18 Y44.73
G1 X119.77 Y44.73
G1 X119.37 Y44.73
G1 X118.96 Y44.73
G1 X118.56 Y44.73
G1 X118.16 Y44.73
G1 X117.75 Y44.73
G1 X117.35 Y44.73
G1 X116.94 Y44.73
G1 X116.54 Y44.73
G1 X116.13 Y44.73
G1 X115.73 Y44.73
G1 X115.33 Y44.73
G1 X114.92 Y44.73
G1 X114.52 Y44.73
G1 X114.11 Y44.73
G1 X113.71 Y44.73
G1 X113.30 Y44.73
G1 X112.90 Y44.73
G1 X112.50 Y44.73
G1 X112.09 Y44.73
G1 X111.69 Y44.73
G1 X111.28 Y44.73
G1 X110.88 Y44.73
G1 X110.47 Y44.73
G1 X110.07 Y44.73
G1 X109.67 Y44.73
G1 X109.26 Y44.73
G1 X108.86 Y44.73
G1 X108.45 Y44.73
G1 X108.05 Y44.73
G1 X107.64 Y44.73
G1 X107.24 Y44.73
G1 X106.84 Y44.73
G1 X106.43 Y44.73
G1 X106.03 Y44.73
G1 X105.62 Y44.73
G1 X105.22 Y44.73
G1 X104.81 Y44.73
G1 X104.41 Y44.73
G1 X104.01 Y44.73
G1 X103.60 Y44.73
G1 X103.20 Y44.73
G1 X102.79 Y44.73
G1 X102.39 Y44.73
G1 X101.98 Y44.73
G1 X101.58 Y44.73
G1 X101.18 Y44.73
G1 X100.77 Y44.73
G1 X100.37 Y44.73
G1 X99.96 Y44.73
G1 X99.56 Y44.73
G1 X99.15 Y44.73
G1 X98.75 Y44.73
G1 X98.35 Y44.73
G1 X97.94 Y44.73
G1 X97.54 Y44.73
G1 X97.13 Y44.73
G1 X96.73 Y44.73
G1 X96.32 Y44.73
G1 X95.92 Y44.73
G1 X95.52 Y44.73
G1 X95.11 Y44.73
G1 X94.71 Y44.73
G1 X94.30 Y44.73
G1 X93.90 Y44.73
G1 X93.49 Y44.73
G1 X93.09 Y44.73
G1 X92.69 Y44.73
G1 X92.28 Y44.73
G1 X91.88 Y44.73
G1 X91.47 Y44.73
G1 X91.07 Y44.73
G1 X90.66 Y44.73
G1 X90.26 Y44.73
G1 X89.85 Y44.73
G1 X89.45 Y44.73
G1 X89.05 Y44.73
G1 X88.64 Y44.73
G1 X88.24 Y44.73
G1 X87.83 Y44.73
G1 X87.43 Y44.73
G1 X87.02 Y44.73
G1 X86.62 Y44.73
G1 X86.22 Y44.73
G1 X85.81 Y44.73 Z-0.30
G1 X85.41 Y44.73 Z-0.25
G1 X85.00 Y44.73 Z-0.16
G1 X84.60 Y44.73 Z-0.20 F300.0
G1 X84.19 Y44.73 Z-0.23
G1 X83.79 Y44.73 Z-0.26
G1 X83.39 Y44.73 Z-0.30
G1 X82.98 Y44.73 Z-0.33
G1 X82.58 Y44.73 Z-0.37
G1 X82.17 Y44.73 Z-0.41
G1 X81.77 Y44.73 Z-0.44
G1 X81.36 Y44.73 Z-0.48
G1 X80.96 Y44.73 Z-0.51
G1 X80.56 Y44.73 Z-0.54
G1 X80.15 Y44.73 Z-0.56
G1 X79.75 Y44.73 Z-0.58
G1 X79.34 Y44.73 Z-0.60
G1 X78.94 Y44.73 Z-0.62
G1 X78.53 Y44.73 Z-0.63
G1 X78.13 Y44.73 F400.0
G1 X77.73 Y44.73 Z-0.62
G1 X77.32 Y44.73
G1 X76.92 Y44.73 Z-0.61
G1 X76.51 Y44.73 Z-0.28
G1 X76.11 Y44.73 Z-0.24
G1 X75.70 Y44.73 Z-0.23
G1 X75.30 Y44.73 Z-0.27 F300.0
G1 X74.90 Y44.73 Z-0.30
G1 X74.49 Y44.73 Z-0.35
G1 X74.09 Y44.73 Z-0.38
G1 X73.68 Y44.73 Z-0.43
G1 X73.28 Y44.73 Z-0.47
G1 X72.87 Y44.73 Z-0.52
G1 X72.47 Y44.73 Z-0.57
G1 X72.07 Y44.73 Z-0.62
G1 X71.66 Y44.73 Z-0.68
G1 X71.26 Y44.73 Z-0.74
G1 X70.85 Y44.73 Z-0.79
G1 X70.45 Y44.73 Z-0.83
G1 X70.04 Y44.73 Z-0.85
G1 X69.64 Y44.73 F400.0
G1 X69.24 Y44.73 Z-0.82
G1 X68.83 Y44.73 Z-0.79
G1 X68.43 Y44.73 Z-0.76
G1 X68.02 Y44.73 Z-0.73
G1 X67.62 Y44.73 Z-0.70
G1 X67.21 Y44.73 Z-0.68
G1 X66.81 Y44.73 Z-0.65
G1 X66.41 Y44.73 Z-0.63
G1 X66.00 Y44.73 Z-0.59
G1 X65.60 Y44.73 Z-0.55
G1 X65.19 Y44.73 Z-0.52
G1 X64.79 Y44.73 Z-0.48
G1 X64.38 Y44.73 Z-0.44
G1 X63.98 Y44.73 Z-0.41
G1 X63.58 Y44.73 Z-0.38
G1 X63.17 Y44.73 Z-0.35
G1 X62.77 Y44.73 Z-0.32
G1 X62.36 Y44.73 Z-0.36 F300.0
G1 X61.96 Y44.73 Z-0.39
G1 X61.55 Y44.73 Z-0.43
G1 X61.15 Y44.73 Z-0.46
G1 X60.75 Y44.73 Z-0.48
G1 X60.34 Y44.73 Z-0.50
G1 X59.94 Y44.73 Z-0.52
G1 X59.53 Y44.73 Z-0.53
G1 X59.13 Y44.73 Z-0.54
G1 X58.72 Y44.73 F400.0
G1 X58.32 Y44.73
G1 X57.92 Y44.73 Z-0.53
G1 X57.51 Y44.73 Z-0.51
G1 X57.11 Y44.73 Z-0.50
G1 X56.70 Y44.73 Z-0.47
G1 X56.30 Y44.73 Z-0.45
G1 X55.89 Y44.73 Z-0.42
G1 X55.49 Y44.73 Z-0.39
G1 X55.09 Y44.73 Z-0.36
G1 X54.68 Y44.73 Z-0.33
G1 X54.28 Y44.73 Z-0.30
G1 X53.87 Y44.73 Z-0.27
G1 X53.47 Y44.73 Z-0.24
G1 X53.06 Y44.73 Z-0.21
G1 X52.66 Y44.73 Z-0.18
G1 X52.26 Y44.73 Z-0.16
G1 X51.85 Y44.73 Z-0.27 F300.0
G1 X51.45 Y44.73 Z-1.00
G1 X51.04 Y44.73 F400.0
G1 X50.64 Y44.73
G1 X50.23 Y44.73
G1 X49.83 Y44.73
G1 X49.43 Y44.73
G1 X49.02 Y44.73
G1 X48.62 Y44.73
G1 X48.21 Y44.73
G1 X47.81 Y44.73
G1 X47.40 Y44.73
G1 X47.00 Y44.73
G1 X46.60 Y44.73
G1 X46.19 Y44.73
G1 X45.79 Y44.73
G1 X45.38 Y44.73
G1 X44.98 Y44.73
G1 X44.57 Y44.73
G1 X44.17 Y44.73
G1 X43.77 Y44.73
G1 X43.36 Y44.73
G1 X42.96 Y44.73
G1 X42.55 Y44.73
G1 X42.15 Y44.73
G1 X41.74 Y44.73
G1 X41.34 Y44.73
G1 X40.94 Y44.73
G1 X40.53 Y44.73
G1 X40.13 Y44.73
G1 X39.72 Y44.73
G1 X39.32 Y44.73
G1 X38.91 Y44.73
G1 X38.51 Y44.73
G1 X38.10 Y44.73
G1 X37.70 Y44.73
G1 X37.30 Y44.73
G1 X36.89 Y44.73
G1 X36.49 Y44.73
G1 X36.08 Y44.73
G1 X35.68 Y44.73
G1 X35.27 Y44.73
G1 X34.87 Y44.73
G1 X34.47 Y44.73
G1 X34.06 Y44.73
G1 X33.66 Y44.73
G1 X33.25 Y44.73
G1 X32.85 Y44.73
G1 X32.44 Y44.73
G1 X32.04 Y44.73
G1 X31.64 Y44.73
G1 X31.23 Y44.73
G1 X30.83 Y44.73
G1 X30.42 Y44.73
G1 X30.02 Y44.73
G1 X29.61 Y44.73
G1 X29.21 Y44.73
G1 X28.81 Y44.73
G1 X28.40 Y44.73
G1 X28.00 Y44.73
G1 X27.59 Y44.73
G1 X27.19 Y44.73
G1 X26.78 Y44.73
G1 X26.38 Y44.73
G1 X25.98 Y44.73
G1 X25.57 Y44.73
G1 X25.17 Y44.73
G1 X24.76 Y44.73
G1 X24.36 Y44.73
G1 X23.95 Y44.73
G1 X23.55 Y44.73
G1 X23.15 Y44.73
G1 X22.74 Y44.73
G1 X22.34 Y44.73
G1 X21.93 Y44.73
G1 X21.53 Y44.73
G1 X21.12 Y44.73
G1 X20.72 Y44.73
G1 X20.32 Y44.73
G1 X19.91 Y44.73
G1 X19.51 Y44.73
G1 X19.10 Y44.73
G1 X18.70 Y44.73
G1 X18.29 Y44.73
G1 X17.89 Y44.73
G1 X17.49 Y44.73
G1 X17.08 Y44.73
G1 X16.68 Y44.73
G1 X16.27 Y44.73
G1 X15.87 Y44.73
G1 X15.46 Y44.73
G1 X15.06 Y44.73
G1 X14.66 Y44.73
G1 X14.25 Y44.73
G1 X13.85 Y44.73
G1 X13.44 Y44.73
G1 X13.04 Y44.73
G1 X12.63 Y44.73
G1 X12.23 Y44.73
G1 X11.83 Y44.73
G1 X11.42 Y44.73
G1 X11.02 Y44.73
G1 X10.61 Y44.73
G1 X10.21 Y44.73
G1 X9.80 Y44.73
G1 X9.40 Y44.73
G1 X9.00 Y44.73
G1 X8.59 Y44.73
G1 X8.19 Y44.73
G1 X7.78 Y44.73
G1 X7.38 Y44.73
G1 X6.97 Y44.73
G1 X6.57 Y44.73
G1 X6.17 Y44.73
G1 X5.76 Y44.73
G1 X5.36 Y44.73
G1 X4.95 Y44.73
G1 X4.55 Y44.73
G1 X4.14 Y44.73
G1 X3.74 Y44.73
G1 X3.34 Y44.73
G1 X2.93 Y44.73
G1 X2.53 Y44.73
G1 X2.12 Y44.73
G1 X1.72 Y44.73
G1 X1.31 Y44.73
G1 X0.91 Y44.73
G1 X0.51 Y44.73
G1 X0.10 Y44.73
G0 Z5.00
G0 X0.00 Y44.32
G1 Z-1.00 F300.0
G1 X0.40 Y44.32 F400.0
G1 X0.81 Y44.32
G1 X1.21 Y44.32
G1 X1.62 Y44.32
G1 X2.02 Y44.32
G1 X2.43 Y44.32
G1 X2.83 Y44.32
G1 X3.23 Y44.32
G1 X3.64 Y44.32
G1 X4.04 Y44.32
G1 X4.45 Y44.32
G1 X4.85 Y44.32
G1 X5.26 Y44.32
G1 X5.66 Y44.32
G1 X6.06 Y44.32
G1 X6.47 Y44.32
G1 X6.87 Y44.32
G1 X7.28 Y44.32
G1 X7.68 Y44.32
G1 X8.09 Y44.32
G1 X8.49 Y44.32
G1 X8.89 Y44.32
G1 X9.30 Y44.32
G1 X9.70 Y44.32
G1 X10.11 Y44.32
G1 X10.51 Y44.32
G1 X10.92 Y44.32
G1 X11.32 Y44.32
G1 X11.72 Y44.32
G1 X12.13 Y44.32
G1 X12.53 Y44.32
G1 X12.94 Y44.32
G1 X13.34 Y44.32
G1 X13.75 Y44.32
G1 X14.15 Y44.32
G1 X14.55 Y44.32
G1 X14.96 Y44.32
G1 X15.36 Y44.32
G1 X15.77 Y44.32
G1 X16.17 Y44.32
G1 X16.58 Y44.32
G1 X16.98 Y44.32
G1 X17.38 Y44.32
G1 X17.79 Y44.32
G1 X18.19 Y44.32
G1 X18.60 Y44.32
G1 X19.00 Y44.32
G1 X19.41 Y44.32
G1 X19.81 Y44.32
G1 X20.21 Y44.32
G1 X20.62 Y44.32
G1 X21.02 Y44.32
G1 X21.43 Y44.32
G1 X21.83 Y44.32
G1 X22.24 Y44.32
G1 X22.64 Y44.32
G1 X23.04 Y44.32
G1 X23.45 Y44.32
G1 X23.85 Y44.32
G1 X24.26 Y44.32
G1 X24.66 Y44.32
G1 X25.07 Y44.32
G1 X25.47 Y44.32
G1 X25.88 Y44.32
G1 X26.28 Y44.32
G1 X26.68 Y44.32
G1 X27.09 Y44.32
G1 X27.49 Y44.32
G1 X27.90 Y44.32
G1 X28.30 Y44.32
G1 X28.71 Y44.32
G1 X29.11 Y44.32
G1 X29.51 Y44.32
G1 X29.92 Y44.32
G1 X30.32 Y44.32
G1 X30.73 Y44.32
G1 X31.13 Y44.32
G1 X31.54 Y44.32
G1 X31.94 Y44.32
G1 X32.34 Y44.32
G1 X32.75 Y44.32
G1 X33.15 Y44.32
G1 X33.56 Y44.32
G1 X33.96 Y44.32
G1 X34.37 Y44.32
G1 X34.77 Y44.32
G1 X35.17 Y44.32
G1 X35.58 Y44.32
G1 X35.98 Y44.32
G1 X36.39 Y44.32
G1 X36.79 Y44.32
G1 X37.20 Y44.32
G1 X37.60 Y44.32
G1 X38.00 Y44.32
G1 X38.41 Y44.32
G1 X38.81 Y44.32
G1 X39.22 Y44.32
G1 X39.62 Y44.32
G1 X40.03 Y44.32
G1 X40.43 Y44.32
G1 X40.83 Y44.32
G1 X41.24 Y44.32
G1 X41.64 Y44.32
G1 X42.05 Y44.32
G1 X42.45 Y44.32
G1 X42.86 Y44.32
G1 X43.26 Y44.32
G1 X43.66 Y44.32
G1 X44.07 Y44.32
G1 X44.47 Y44.32
G1 X44.88 Y44.32
G1 X45.28 Y44.32
G1 X45.69 Y44.32
G1 X46.09 Y44.32
G1 X46.49 Y44.32
G1 X46.90 Y44.32
G1 X47.30 Y44.32
G1 X47.71 Y44.32
G1 X48.11 Y44.32
G1 X48.52 Y44.32
G1 X48.92 Y44.32
G1 X49.32 Y44.32
G1 X49.73 Y44.32
G1 X50.13 Y44.32
G1 X50.54 Y44.32
G1 X50.94 Y44.32
G1 X51.35 Y44.32
G1 X51.75 Y44.32 Z-0.65
G1 X52.15 Y44.32 Z-0.23
G1 X52.56 Y44.32 Z-0.19
G1 X52.96 Y44.32 Z-0.22 F300.0
G1 X53.37 Y44.32 Z-0.25
G1 X53.77 Y44.32 Z-0.28
G1 X54.18 Y44.32 Z-0.31
G1 X54.58 Y44.32 Z-0.34
G1 X54.98 Y44.32 Z-0.38
G1 X55.39 Y44.32 Z-0.41
G1 X55.79 Y44.32 Z-0.45
G1 X56.20 Y44.32 Z-0.47
G1 X56.60 Y44.32 Z-0.51
G1 X57.01 Y44.32 Z-0.53
G1 X57.41 Y44.32 Z-0.55
G1 X57.81 Y44.32 Z-0.56
G1 X58.22 Y44.32 Z-0.58
G1 X58.62 Y44.32 F400.0
G1 X59.03 Y44.32
G1 X59.43 Y44.32
G1 X59.84 Y44.32 Z-0.56
G1 X60.24 Y44.32 Z-0.55
G1 X60.64 Y44.32 Z-0.53
G1 X61.05 Y44.32 Z-0.50
G1 X61.45 Y44.32 Z-0.47
G1 X61.86 Y44.32 Z-0.44
G1 X62.26 Y44.32 Z-0.39
G1 X62.67 Y44.32
G1 X63.07 Y44.32 Z-0.43 F300.0
G1 X63.47 Y44.32 Z-0.46
G1 X63.88 Y44.32 Z-0.49
G1 X64.28 Y44.32 Z-0.52
G1 X64.69 Y44.32 Z-0.55
G1 X65.09 Y44.32 Z-0.58
G1 X65.50 Y44.32 Z-0.62
G1 X65.90 Y44.32 Z-0.65
G1 X66.30 Y44.32 Z-0.69
G1 X66.71 Y44.32 Z-0.71
G1 X67.11 Y44.32 Z-0.73
G1 X67.52 Y44.32 Z-0.75
G1 X67.92 Y44.32 Z-0.76
G1 X68.33 Y44.32 Z-0.79
G1 X68.73 Y44.32 Z-0.81
G1 X69.13 Y44.32 Z-0.83
G1 X69.54 Y44.32 Z-0.85
G1 X69.94 Y44.32 F400.0
G1 X70.35 Y44.32 Z-0.84
G1 X70.75 Y44.32 Z-0.82
G1 X71.16 Y44.32 Z-0.77
G1 X71.56 Y44.32 Z-0.73
G1 X71.96 Y44.32 Z-0.68
G1 X72.37 Y44.32 Z-0.63
G1 X72.77 Y44.32 Z-0.59
G1 X73.18 Y44.32 Z-0.55
G1 X73.58 Y44.32 Z-0.51
G1 X73.99 Y44.32 Z-0.46
G1 X74.39 Y44.32 Z-0.41
G1 X74.79 Y44.32 Z-0.36
G1 X75.20 Y44.32 Z-0.32
G1 X75.60 Y44.32 Z-0.27
G1 X76.01 Y44.32 Z-0.24
G1 X76.41 Y44.32 Z-0.20
G1 X76.82 Y44.32 Z-0.26 F300.0
G1 X77.22 Y44.32 Z-0.66
G1 X77.63 Y44.32 Z-0.65 F400.0
G1 X78.03 Y44.32
G1 X78.43 Y44.32
G1 X78.84 Y44.32
G1 X79.24 Y44.32 Z-0.64
G1 X79.65 Y44.32 Z-0.63
G1 X80.05 Y44.32 Z-0.60
G1 X80.46 Y44.32 Z-0.58
G1 X80.86 Y44.32 Z-0.55
G1 X81.26 Y44.32 Z-0.52
G1 X81.67 Y44.32 Z-0.49
G1 X82.07 Y44.32 Z-0.45
G1 X82.48 Y44.32 Z-0.41
G1 X82.88 Y44.32 Z-0.37
G1 X83.29 Y44.32 Z-0.33
G1 X83.69 Y44.32 Z-0.29
G1 X84.09 Y44.32 Z-0.26
G1 X84.50 Y44.32 Z-0.22
G1 X84.90 Y44.32 Z-0.19
G1 X85.31 Y44.32 Z-0.24 F300.0
G1 X85.71 Y44.32 Z-0.33
G1 X86.12 Y44.32 Z-1.00
G1 X86.52 Y44.32 F400.0
G1 X86.92 Y44.32
G1 X87.33 Y44.32
G1 X87.73 Y44.32
G1 X88.14 Y44.32
G1 X88.54 Y44.32
G1 X88.95 Y44.32
G1 X89.35 Y44.32
G1 X89.75 Y44.32
G1 X90.16 Y44.32
G1 X90.56 Y44.32
G1 X90.97 Y44.32
G1 X91.37 Y44.32
G1 X91.78 Y44.32
G1 X92.18 Y44.32
G1 X92.58 Y44.32
G1 X92.99 Y44.32
G1 X93.39 Y44.32
G1 X93.80 Y44.32
G1 X94.20 Y44.32
G1 X94.61 Y44.32
G1 X95.01 Y44.32
G1 X95.41 Y44.32
G1 X95.82 Y44.32
G1 X96.22 Y44.32
G1 X96.63 Y44.32
G1 X97.03 Y44.32
G1 X97.44 Y44.32
G1 X97.84 Y44.32
G1 X98.24 Y44.32
G1 X98.65 Y44.32
G1 X99.05 Y44.32
G1 X99.46 Y44.32
G1 X99.86 Y44.32
G1 X100.27 Y44.32
G1 X100.67 Y44.32
G1 X101.07 Y44.32
G1 X101.48 Y44.32
G1 X101.88 Y44.32
G1 X102.29 Y44.32
G1 X102.69 Y44.32
G1 X103.10 Y44.32
G1 X103.50 Y44.32
G1 X103.90 Y44.32
G1 X104.31 Y44.32
G1 X104.71 Y44.32
G1 X105.12 Y44.32
G1 X105.52 Y44.32
G1 X105.93 Y44.32
G1 X106.33 Y44.32
G1 X106.73 Y44.32
G1 X107.14 Y44.32
G1 X107.54 Y44.32
G1 X107.95 Y44.32
G1 X108.35 Y44.32
G1 X108.76 Y44.32
G1 X109.16 Y44.32
G1 X109.56 Y44.32
G1 X109.97 Y44.32
G1 X110.37 Y44.32
G1 X110.78 Y44.32
G1 X111.18 Y44.32
G1 X111.59 Y44.32
G1 X111.99 Y44.32
G1 X112.39 Y44.32
G1 X112.80 Y44.32
G1 X113.20 Y44.32
G1 X113.61 Y44.32
G1 X114.01 Y44.32
G1 X114.42 Y44.32
G1 X114.82 Y44.32
G1 X115.22 Y44.32
G1 X115.63 Y44.32
G1 X116.03 Y44.32
G1 X116.44 Y44.32
G1 X116.84 Y44.32
G1 X117.25 Y44.32
G1 X117.65 Y44.32
G1 X118.05 Y44.32
G1 X118.46 Y44.32
G1 X118.86 Y44.32
G1 X119.27 Y44.32
G1 X119.67 Y44.32
G1 X120.08 Y44.32
G1 X120.48 Y44.32
G1 X120.88 Y44.32
G1 X121.29 Y44.32
G1 X121.69 Y44.32
G1 X122.10 Y44.32
G1 X122.50 Y44.32
G1 X122.91 Y44.32
G1 X123.31 Y44.32
G1 X123.71 Y44.32
G1 X124.12 Y44.32
G1 X124.52 Y44.32
G1 X124.93 Y44.32
G1 X125.33 Y44.32
G1 X125.74 Y44.32
G1 X126.14 Y44.32
G1 X126.54 Y44.32
G1 X126.95 Y44.32
G1 X127.35 Y44.32
G1 X127.76 Y44.32
G1 X128.16 Y44.32
G1 X128.57 Y44.32
G1 X128.97 Y44.32
G1 X129.38 Y44.32
G1 X129.78 Y44.32
G1 X130.18 Y44.32
G1 X130.59 Y44.32
G1 X130.99 Y44.32
G1 X131.40 Y44.32
G1 X131.80 Y44.32
G1 X132.21 Y44.32
G1 X132.61 Y44.32
G1 X133.01 Y44.32
G1 X133.42 Y44.32
G1 X133.82 Y44.32
G1 X134.23 Y44.32
G1 X134.63 Y44.32
G1 X135.04 Y44.32
G1 X135.44 Y44.32
G1 X135.84 Y44.32
G1 X136.25 Y44.32
G1 X136.65 Y44.32
G1 X137.06 Y44.32
G1 X137.46 Y44.32
G1 X137.87 Y44.32
G0 Z5.00
G0 X137.97 Y43.92
G1 Z-1.00 F300.0
G1 X137.56 Y43.92 F400.0
G1 X137.16 Y43.92
G1 X136.75 Y43.92
G1 X136.35 Y43.92
G1 X135.94 Y43.92
G1 X135.54 Y43.92
G1 X135.14 Y43.92
G1 X134.73 Y43.92
G1 X134.33 Y43.92
G1 X133.92 Y43.92
G1 X133.52 Y43.92
G1 X133.11 Y43.92
G1 X132.71 Y43.92
G1 X132.31 Y43.92
G1 X131.90 Y43.92
G1 X131.50 Y43.92
G1 X131.09 Y43.92
G1 X130.69 Y43.92
G1 X130.28 Y43.92
G1 X129.88 Y43.92
G1 X129.48 Y43.92
G1 X129.07 Y43.92
G1 X128.67 Y43.92
G1 X128.26 Y43.92
G1 X127.86 Y43.92
G1 X127.45 Y43.92
G1 X127.05 Y43.92
G1 X126.65 Y43.92
G1 X126.24 Y43.92
G1 X125.84 Y43.92
G1 X125.43 Y43.92
G1 X125.03 Y43.92
G1 X124.62 Y43.92
G1 X124.22 Y43.92
G1 X123.82 Y43.92
G1 X123.41 Y43.92
G1 X123.01 Y43.92
G1 X122.60 Y43.92
G1 X122.20 Y43.92
G1 X121.79 Y43.92
G1 X121.39 Y43.92
G1 X120.99 Y43.92
G1 X120.58 Y43.92
G1 X120.18 Y43.92
G1 X119.77 Y43.92
G1 X119.37 Y43.92
G1 X118.96 Y43.92
G1 X118.56 Y43.92
G1 X118.16 Y43.92
G1 X117.75 Y43.92
G1 X117.35 Y43.92
G1 X116.94 Y43.92
G1 X116.54 Y43.92
G1 X116.13 Y43.92
G1 X115.73 Y43.92
G1 X115.33 Y43.92
G1 X114.92 Y43.92
G1 X114.52 Y43.92
G1 X114.11 Y43.92
G1 X113.71 Y43.92
G1 X113.30 Y43.92
G1 X112.90 Y43.92
G1 X112.50 Y43.92
G1 X112.09 Y43.92
G1 X111.69 Y43.92
G1 X111.28 Y43.92
G1 X110.88 Y43.92
G1 X110.47 Y43.92
G1 X110.07 Y43.92
G1 X109.67 Y43.92
G1 X109.26 Y43.92
G1 X108.86 Y43.92
G1 X108.45 Y43.92
G1 X108.05 Y43.92
G1 X107.64 Y43.92
G1 X107.24 Y43.92
G1 X106.84 Y43.92
G1 X106.43 Y43.92
G1 X106.03 Y43.92
G1 X105.62 Y43.92
G1 X105.22 Y43.92
G1 X104.81 Y43.92
G1 X104.41 Y43.92
G1 X104.01 Y43.92
G1 X103.60 Y43.92
G1 X103.20 Y43.92
G1 X102.79 Y43.92
G1 X102.39 Y43.92
G1 X101.98 Y43.92
G1 X101.58 Y43.92
G1 X101.18 Y43.92
G1 X100.77 Y43.92
G1 X100.37 Y43.92
G1 X99.96 Y43.92
G1 X99.56 Y43.92
G1 X99.15 Y43.92
G1 X98.75 Y43.92
G1 X98.35 Y43.92
G1 X97.94 Y43.92
G1 X97.54 Y43.92
G1 X97.13 Y43.92
G1 X96.73 Y43.92
G1 X96.32 Y43.92
G1 X95.92 Y43.92
G1 X95.52 Y43.92
G1 X95.11 Y43.92
G1 X94.71 Y43.92
G1 X94.30 Y43.92
G1 X93.90 Y43.92
G1 X93.49 Y43.92
G1 X93.09 Y43.92
G1 X92.69 Y43.92
G1 X92.28 Y43.92
G1 X91.88 Y43.92
G1 X91.47 Y43.92
G1 X91.07 Y43.92
G1 X90.66 Y43.92
G1 X90.26 Y43.92
G1 X89.85 Y43.92
G1 X89.45 Y43.92
G1 X89.05 Y43.92
G1 X88.64 Y43.92
G1 X88.24 Y43.92
G1 X87.83 Y43.92
G1 X87.43 Y43.92
G1 X87.02 Y43.92
G1 X86.62 Y43.92
G1 X86.22 Y43.92
G1 X85.81 Y43.92 Z-0.32
G1 X85.41 Y43.92 Z-0.28
G1 X85.00 Y43.92 Z-0.19
G1 X84.60 Y43.92 Z-0.24 F300.0
G1 X84.19 Y43.92 Z-0.27
G1 X83.79 Y43.92 Z-0.31
G1 X83.39 Y43.92 Z-0.35
G1 X82.98 Y43.92 Z-0.38
G1 X82.58 Y43.92 Z-0.43
G1 X82.17 Y43.92 Z-0.47
G1 X81.77 Y43.92 Z-0.51
G1 X81.36 Y43.92 Z-0.54
G1 X80.96 Y43.92 Z-0.58
G1 X80.56 Y43.92 Z-0.61
G1 X80.15 Y43.92 Z-0.64
G1 X79.75 Y43.92 Z-0.65
G1 X79.34 Y43.92 Z-0.67
G1 X78.94 Y43.92 Z-0.68
G1 X78.53 Y43.92 Z-0.69 F400.0
G1 X78.13 Y43.92
G1 X77.73 Y43.92 Z-0.67
G1 X77.32 Y43.92 Z-0.35
G1 X76.92 Y43.92 Z-0.19
G1 X76.51 Y43.92 Z-0.22 F300.0
G1 X76.11 Y43.92 Z-0.25
G1 X75.70 Y43.92 Z-0.30
G1 X75.30 Y43.92 Z-0.35
G1 X74.90 Y43.92 Z-0.40
G1 X74.49 Y43.92 Z-0.45
G1 X74.09 Y43.92 Z-0.51
G1 X73.68 Y43.92 Z-0.56
G1 X73.28 Y43.92 Z-0.60
G1 X72.87 Y43.92 Z-0.64
G1 X72.47 Y43.92 Z-0.67
G1 X72.07 Y43.92 Z-0.71
G1 X71.66 Y43.92 Z-0.74
G1 X71.26 Y43.92 Z-0.77
G1 X70.85 Y43.92 Z-0.80
G1 X70.45 Y43.92 Z-0.82
G1 X70.04 Y43.92 Z-0.84
G1 X69.64 Y43.92 Z-0.83 F400.0
G1 X69.24 Y43.92
G1 X68.83 Y43.92 Z-0.82
G1 X68.43 Y43.92 Z-0.80
G1 X68.02 Y43.92
G1 X67.62 Y43.92 Z-0.78
G1 X67.21 Y43.92 Z-0.77
G1 X66.81 Y43.92 Z-0.76
G1 X66.41 Y43.92 Z-0.75
G1 X66.00 Y43.92 Z-0.72
G1 X65.60 Y43.92 Z-0.69
G1 X65.19 Y43.92 Z-0.66
G1 X64.79 Y43.92 Z-0.62
G1 X64.38 Y43.92 Z-0.59
G1 X63.98 Y43.92 Z-0.56
G1 X63.58 Y43.92 Z-0.54
G1 X63.17 Y43.92 Z-0.51
G1 X62.77 Y43.92 Z-0.48
G1 X62.36 Y43.92 Z-0.44
G1 X61.96 Y43.92 Z-0.43
G1 X61.55 Y43.92 Z-0.49 F300.0
G1 X61.15 Y43.92 Z-0.53
G1 X60.75 Y43.92 Z-0.55
G1 X60.34 Y43.92 Z-0.58
G1 X59.94 Y43.92 Z-0.60
G1 X59.53 Y43.92 Z-0.61
G1 X59.13 Y43.92 Z-0.62
G1 X58.72 Y43.92 F400.0
G1 X58.32 Y43.92
G1 X57.92 Y43.92 Z-0.61
G1 X57.51 Y43.92 Z-0.59
G1 X57.11 Y43.92 Z-0.57
G1 X56.70 Y43.92 Z-0.55
G1 X56.30 Y43.92 Z-0.52
G1 X55.89 Y43.92 Z-0.49
G1 X55.49 Y43.92 Z-0.45
G1 X55.09 Y43.92 Z-0.42
G1 X54.68 Y43.92 Z-0.38
G1 X54.28 Y43.92 Z-0.34
G1 X53.87 Y43.92 Z-0.31
G1 X53.47 Y43.92 Z-0.27
G1 X53.06 Y43.92 Z-0.24
G1 X52.66 Y43.92 Z-0.21
G1 X52.26 Y43.92 Z-0.20
G1 X51.85 Y43.92 Z-0.31 F300.0
G1 X51.45 Y43.92 Z-1.00
G1 X51.04 Y43.92 F400.0
G1 X50.64 Y43.92
G1 X50.23 Y43.92
G1 X49.83 Y43.92
G1 X49.43 Y43.92
G1 X49.02 Y43.92
G1 X48.62 Y43.92
G1 X48.21 Y43.92
G1 X47.81 Y43.92
G1 X47.40 Y43.92
G1 X47.00 Y43.92
G1 X46.60 Y43.92
G1 X46.19 Y43.92
G1 X45.79 Y43.92
G1 X45.38 Y43.92
G1 X44.98 Y43.92
G1 X44.57 Y43.92
G1 X44.17 Y43.92
G1 X43.77 Y43.92
G1 X43.36 Y43.92
G1 X42.96 Y43.92
G1 X42.55 Y43.92
G1 X42.15 Y43.92
G1 X41.74 Y43.92
G1 X41.34 Y43.92
G1 X40.94 Y43.92
G1 X40.53 Y43.92
G1 X40.13 Y43.92
G1 X39.72 Y43.92
G1 X39.32 Y43.92
G1 X38.91 Y43.92
G1 X38.51 Y43.92
G1 X38.10 Y43.92
G1 X37.70 Y43.92
G1 X37.30 Y43.92
G1 X36.89 Y43.92
G1 X36.49 Y43.92
G1 X36.08 Y43.92
G1 X35.68 Y43.92
G1 X35.27 Y43.92
G1 X34.87 Y43.92
G1 X34.47 Y43.92
G1 X34.06 Y43.92
G1 X33.66 Y43.92
G1 X33.25 Y43.92
G1 X32.85 Y43.92
G1 X32.44 Y43.92
G1 X32.04 Y43.92
G1 X31.64 Y43.92
G1 X31.23 Y43.92
G1 X30.83 Y43.92
G1 X30.42 Y43.92
G1 X30.02 Y43.92
G1 X29.61 Y43.92
G1 X29.21 Y43.92
G1 X28.81 Y43.92
G1 X28.40 Y43.92
G1 X28.00 Y43.92
G1 X27.59 Y43.92
G1 X27.19 Y43.92
G1 X26.78 Y43.92
