; Generated by PictureToG-Code (Web) — Contour mode
; Contour mode: G1 linear (smooth via Chaikin)
; Tool diameter: 1 mm  Feedrate: 400 mm/min
; Final depth: 1 mm
; Spindle speed: 15000 RPM
G21        ; mm
G90        ; absolute
G17        ; XY plane
G0 Z5.000
G0 X0 Y0
M03
S15000

G0 Z5.000
G0 X27.374 Y99.112
G1 Z-1.000 F400.0
G1 X27.120 Y98.857
G1 X26.868 Y98.601
G1 X26.769 Y98.262
G1 X26.590 Y97.966
G1 X26.573 Y97.606
G1 X26.334 Y97.340
G1 X26.118 Y97.061
G1 X25.982 Y96.745
G1 X25.729 Y96.490
G1 X25.475 Y96.235
G1 X25.370 Y95.901
G1 X25.051 Y95.780
G1 X24.785 Y95.542
G1 X24.531 Y95.288
G1 X24.249 Y95.079
G1 X23.939 Y94.935
G1 X23.685 Y94.680
G1 X23.353 Y94.573
G1 X23.070 Y94.363
G1 X22.754 Y94.230
G1 X22.431 Y94.108
G1 X22.149 Y93.894
G1 X21.790 Y93.881
G1 X21.497 Y93.695
G1 X21.159 Y93.596
G1 X20.870 Y93.403
G1 X20.510 Y93.393
G1 X20.228 Y93.179
G1 X19.902 Y93.064
G1 X19.589 Y92.923
G1 X19.304 Y92.717
G1 X18.970 Y92.613
G1 X18.669 Y92.448
G1 X18.377 Y92.261
G1 X18.123 Y92.007
G1 X17.864 Y91.758
G1 X17.530 Y91.655
G1 X17.276 Y91.400
G1 X17.022 Y91.146
G1 X16.784 Y90.880
G1 X16.670 Y90.552
G1 X16.416 Y90.298
G1 X16.162 Y90.043
G1 X16.040 Y89.721
G1 X15.811 Y89.449
G1 X15.557 Y89.195
G1 X15.231 Y89.078
G1 X14.949 Y88.864
G1 X14.624 Y88.746
G1 X14.370 Y88.491
G1 X14.116 Y88.237
G1 X13.790 Y88.121
G1 X13.522 Y87.886
G1 X13.268 Y87.631
G1 X13.014 Y87.377
G1 X12.760 Y87.123
G1 X12.506 Y86.869
G1 X12.407 Y86.530
G1 X12.154 Y86.276
G1 X11.899 Y86.022
G1 X11.736 Y85.720
G1 X11.548 Y85.428
G1 X11.449 Y85.090
G1 X11.259 Y84.799
G1 X11.098 Y84.496
G1 X10.993 Y84.162
G1 X10.746 Y83.903
G1 X10.543 Y83.618
G1 X10.394 Y83.310
G1 X10.283 Y82.980
G1 X10.071 Y82.697
G1 X9.944 Y82.378
G1 X9.689 Y82.124
G1 X9.435 Y81.870
G1 X9.180 Y81.616
G1 X8.926 Y81.363
G1 X8.671 Y81.109
G1 X8.417 Y80.855
G1 X8.162 Y80.601
G1 X7.849 Y80.461
G1 X7.568 Y80.250
G1 X7.313 Y79.996
G1 X7.045 Y79.761
G1 X6.718 Y79.645
G1 X6.464 Y79.391
G1 X6.144 Y79.263
G1 X5.860 Y79.051
G1 X5.529 Y78.942
G1 X5.220 Y78.794
G1 X4.858 Y78.795
G1 X4.496 Y78.798
G1 X4.209 Y79.003
G1 X3.952 Y79.259
G1 X3.807 Y79.571
G1 X3.594 Y79.854
G1 X3.338 Y80.110
G1 X3.098 Y80.378
G1 X2.980 Y80.706
G1 X2.713 Y80.948
G1 X2.383 Y80.874
G1 X2.128 Y80.620
G1 X1.891 Y80.353
G1 X1.775 Y80.027
G1 X1.637 Y79.714
G1 X1.638 Y79.354
G1 X1.640 Y78.993
G1 X1.641 Y78.633
G1 X1.642 Y78.272
G1 X1.644 Y77.912
G1 X1.645 Y77.552
G1 X1.646 Y77.191
G1 X1.648 Y76.831
G1 X1.602 Y76.481
G1 X1.348 Y76.226
G1 X1.168 Y75.931
G1 X0.995 Y75.633
G1 X0.740 Y75.380
G1 X0.689 Y75.031
G1 X0.557 Y74.716
G1 X0.449 Y74.391
G1 X0.451 Y74.031
G1 X0.452 Y73.671
G1 X0.453 Y73.311
G1 X0.454 Y72.951
G1 X0.455 Y72.591
G1 X0.618 Y72.286
G1 X0.699 Y71.949
G1 X0.700 Y71.589
G1 X0.891 Y71.297
G1 X0.944 Y70.948
G1 X1.078 Y70.633
G1 X1.199 Y70.308
G1 X1.416 Y70.025
G1 X1.536 Y69.699
G1 X1.677 Y69.385
G1 X1.893 Y69.105
G1 X2.138 Y68.840
G1 X2.251 Y68.511
G1 X2.508 Y68.255
G1 X2.765 Y68.000
G1 X3.022 Y67.745
G1 X3.279 Y67.490
G1 X3.535 Y67.235
G1 X3.792 Y66.980
G1 X4.049 Y66.725
G1 X4.353 Y66.557
G1 X4.648 Y66.370
G1 X4.998 Y66.315
G1 X5.316 Y66.184
G1 X5.595 Y66.240
G1 X5.788 Y66.529
G1 X5.948 Y66.832
G1 X6.028 Y67.168
G1 X6.131 Y67.494
G1 X6.386 Y67.748
G1 X6.658 Y67.977
G1 X7.019 Y67.986
G1 X7.376 Y67.953
G1 X7.664 Y67.747
G1 X8.026 Y67.743
G1 X8.375 Y67.686
G1 X8.671 Y67.501
G1 X9.033 Y67.500
G1 X9.395 Y67.498
G1 X9.757 Y67.497
G1 X10.120 Y67.495
G1 X10.482 Y67.494
G1 X10.818 Y67.577
G1 X11.125 Y67.731
G1 X11.481 Y67.762
G1 X11.768 Y67.965
G1 X12.080 Y68.108
G1 X12.409 Y68.221
G1 X12.692 Y68.433
G1 X13.015 Y68.556
G1 X13.334 Y68.686
G1 X13.618 Y68.896
G1 X13.950 Y69.003
G1 X14.257 Y69.155
G1 X14.613 Y69.187
G1 X14.900 Y69.389
G1 X15.261 Y69.396
G1 X15.545 Y69.606
G1 X15.904 Y69.626
G1 X16.203 Y69.797
G1 X16.546 Y69.863
G1 X16.907 Y69.861
G1 X17.269 Y69.859
G1 X17.592 Y69.973
G1 X17.911 Y70.095
G1 X18.272 Y70.093
G1 X18.633 Y70.091
G1 X18.995 Y70.089
G1 X19.356 Y70.081
G1 X19.634 Y69.857
G1 X19.891 Y69.601
G1 X20.009 Y69.279
G1 X20.011 Y68.920
G1 X20.013 Y68.561
G1 X20.015 Y68.202
G1 X20.017 Y67.842
G1 X20.019 Y67.483
G1 X20.012 Y67.125
G1 X19.799 Y66.844
G1 X19.784 Y66.487
G1 X19.603 Y66.194
G1 X19.504 Y65.858
G1 X19.308 Y65.572
G1 X19.154 Y65.267
G1 X18.899 Y65.015
G1 X18.797 Y64.682
G1 X18.547 Y64.425
G1 X18.292 Y64.173
G1 X18.109 Y63.881
G1 X17.940 Y63.583
G1 X17.685 Y63.331
G1 X17.586 Y62.995
G1 X17.332 Y62.741
G1 X17.078 Y62.489
G1 X16.910 Y62.190
G1 X16.725 Y61.899
G1 X16.470 Y61.647
G1 X16.220 Y61.390
G1 X16.116 Y61.057
G1 X15.861 Y60.805
G1 X15.606 Y60.552
G1 X15.465 Y60.241
G1 X15.252 Y59.962
G1 X15.009 Y59.701
G1 X14.899 Y59.373
G1 X14.643 Y59.120
G1 X14.503 Y58.808
G1 X14.289 Y58.530
G1 X14.046 Y58.268
G1 X13.935 Y57.940
G1 X13.680 Y57.688
G1 X13.541 Y57.375
G1 X13.332 Y57.092
G1 X13.227 Y56.761
G1 X13.063 Y56.460
G1 X12.872 Y56.171
G1 X12.619 Y55.915
G1 X12.517 Y55.581
G1 X12.341 Y55.285
G1 X12.322 Y54.929
G1 X12.108 Y54.647
G1 X11.979 Y54.330
G1 X11.851 Y54.011
G1 X11.637 Y53.730
G1 X11.619 Y53.373
G1 X11.439 Y53.079
G1 X11.338 Y52.744
G1 X11.138 Y52.457
G1 X11.128 Y52.100
G1 X10.913 Y51.818
G1 X10.896 Y51.461
G1 X10.715 Y51.167
G1 X10.654 Y50.824
G1 X10.652 Y50.466
G1 X10.448 Y50.180
G1 X10.413 Y49.828
G1 X10.413 Y49.470
G1 X10.345 Y49.129
G1 X10.171 Y48.832
G1 X10.171 Y48.473
G1 X10.171 Y48.115
G1 X9.989 Y47.821
G1 X9.929 Y47.477
G1 X9.929 Y47.119
G1 X9.929 Y46.760
G1 X9.929 Y46.402
G1 X9.928 Y46.043
G1 X9.928 Y45.685
G1 X9.928 Y45.326
G1 X9.927 Y44.968
G1 X9.927 Y44.609
G1 X9.927 Y44.250
G1 X9.926 Y43.892
G1 X9.926 Y43.533
G1 X9.925 Y43.175
G1 X9.925 Y42.816
G1 X9.924 Y42.457
G1 X9.926 Y42.099
G1 X10.130 Y41.814
G1 X10.164 Y41.461
G1 X10.163 Y41.103
G1 X10.162 Y40.744
G1 X10.316 Y40.439
G1 X10.403 Y40.106
G1 X10.402 Y39.748
G1 X10.423 Y39.392
G1 X10.636 Y39.110
G1 X10.641 Y38.751
G1 X10.682 Y38.401
G1 X10.880 Y38.114
G1 X10.890 Y37.756
G1 X11.104 Y37.474
G1 X11.120 Y37.117
G1 X11.302 Y36.824
G1 X11.402 Y36.488
G1 X11.599 Y36.201
G1 X11.754 Y35.896
G1 X11.839 Y35.563
G1 X11.937 Y35.235
G1 X12.192 Y34.982
G1 X12.325 Y34.667
G1 X12.536 Y34.385
G1 X12.644 Y34.055
G1 X12.800 Y33.750
G1 X12.997 Y33.464
G1 X13.247 Y33.207
G1 X13.350 Y32.874
G1 X13.605 Y32.621
G1 X13.760 Y32.316
G1 X13.958 Y32.030
G1 X14.213 Y31.778
G1 X14.457 Y31.517
G1 X14.566 Y31.187
G1 X14.821 Y30.934
G1 X15.075 Y30.681
G1 X15.330 Y30.429
G1 X15.585 Y30.176
G1 X15.839 Y29.923
G1 X16.094 Y29.670
G1 X16.348 Y29.417
G1 X16.603 Y29.165
G1 X16.857 Y28.912
G1 X17.112 Y28.659
G1 X17.366 Y28.406
G1 X17.620 Y28.154
G1 X17.949 Y28.041
G1 X18.214 Y27.804
G1 X18.468 Y27.551
G1 X18.723 Y27.298
G1 X19.012 Y27.106
G1 X19.316 Y26.949
G1 X19.570 Y26.696
G1 X19.907 Y26.596
G1 X20.193 Y26.395
G1 X20.503 Y26.250
G1 X20.757 Y25.997
G1 X21.090 Y25.892
G1 X21.374 Y25.685
G1 X21.689 Y25.551
G1 X22.014 Y25.433
G1 X22.296 Y25.220
G1 X22.621 Y25.104
G1 X22.935 Y24.967
G1 X23.219 Y24.761
G1 X23.553 Y24.658
G1 X23.855 Y24.496
G1 X24.075 Y24.269
G1 X24.242 Y23.971
G1 X24.311 Y23.630
G1 X24.422 Y23.308
G1 X24.547 Y22.991
G1 X24.545 Y22.631
G1 X24.684 Y22.321
G1 X24.781 Y21.992
G1 X24.779 Y21.632
G1 X24.793 Y21.273
G1 X25.005 Y20.991
G1 X25.013 Y20.632
G1 X25.010 Y20.271
G1 X25.008 Y19.911
G1 X25.006 Y19.550
G1 X25.005 Y19.190
G1 X25.199 Y18.901
G1 X25.240 Y18.549
G1 X25.238 Y18.189
G1 X25.236 Y17.828
G1 X25.228 Y17.468
G1 X25.015 Y17.182
G1 X24.990 Y16.824
G1 X24.988 Y16.463
G1 X24.899 Y16.127
G1 X24.743 Y15.820
G1 X24.544 Y15.529
G1 X24.442 Y15.190
G1 X24.185 Y14.934
G1 X23.926 Y14.680
G1 X23.572 Y14.643
G1 X23.212 Y14.641
G1 X22.851 Y14.639
G1 X22.543 Y14.485
G1 X22.209 Y14.395
G1 X21.848 Y14.393
G1 X21.488 Y14.391
G1 X21.156 Y14.293
G1 X20.845 Y14.147
G1 X20.484 Y14.145
G1 X20.164 Y14.019
G1 X19.841 Y13.901
G1 X19.499 Y13.831
G1 X19.199 Y13.657
G1 X18.902 Y13.474
G1 X18.563 Y13.372
G1 X18.306 Y13.117
G1 X18.049 Y12.860
G1 X17.793 Y12.604
G1 X17.536 Y12.347
G1 X17.280 Y12.091
G1 X17.024 Y11.834
G1 X16.796 Y11.558
G1 X16.666 Y11.238
G1 X16.410 Y10.981
G1 X16.290 Y10.654
G1 X16.074 Y10.370
G1 X16.059 Y10.010
G1 X15.866 Y9.717
G1 X15.816 Y9.366
G1 X15.819 Y9.005
G1 X16.034 Y8.727
G1 X16.346 Y8.591
G1 X16.629 Y8.803
G1 X16.886 Y9.060
G1 X17.142 Y9.316
G1 X17.270 Y9.639
G1 X17.556 Y9.801
G1 X17.843 Y10.009
G1 X18.179 Y10.115
G1 X18.482 Y10.283
G1 X18.842 Y10.285
G1 X19.162 Y10.177
G1 X19.104 Y9.843
G1 X18.944 Y9.537
G1 X18.942 Y9.176
G1 X18.830 Y8.850
G1 X18.698 Y8.532
G1 X18.697 Y8.171
G1 X18.695 Y7.810
G1 X18.693 Y7.449
G1 X18.849 Y7.163
G1 X19.209 Y7.157
G1 X19.497 Y7.360
G1 X19.753 Y7.617
G1 X20.009 Y7.873
G1 X20.265 Y8.130
G1 X20.522 Y8.387
G1 X20.802 Y8.604
G1 X21.118 Y8.744
G1 X21.443 Y8.840
G1 X21.577 Y8.542
G1 X21.355 Y8.264
G1 X21.115 Y7.995
G1 X21.098 Y7.635
G1 X20.912 Y7.340
G1 X20.810 Y7.000
G1 X20.614 Y6.709
G1 X20.612 Y6.347
G1 X20.538 Y6.006
G1 X20.368 Y5.703
G1 X20.367 Y5.342
G1 X20.365 Y4.980
G1 X20.388 Y4.622
G1 X20.633 Y4.361
G1 X20.911 Y4.460
G1 X21.167 Y4.716
G1 X21.328 Y5.022
G1 X21.523 Y5.315
G1 X21.624 Y5.655
G1 X21.880 Y5.911
G1 X22.138 Y6.166
G1 X22.476 Y6.269
G1 X22.732 Y6.526
G1 X23.035 Y6.692
G1 X23.328 Y6.883
G1 X23.677 Y6.935
G1 X23.967 Y6.786
G1 X23.975 Y6.425
G1 X23.778 Y6.134
G1 X23.733 Y5.781
G1 X23.731 Y5.419
G1 X23.729 Y5.058
G1 X23.728 Y4.696
G1 X23.726 Y4.334
G1 X23.725 Y3.973
G1 X23.780 Y3.625
G1 X23.962 Y3.330
G1 X24.131 Y3.030
G1 X24.408 Y2.927
G1 X24.664 Y3.184
G1 X24.919 Y3.440
G1 X25.154 Y3.712
G1 X25.276 Y4.038
G1 X25.413 Y4.356
G1 X25.632 Y4.636
G1 X25.887 Y4.893
G1 X26.207 Y5.025
G1 X26.483 Y5.251
G1 X26.752 Y5.489
G1 X27.078 Y5.608
G1 X27.392 Y5.750
G1 X27.677 Y5.960
G1 X28.012 Y6.067
G1 X28.315 Y6.233
G1 X28.671 Y6.261
G1 X28.956 Y6.472
G1 X29.316 Y6.478
G1 X29.676 Y6.480
G1 X29.991 Y6.615
G1 X30.317 Y6.724
G1 X30.676 Y6.726
G1 X31.036 Y6.727
G1 X31.396 Y6.729
G1 X31.699 Y6.893
G1 X32.036 Y6.973
G1 X32.396 Y6.974
G1 X32.688 Y7.166
G1 X33.037 Y7.218
G1 X33.351 Y7.354
G1 X33.606 Y7.611
G1 X33.862 Y7.868
G1 X34.117 Y8.125
G1 X34.300 Y8.422
G1 X34.472 Y8.724
G1 X34.543 Y9.067
G1 X34.544 Y9.429
G1 X34.546 Y9.791
G1 X34.661 Y10.116
G1 X34.788 Y10.436
G1 X34.790 Y10.798
G1 X34.791 Y11.159
G1 X34.793 Y11.521
G1 X34.801 Y11.883
G1 X35.013 Y12.169
G1 X35.124 Y12.502
G1 X35.279 Y12.811
G1 X35.477 Y13.102
G1 X35.521 Y13.456
G1 X35.666 Y13.768
G1 X35.780 Y14.099
G1 X35.995 Y14.384
G1 X36.121 Y14.708
G1 X36.246 Y15.028
G1 X36.308 Y15.375
G1 X36.489 Y15.673
G1 X36.509 Y16.033
G1 X36.723 Y16.319
G1 X36.850 Y16.641
G1 X36.974 Y16.963
G1 X37.037 Y17.309
G1 X37.217 Y17.607
G1 X37.219 Y17.969
G1 X37.310 Y18.304
G1 X37.462 Y18.614
G1 X37.500 Y18.969
G1 X37.703 Y19.258
G1 X37.707 Y19.620
G1 X37.770 Y19.966
G1 X37.950 Y20.264
G1 X37.952 Y20.626
G1 X38.044 Y20.960
G1 X38.196 Y21.270
G1 X38.399 Y21.558
G1 X38.704 Y21.717
G1 X39.057 Y21.687
G1 X39.340 Y21.483
G1 X39.697 Y21.482
G1 X40.055 Y21.485
G1 X40.413 Y21.487
G1 X40.771 Y21.489
G1 X41.128 Y21.491
G1 X41.486 Y21.494
G1 X41.843 Y21.490
G1 X42.124 Y21.280
G1 X42.452 Y21.172
G1 X42.704 Y20.918
G1 X42.942 Y20.653
G1 X43.051 Y20.323
G1 X43.303 Y20.068
G1 X43.437 Y19.752
G1 X43.651 Y19.473
G1 X43.902 Y19.218
G1 X44.154 Y18.963
G1 X44.406 Y18.708
G1 X44.657 Y18.453
G1 X44.854 Y18.165
G1 X45.006 Y17.857
G1 X45.258 Y17.602
G1 X45.545 Y17.409
G1 X45.846 Y17.248
G1 X46.098 Y16.992
G1 X46.350 Y16.737
G1 X46.602 Y16.481
G1 X46.854 Y16.226
G1 X47.115 Y15.983
G1 X47.442 Y15.871
G1 X47.694 Y15.615
G1 X47.930 Y15.347
G1 X47.838 Y15.026
G1 X47.484 Y14.998
G1 X47.127 Y14.998
G1 X46.769 Y14.997
G1 X46.412 Y14.996
G1 X46.054 Y14.995
G1 X45.696 Y14.994
G1 X45.338 Y14.993
G1 X44.981 Y14.992
G1 X44.623 Y14.990
G1 X44.322 Y14.823
G1 X43.985 Y14.747
G1 X43.627 Y14.745
G1 X43.338 Y14.550
G1 X42.990 Y14.502
G1 X42.678 Y14.362
G1 X42.353 Y14.243
G1 X42.086 Y14.005
G1 X41.811 Y13.779
G1 X41.494 Y13.647
G1 X41.240 Y13.389
G1 X40.915 Y13.271
G1 X40.648 Y13.032
G1 X40.393 Y12.774
G1 X40.139 Y12.517
G1 X39.884 Y12.260
G1 X39.630 Y12.003
G1 X39.529 Y11.662
G1 X39.275 Y11.405
G1 X39.020 Y11.148
G1 X38.857 Y10.842
G1 X38.666 Y10.549
G1 X38.616 Y10.197
G1 X38.619 Y9.835
G1 X38.884 Y9.655
G1 X39.237 Y9.690
G1 X39.523 Y9.897
G1 X39.833 Y10.043
G1 X40.160 Y10.160
G1 X40.443 Y10.376
G1 X40.801 Y10.386
G1 X41.086 Y10.188
G1 X41.129 Y9.909
G1 X40.998 Y9.589
G1 X40.786 Y9.302
G1 X40.676 Y8.969
G1 X40.522 Y8.660
G1 X40.323 Y8.369
G1 X40.282 Y8.014
G1 X40.448 Y7.736
G1 X40.806 Y7.732
G1 X41.089 Y7.941
G1 X41.350 Y8.190
G1 X41.681 Y8.299
G1 X41.985 Y8.459
G1 X42.275 Y8.655
G1 X42.624 Y8.702
G1 X42.935 Y8.843
G1 X43.263 Y8.945
G1 X43.621 Y8.946
G1 X43.980 Y8.947
G1 X44.338 Y8.948
G1 X44.695 Y8.933
G1 X44.672 Y8.672
G1 X44.418 Y8.415
G1 X44.164 Y8.158
G1 X43.911 Y7.900
G1 X43.810 Y7.560
G1 X43.556 Y7.303
G1 X43.302 Y7.046
G1 X43.048 Y6.789
G1 X42.906 Y6.474
G1 X42.699 Y6.186
G1 X42.595 Y5.849
G1 X42.428 Y5.545
G1 X42.428 Y5.183
G1 X42.324 Y4.853
G1 X42.190 Y4.538
G1 X42.402 Y4.256
G1 X42.678 Y4.244
G1 X43.001 Y4.366
G1 X43.270 Y4.602
G1 X43.524 Y4.859
G1 X43.803 Y5.076
G1 X44.117 Y5.216
G1 X44.442 Y5.323
G1 X44.801 Y5.324
G1 X45.159 Y5.325
G1 X45.494 Y5.246
G1 X45.480 Y4.906
G1 X45.297 Y4.609
G1 X45.296 Y4.247
G1 X45.296 Y3.884
G1 X45.295 Y3.521
G1 X45.294 Y3.159
G1 X45.294 Y2.796
G1 X45.293 Y2.434
G1 X45.309 Y2.073
G1 X45.612 Y1.950
G1 X45.885 Y2.177
G1 X46.140 Y2.434
G1 X46.262 Y2.759
G1 X46.493 Y3.032
G1 X46.747 Y3.289
G1 X47.001 Y3.546
G1 X47.330 Y3.657
G1 X47.613 Y3.871
G1 X47.931 Y4.003
G1 X48.250 Y4.112
G1 X48.522 Y3.883
G1 X48.644 Y3.562
G1 X48.644 Y3.199
G1 X48.643 Y2.836
G1 X48.643 Y2.474
G1 X48.643 Y2.111
G1 X48.642 Y1.748
G1 X48.642 Y1.386
G1 X48.642 Y1.023
G1 X48.787 Y0.711
G1 X49.067 Y0.499
G1 X49.425 Y0.501
G1 X49.702 Y0.721
G1 X49.843 Y1.036
G1 X50.049 Y1.323
G1 X50.079 Y1.682
G1 X50.239 Y1.987
G1 X50.345 Y2.323
G1 X50.591 Y2.585
G1 X50.845 Y2.842
G1 X51.099 Y3.099
G1 X51.353 Y3.355
G1 X51.606 Y3.612
G1 X51.860 Y3.868
G1 X52.114 Y4.125
G1 X52.385 Y4.355
G1 X52.705 Y4.481
G1 X53.021 Y4.613
G1 X53.304 Y4.826
G1 X53.634 Y4.936
G1 X53.939 Y5.090
G1 X54.291 Y5.125
G1 X54.577 Y5.330
G1 X54.886 Y5.477
G1 X55.214 Y5.573
G1 X55.573 Y5.573
G1 X55.870 Y5.747
G1 X56.211 Y5.814
G1 X56.569 Y5.814
G1 X56.921 Y5.849
G1 X57.207 Y6.053
G1 X57.565 Y6.055
G1 X57.924 Y6.054
G1 X58.232 Y6.200
G1 X58.561 Y6.295
G1 X58.920 Y6.294
G1 X59.276 Y6.312
G1 X59.558 Y6.526
G1 X59.916 Y6.534
G1 X60.275 Y6.534
G1 X60.594 Y6.651
G1 X60.912 Y6.774
G1 X61.271 Y6.773
G1 X61.579 Y6.919
G1 X61.908 Y7.013
G1 X62.240 Y6.922
G1 X62.547 Y6.769
G1 X62.834 Y6.567
G1 X63.186 Y6.527
G1 X63.494 Y6.378
G1 X63.823 Y6.265
G1 X64.106 Y6.049
G1 X64.425 Y5.920
G1 X64.744 Y5.790
G1 X65.027 Y5.575
G1 X65.383 Y5.554
G1 X65.680 Y5.376
G1 X66.023 Y5.311
G1 X66.343 Y5.189
G1 X66.662 Y5.059
G1 X66.945 Y4.844
G1 X67.302 Y4.824
G1 X67.598 Y4.644
G1 X67.942 Y4.580
G1 X68.261 Y4.457
G1 X68.582 Y4.336
G1 X68.924 Y4.270
G1 X69.222 Y4.093
G1 X69.581 Y4.092
G1 X69.912 Y3.997
G1 X70.221 Y3.848
G1 X70.574 Y3.807
G1 X70.862 Y3.606
G1 X71.221 Y3.603
G1 X71.581 Y3.602
G1 X71.888 Y3.449
G1 X72.221 Y3.358
G1 X72.581 Y3.357
G1 X72.938 Y3.335
G1 X73.222 Y3.120
G1 X73.581 Y3.111
G1 X73.941 Y3.110
G1 X74.301 Y3.109
G1 X74.660 Y3.107
G1 X75.020 Y3.104
G1 X75.308 Y2.900
G1 X75.661 Y2.862
G1 X76.021 Y2.861
G1 X76.381 Y2.859
G1 X76.740 Y2.867
G1 X77.022 Y3.080
G1 X77.380 Y3.097
G1 X77.740 Y3.095
G1 X78.100 Y3.094
G1 X78.460 Y3.092
G1 X78.791 Y3.186
G1 X79.100 Y3.331
G1 X79.460 Y3.330
G1 X79.820 Y3.330
G1 X80.106 Y3.533
G1 X80.460 Y3.567
G1 X80.819 Y3.574
G1 X81.102 Y3.787
G1 X81.460 Y3.803
G1 X81.755 Y3.984
G1 X82.100 Y4.042
G1 X82.418 Y4.165
G1 X82.739 Y4.290
G1 X83.022 Y4.503
G1 X83.349 Y4.616
G1 X83.660 Y4.761
G1 X83.945 Y4.964
G1 X84.281 Y5.066
G1 X84.580 Y5.236
G1 X84.874 Y5.418
G1 X85.211 Y5.518
G1 X85.466 Y5.770
G1 X85.760 Y5.954
G1 X86.059 Y6.123
G1 X86.313 Y6.377
G1 X86.651 Y6.476
G1 X86.906 Y6.729
G1 X87.160 Y6.984
G1 X87.460 Y7.151
G1 X87.753 Y7.336
G1 X88.007 Y7.590
G1 X88.261 Y7.844
G1 X88.515 Y8.098
G1 X88.769 Y8.353
G1 X89.023 Y8.607
G1 X89.277 Y8.861
G1 X89.531 Y9.115
G1 X89.785 Y9.370
G1 X90.039 Y9.624
G1 X90.293 Y9.878
G1 X90.547 Y10.132
G1 X90.801 Y10.386
G1 X91.055 Y10.640
G1 X91.275 Y10.917
G1 X91.407 Y11.234
G1 X91.661 Y11.488
G1 X91.774 Y11.816
G1 X92.012 Y12.081
G1 X92.267 Y12.335
G1 X92.474 Y12.618
G1 X92.618 Y12.928
G1 X92.731 Y13.256
G1 X92.970 Y13.521
G1 X93.188 Y13.799
G1 X93.322 Y14.114
G1 X93.442 Y14.438
G1 X93.656 Y14.720
G1 X93.772 Y15.046
G1 X93.912 Y15.359
G1 X94.118 Y15.644
G1 X94.221 Y15.978
G1 X94.386 Y16.279
G1 X94.410 Y16.636
G1 X94.619 Y16.920
G1 X94.626 Y17.280
G1 X94.833 Y17.565
G1 X94.860 Y17.920
G1 X95.020 Y18.223
G1 X95.098 Y18.560
G1 X95.097 Y18.921
G1 X95.285 Y19.212
G1 X95.335 Y19.561
G1 X95.333 Y19.921
G1 X95.332 Y20.281
G1 X95.464 Y20.596
G1 X95.570 Y20.921
G1 X95.568 Y21.281
G1 X95.567 Y21.641
G1 X95.565 Y22.002
G1 X95.563 Y22.362
G1 X95.562 Y22.722
G1 X95.560 Y23.082
G1 X95.559 Y23.442
G1 X95.557 Y23.802
G1 X95.555 Y24.162
G1 X95.554 Y24.522
G1 X95.552 Y24.882
G1 X95.389 Y25.185
G1 X95.308 Y25.523
G1 X95.307 Y25.883
G1 X95.278 Y26.238
G1 X95.067 Y26.524
G1 X95.061 Y26.883
G1 X95.010 Y27.233
G1 X94.818 Y27.524
G1 X94.803 Y27.883
G1 X94.586 Y28.166
G1 X94.465 Y28.491
G1 X94.329 Y28.806
G1 X94.277 Y29.154
G1 X94.086 Y29.446
G1 X93.920 Y29.749
G1 X93.663 Y30.004
G1 X93.560 Y30.341
G1 X93.358 Y30.629
G1 X93.204 Y30.936
G1 X92.947 Y31.191
G1 X92.841 Y31.525
G1 X92.589 Y31.785
G1 X92.386 Y32.071
G1 X92.231 Y32.379
G1 X91.974 Y32.634
G1 X91.868 Y32.967
G1 X91.616 Y33.227
G1 X91.359 Y33.482
G1 X91.171 Y33.774
G1 X91.001 Y34.075
G1 X90.744 Y34.330
G1 X90.642 Y34.666
G1 X90.386 Y34.922
G1 X90.199 Y35.215
G1 X90.029 Y35.515
G1 X89.771 Y35.770
G1 X89.669 Y36.106
G1 X89.471 Y36.395
G1 X89.313 Y36.700
G1 X89.203 Y37.031
G1 X88.955 Y37.292
G1 X88.744 Y37.574
G1 X88.597 Y37.884
G1 X88.481 Y38.211
G1 X88.265 Y38.493
G1 X88.138 Y38.814
G1 X88.011 Y39.130
G1 X87.951 Y39.475
G1 X87.767 Y39.768
G1 X87.593 Y40.066
G1 X87.524 Y40.406
G1 X87.521 Y40.764
G1 X87.322 Y41.051
G1 X87.279 Y41.401
G1 X87.271 Y41.759
G1 X87.057 Y42.041
G1 X87.035 Y42.396
G1 X87.034 Y42.754
G1 X87.033 Y43.111
G1 X87.032 Y43.469
G1 X87.031 Y43.827
G1 X87.031 Y44.184
G1 X87.030 Y44.542
G1 X87.029 Y44.899
G1 X87.029 Y45.257
G1 X87.046 Y45.613
G1 X87.260 Y45.893
G1 X87.269 Y46.250
G1 X87.304 Y46.602
G1 X87.508 Y46.886
G1 X87.656 Y47.194
G1 X87.752 Y47.522
G1 X87.841 Y47.853
G1 X87.995 Y48.158
G1 X88.195 Y48.444
G1 X88.296 Y48.779
G1 X88.553 Y49.032
G1 X88.719 Y49.332
G1 X88.909 Y49.622
G1 X89.009 Y49.958
G1 X89.265 Y50.211
G1 X89.444 Y50.506
G1 X89.622 Y50.801
G1 X89.878 Y51.054
G1 X90.135 Y51.308
G1 X90.392 Y51.561
G1 X90.648 Y51.814
G1 X90.905 Y52.068
G1 X91.162 Y52.321
G1 X91.418 Y52.575
G1 X91.675 Y52.828
G1 X92.014 Y52.931
G1 X92.273 Y53.181
G1 X92.530 Y53.434
G1 X92.787 Y53.688
G1 X93.091 Y53.853
G1 X93.385 Y54.041
G1 X93.644 Y54.292
G1 X93.983 Y54.394
G1 X94.240 Y54.647
G1 X94.497 Y54.901
G1 X94.808 Y55.052
G1 X95.097 Y55.252
G1 X95.437 Y55.353
G1 X95.692 Y55.609
G1 X95.443 Y55.769
G1 X95.080 Y55.768
G1 X94.717 Y55.768
G1 X94.355 Y55.767
G1 X94.036 Y55.639
G1 X93.709 Y55.527
G1 X93.347 Y55.526
G1 X93.039 Y55.370
G1 X92.701 Y55.286
G1 X92.371 Y55.185
G1 X92.056 Y55.043
G1 X91.768 Y54.838
G1 X91.431 Y54.734
G1 X91.128 Y54.567
G1 X90.833 Y54.381
G1 X90.492 Y54.281
G1 X90.234 Y54.028
G1 X89.977 Y53.775
G1 X89.674 Y53.609
G1 X89.379 Y53.422
G1 X89.122 Y53.169
G1 X88.861 Y52.921
G1 X88.524 Y52.817
G1 X88.267 Y52.563
G1 X88.010 Y52.310
G1 X87.754 Y52.057
G1 X87.497 Y51.804
G1 X87.240 Y51.550
G1 X86.984 Y51.297
G1 X86.727 Y51.044
G1 X86.470 Y50.791
G1 X86.214 Y50.539
G1 X85.957 Y50.286
G1 X85.700 Y50.033
G1 X85.568 Y49.717
G1 X85.344 Y49.444
G1 X85.106 Y49.179
G1 X84.988 Y48.855
G1 X84.731 Y48.603
G1 X84.600 Y48.287
G1 X84.387 Y48.006
G1 X84.276 Y47.678
G1 X84.123 Y47.374
G1 X83.923 Y47.088
G1 X83.821 Y46.754
G1 X83.642 Y46.461
G1 X83.624 Y46.106
G1 X83.409 Y45.826
G1 X83.400 Y45.469
G1 X83.199 Y45.185
G1 X83.161 Y44.835
G1 X83.162 Y44.478
G1 X83.100 Y44.137
G1 X82.922 Y43.843
G1 X82.922 Y43.486
G1 X82.924 Y43.129
G1 X82.925 Y42.772
G1 X82.926 Y42.415
G1 X82.927 Y42.058
G1 X82.928 Y41.701
G1 X82.930 Y41.344
G1 X82.931 Y40.986
G1 X82.932 Y40.629
G1 X82.934 Y40.272
G1 X82.935 Y39.914
G1 X83.028 Y39.584
G1 X83.180 Y39.277
G1 X83.181 Y38.920
G1 X83.185 Y38.562
G1 X83.387 Y38.275
G1 X83.427 Y37.924
G1 X83.578 Y37.617
G1 X83.672 Y37.287
G1 X83.674 Y36.929
G1 X83.853 Y36.633
G1 X83.956 Y36.297
G1 X84.159 Y36.010
G1 X84.171 Y35.653
G1 X84.386 Y35.370
G1 X84.500 Y35.041
G1 X84.650 Y34.733
G1 X84.691 Y34.382
G1 X84.893 Y34.094
G1 X85.047 Y33.787
G1 X85.160 Y33.458
G1 X85.375 Y33.174
G1 X85.506 Y32.856
G1 X85.635 Y32.536
G1 X85.865 Y32.262
G1 X86.100 Y31.992
G1 X86.223 Y31.669
G1 X86.361 Y31.354
G1 X86.581 Y31.075
G1 X86.824 Y30.810
G1 X86.939 Y30.482
G1 X87.088 Y30.172
G1 X87.298 Y29.888
G1 X87.546 Y29.626
G1 X87.656 Y29.294
G1 X87.816 Y28.989
G1 X88.013 Y28.699
G1 X88.115 Y28.361
G1 X88.303 Y28.067
G1 X88.320 Y27.709
G1 X88.536 Y27.425
G1 X88.550 Y27.067
G1 X88.747 Y26.777
G1 X88.793 Y26.426
G1 X88.795 Y26.066
G1 X88.797 Y25.706
G1 X88.799 Y25.347
G1 X88.801 Y24.987
G1 X88.803 Y24.627
G1 X88.805 Y24.267
G1 X88.807 Y23.907
G1 X88.809 Y23.547
G1 X88.669 Y23.237
G1 X88.571 Y22.908
G1 X88.573 Y22.548
G1 X88.405 Y22.249
G1 X88.336 Y21.909
G1 X88.224 Y21.586
G1 X88.093 Y21.270
G1 X87.883 Y20.987
G1 X87.776 Y20.656
G1 X87.621 Y20.351
G1 X87.424 Y20.064
G1 X87.175 Y19.807
G1 X87.073 Y19.472
G1 X86.819 Y19.218
G1 X86.565 Y18.965
G1 X86.312 Y18.712
G1 X86.058 Y18.458
G1 X85.804 Y18.204
G1 X85.550 Y17.951
G1 X85.297 Y17.697
G1 X85.004 Y17.513
G1 X84.704 Y17.347
G1 X84.450 Y17.093
G1 X84.196 Y16.841
G1 X83.858 Y16.742
G1 X83.565 Y16.559
G1 X83.266 Y16.391
G1 X82.931 Y16.290
G1 X82.645 Y16.086
G1 X82.335 Y15.943
G1 X82.008 Y15.830
G1 X81.725 Y15.617
G1 X81.366 Y15.608
G1 X81.078 Y15.413
G1 X80.726 Y15.372
G1 X80.366 Y15.374
G1 X80.020 Y15.319
G1 X79.727 Y15.137
G1 X79.367 Y15.139
G1 X79.007 Y15.141
G1 X78.647 Y15.143
G1 X78.287 Y15.145
G1 X77.928 Y15.164
G1 X77.644 Y15.380
G1 X77.285 Y15.392
G1 X76.925 Y15.394
G1 X76.602 Y15.510
G1 X76.284 Y15.638
G1 X75.938 Y15.699
G1 X75.643 Y15.883
G1 X75.285 Y15.902
G1 X75.001 Y16.118
G1 X74.679 Y16.245
G1 X74.361 Y16.378
G1 X74.085 Y16.603
G1 X73.816 Y16.842
G1 X73.490 Y16.961
G1 X73.234 Y17.218
G1 X72.979 Y17.475
G1 X72.723 Y17.732
G1 X72.468 Y17.989
G1 X72.212 Y18.246
G1 X71.957 Y18.503
G1 X71.785 Y18.805
G1 X71.600 Y19.101
G1 X71.346 Y19.359
G1 X71.244 Y19.699
G1 X70.989 Y19.956
G1 X70.819 Y20.258
G1 X70.632 Y20.553
G1 X70.530 Y20.893
G1 X70.335 Y21.185
G1 X70.321 Y21.545
G1 X70.105 Y21.830
G1 X69.987 Y22.159
G1 X69.843 Y22.473
G1 X69.636 Y22.761
G1 X69.603 Y23.117
G1 X69.443 Y23.423
G1 X69.359 Y23.761
G1 X69.255 Y24.090
G1 X69.115 Y24.404
G1 X69.066 Y24.756
G1 X68.872 Y25.048
G1 X68.857 Y25.408
G1 X68.641 Y25.693
G1 X68.522 Y26.020
G1 X68.383 Y26.335
G1 X68.333 Y26.686
G1 X68.139 Y26.978
G1 X68.124 Y27.338
G1 X67.908 Y27.623
G1 X67.788 Y27.950
G1 X67.649 Y28.265
G1 X67.599 Y28.615
G1 X67.405 Y28.908
G1 X67.242 Y29.213
G1 X67.133 Y29.547
G1 X66.923 Y29.834
G1 X66.911 Y30.194
G1 X66.696 Y30.476
G1 X66.452 Y30.742
G1 X66.338 Y31.072
G1 X66.186 Y31.382
G1 X65.983 Y31.671
G1 X65.879 Y32.009
G1 X65.700 Y32.307
G1 X65.521 Y32.605
G1 X65.417 Y32.943
G1 X65.164 Y33.202
G1 X64.972 Y33.495
G1 X64.806 Y33.798
G1 X64.550 Y34.055
G1 X64.446 Y34.393
G1 X64.192 Y34.652
G1 X64.002 Y34.945
G1 X63.834 Y35.248
G1 X63.578 Y35.505
G1 X63.474 Y35.842
G1 X63.220 Y36.101
G1 X62.965 Y36.358
G1 X62.709 Y36.615
G1 X62.454 Y36.873
G1 X62.305 Y37.184
G1 X62.095 Y37.468
G1 X61.839 Y37.726
G1 X61.584 Y37.983
G1 X61.329 Y38.240
G1 X61.073 Y38.497
G1 X60.818 Y38.755
G1 X60.488 Y38.866
G1 X60.228 Y39.117
G1 X59.973 Y39.375
G1 X59.718 Y39.632
G1 X59.423 Y39.812
G1 X59.130 Y39.995
G1 X58.876 Y40.253
G1 X58.707 Y40.555
G1 X58.723 Y40.908
G1 X58.921 Y41.184
G1 X59.046 Y41.493
G1 X59.157 Y41.809
G1 X59.378 Y42.068
G1 X59.594 Y42.331
G1 X59.710 Y42.641
G1 X59.954 Y42.884
G1 X60.065 Y43.197
G1 X60.289 Y43.454
G1 X60.535 Y43.695
G1 X60.742 Y43.961
G1 X60.872 Y44.263
G1 X61.120 Y44.504
G1 X61.369 Y44.745
G1 X61.618 Y44.986
G1 X61.868 Y45.227
G1 X62.119 Y45.469
G1 X62.370 Y45.710
G1 X62.622 Y45.952
G1 X62.875 Y46.195
G1 X63.198 Y46.308
G1 X63.467 Y46.530
G1 X63.721 Y46.773
G1 X63.999 Y46.980
G1 X64.316 Y47.110
G1 X64.641 Y47.225
G1 X64.911 Y47.449
G1 X65.185 Y47.667
G1 X65.507 Y47.789
G1 X65.828 Y47.913
G1 X66.113 Y48.119
G1 X66.473 Y48.138
G1 X66.772 Y48.308
G1 X67.111 Y48.407
G1 X67.401 Y48.602
G1 X67.763 Y48.603
G1 X68.109 Y48.665
G1 X68.408 Y48.837
G1 X68.771 Y48.837
G1 X69.105 Y48.927
G1 X69.416 Y49.072
G1 X69.779 Y49.072
G1 X70.141 Y49.072
G1 X70.504 Y49.072
G1 X70.867 Y49.072
G1 X71.229 Y49.073
G1 X71.592 Y49.073
G1 X71.955 Y49.073
G1 X72.317 Y49.071
G1 X72.607 Y48.874
G1 X72.963 Y48.837
G1 X73.325 Y48.837
G1 X73.671 Y48.774
G1 X73.971 Y48.601
G1 X74.333 Y48.601
G1 X74.667 Y48.509
G1 X74.978 Y48.364
G1 X75.334 Y48.326
G1 X75.624 Y48.129
G1 X75.986 Y48.119
G1 X76.271 Y47.908
G1 X76.632 Y47.890
G1 X76.930 Y47.713
G1 X77.277 Y47.652
G1 X77.599 Y47.531
G1 X77.922 Y47.415
G1 X78.268 Y47.479
G1 X78.322 Y47.822
G1 X78.192 Y48.135
G1 X78.080 Y48.455
G1 X78.080 Y48.811
G1 X78.080 Y49.167
G1 X78.080 Y49.522
G1 X77.922 Y49.823
G1 X77.839 Y50.155
G1 X77.839 Y50.510
G1 X77.840 Y50.866
G1 X77.840 Y51.222
G1 X77.841 Y51.577
G1 X77.842 Y51.933
G1 X77.843 Y52.289
G1 X77.844 Y52.644
G1 X77.870 Y52.997
G1 X78.082 Y53.278
G1 X78.089 Y53.634
G1 X78.090 Y53.990
G1 X78.095 Y54.346
G1 X78.303 Y54.629
G1 X78.336 Y54.981
G1 X78.496 Y55.283
G1 X78.580 Y55.616
G1 X78.684 Y55.941
G1 X78.828 Y56.251
G1 X79.037 Y56.535
G1 X79.144 Y56.866
G1 X79.312 Y57.166
G1 X79.502 Y57.456
G1 X79.758 Y57.712
G1 X79.861 Y58.047
G1 X80.118 Y58.301
G1 X80.376 Y58.554
G1 X80.529 Y58.861
G1 X80.734 Y59.145
G1 X80.991 Y59.399
G1 X81.249 Y59.654
G1 X81.506 Y59.908
G1 X81.831 Y60.031
G1 X82.105 Y60.262
G1 X82.362 Y60.517
G1 X82.619 Y60.771
G1 X82.905 Y60.978
G1 X83.218 Y61.125
G1 X83.548 Y61.240
G1 X83.816 Y61.480
G1 X84.097 Y61.698
G1 X84.414 Y61.835
G1 X84.740 Y61.956
G1 X85.026 Y62.171
G1 X85.354 Y62.290
G1 X85.669 Y62.431
G1 X85.957 Y62.639
G1 X86.315 Y62.669
G1 X86.620 Y62.830
G1 X86.960 Y62.911
G1 X87.289 Y63.017
G1 X87.605 Y63.153
G1 X87.956 Y63.203
G1 X88.250 Y63.395
G1 X88.612 Y63.397
G1 X88.952 Y63.475
G1 X89.257 Y63.639
G1 X89.619 Y63.641
G1 X89.981 Y63.642
G1 X90.275 Y63.832
G1 X90.626 Y63.884
G1 X90.988 Y63.886
G1 X91.350 Y63.887
G1 X91.712 Y63.893
G1 X91.999 Y64.101
G1 X92.357 Y64.130
G1 X92.720 Y64.132
G1 X93.082 Y64.133
G1 X93.444 Y64.135
G1 X93.806 Y64.136
G1 X94.168 Y64.137
G1 X94.530 Y64.139
G1 X94.893 Y64.140
G1 X95.255 Y64.141
G1 X95.617 Y64.142
G1 X95.979 Y64.144
G1 X96.341 Y64.145
G1 X96.704 Y64.146
G1 X97.066 Y64.147
G1 X97.428 Y64.148
G1 X97.791 Y64.150
G1 X98.153 Y64.151
G1 X98.413 Y64.341
G1 X98.412 Y64.699
G1 X98.191 Y64.975
G1 X97.936 Y65.228
G1 X97.681 Y65.482
G1 X97.426 Y65.735
G1 X97.217 Y66.016
G1 X97.072 Y66.326
G1 X96.817 Y66.579
G1 X96.562 Y66.833
G1 X96.307 Y67.086
G1 X96.053 Y67.341
G1 X95.954 Y67.677
G1 X95.699 Y67.930
G1 X95.533 Y68.230
G1 X95.346 Y68.521
G1 X95.093 Y68.776
G1 X94.993 Y69.113
G1 X94.814 Y69.407
G1 X94.640 Y69.704
G1 X94.385 Y69.957
G1 X94.286 Y70.294
G1 X94.096 Y70.584
G1 X93.934 Y70.886
G1 X93.830 Y71.219
G1 X93.621 Y71.502
G1 X93.484 Y71.816
G1 X93.366 Y72.140
G1 X93.152 Y72.421
G1 X93.140 Y72.780
G1 X92.951 Y73.070
G1 X92.852 Y73.408
G1 X92.663 Y73.698
G1 X92.651 Y74.057
G1 X92.437 Y74.339
G1 X92.426 Y74.697
G1 X92.236 Y74.988
G1 X92.188 Y75.337
G1 X92.186 Y75.697
G1 X91.978 Y75.980
G1 X91.952 Y76.336
G1 X91.941 Y76.695
G1 X91.727 Y76.977
G1 X91.716 Y77.336
G1 X91.718 Y77.696
G1 X91.720 Y78.057
G1 X91.722 Y78.417
G1 X91.723 Y78.777
G1 X91.532 Y79.067
G1 X91.486 Y79.417
G1 X91.492 Y79.777
G1 X91.703 Y80.063
G1 X91.731 Y80.420
G1 X91.733 Y80.781
G1 X91.735 Y81.141
G1 X91.737 Y81.502
G1 X91.818 Y81.840
G1 X91.981 Y82.144
G1 X91.982 Y82.505
G1 X92.093 Y82.831
G1 X92.226 Y83.148
G1 X92.280 Y83.497
G1 X92.470 Y83.791
G1 X92.637 Y84.093
G1 X92.744 Y84.429
G1 X92.952 Y84.716
G1 X93.096 Y85.030
G1 X93.214 Y85.357
G1 X93.430 Y85.642
G1 X93.554 Y85.967
G1 X93.810 Y86.223
G1 X93.937 Y86.546
G1 X94.167 Y86.819
G1 X94.401 Y87.092
G1 X94.525 Y87.416
G1 X94.781 Y87.672
G1 X95.038 Y87.929
G1 X95.294 Y88.185
G1 X95.551 Y88.441
G1 X95.807 Y88.698
G1 X96.064 Y88.954
G1 X96.320 Y89.210
G1 X96.577 Y89.467
G1 X96.833 Y89.723
G1 X97.090 Y89.980
G1 X97.346 Y90.236
G1 X97.679 Y90.347
G1 X97.943 Y90.593
G1 X98.200 Y90.849
G1 X98.489 Y91.050
G1 X98.797 Y91.206
G1 X99.130 Y91.317
G1 X99.394 Y91.563
G1 X99.678 Y91.775
G1 X99.991 Y91.920
G1 X100.320 Y92.037
G1 X100.605 Y92.253
G1 X100.929 Y92.377
G1 X101.247 Y92.512
G1 X101.533 Y92.724
G1 X101.892 Y92.749
G1 X102.193 Y92.921
G1 X102.450 Y93.177
G1 X102.628 Y93.476
G1 X102.417 Y93.714
G1 X102.111 Y93.870
G1 X101.775 Y93.954
G1 X101.413 Y93.952
G1 X101.055 Y93.975
G1 X100.771 Y94.185
G1 X100.410 Y94.189
G1 X100.048 Y94.188
G1 X99.687 Y94.187
G1 X99.326 Y94.185
G1 X98.964 Y94.184
G1 X98.603 Y94.182
G1 X98.286 Y94.310
G1 X97.961 Y94.421
G1 X97.600 Y94.419
G1 X97.239 Y94.418
G1 X96.878 Y94.417
G1 X96.517 Y94.415
G1 X96.155 Y94.414
G1 X95.794 Y94.412
G1 X95.433 Y94.411
G1 X95.072 Y94.409
G1 X94.711 Y94.408
G1 X94.350 Y94.407
G1 X93.989 Y94.405
G1 X93.628 Y94.404
G1 X93.267 Y94.402
G1 X92.906 Y94.401
G1 X92.545 Y94.399
G1 X92.184 Y94.398
G1 X91.823 Y94.396
G1 X91.462 Y94.395
G1 X91.101 Y94.393
G1 X90.740 Y94.392
G1 X90.379 Y94.390
G1 X90.018 Y94.389
G1 X89.657 Y94.387
G1 X89.297 Y94.386
G1 X88.936 Y94.384
G1 X88.575 Y94.383
G1 X88.214 Y94.381
G1 X87.854 Y94.369
G1 X87.570 Y94.153
G1 X87.211 Y94.136
G1 X86.850 Y94.135
G1 X86.490 Y94.133
G1 X86.129 Y94.131
G1 X85.768 Y94.130
G1 X85.411 Y94.104
G1 X85.126 Y93.892
G1 X84.765 Y93.885
G1 X84.405 Y93.883
G1 X84.044 Y93.882
G1 X83.684 Y93.880
G1 X83.367 Y93.749
G1 X83.042 Y93.636
G1 X82.682 Y93.635
G1 X82.321 Y93.633
G1 X81.961 Y93.632
G1 X81.655 Y93.472
G1 X81.319 Y93.388
G1 X80.959 Y93.386
G1 X80.602 Y93.360
G1 X80.317 Y93.147
G1 X79.957 Y93.141
G1 X79.597 Y93.139
G1 X79.280 Y93.007
G1 X78.955 Y92.895
G1 X78.595 Y92.894
G1 X78.236 Y92.881
G1 X77.952 Y92.665
G1 X77.593 Y92.648
G1 X77.237 Y92.621
G1 X76.952 Y92.409
G1 X76.592 Y92.403
G1 X76.242 Y92.354
G1 X75.951 Y92.160
G1 X75.591 Y92.157
G1 X75.252 Y92.081
G1 X74.950 Y91.913
G1 X74.590 Y91.912
G1 X74.263 Y91.807
G1 X73.950 Y91.668
G1 X73.600 Y91.619
G1 X73.309 Y91.425
G1 X72.950 Y91.411
G1 X72.667 Y91.194
G1 X72.309 Y91.179
G1 X72.017 Y90.988
G1 X71.668 Y90.935
G1 X71.353 Y90.800
G1 X71.028 Y90.691
G1 X70.690 Y90.613
G1 X70.388 Y90.447
G1 X70.032 Y90.418
G1 X69.748 Y90.207
G1 X69.433 Y90.068
G1 X69.108 Y89.959
G1 X68.770 Y89.880
G1 X68.468 Y89.715
G1 X68.177 Y89.523
G1 X67.828 Y89.471
G1 X67.514 Y89.335
G1 X67.190 Y89.214
G1 X66.907 Y88.998
G1 X66.583 Y88.877
G1 X66.269 Y88.741
G1 X65.921 Y88.689
G1 X65.630 Y88.498
G1 X65.328 Y88.332
G1 X64.995 Y88.225
G1 X64.711 Y88.015
G1 X64.398 Y87.873
G1 X64.073 Y87.754
G1 X63.791 Y87.537
G1 X63.468 Y87.415
G1 X63.214 Y87.158
G1 X62.894 Y87.030
G1 X62.611 Y86.815
G1 X62.284 Y86.700
G1 X61.975 Y86.551
G1 X61.692 Y86.342
G1 X61.432 Y86.094
G1 X61.101 Y85.985
G1 X60.847 Y85.728
G1 X60.538 Y85.580
G1 X60.252 Y85.374
G1 X59.918 Y85.270
G1 X59.665 Y85.013
G1 X59.361 Y84.854
G1 X59.074 Y84.656
G1 X58.820 Y84.399
G1 X58.559 Y84.151
G1 X58.229 Y84.042
G1 X57.976 Y83.785
G1 X57.723 Y83.528
G1 X57.407 Y83.394
G1 X57.132 Y83.171
G1 X56.879 Y82.914
G1 X56.609 Y82.683
G1 X56.289 Y82.557
G1 X56.036 Y82.300
G1 X55.783 Y82.043
G1 X55.530 Y81.787
G1 X55.277 Y81.530
G1 X55.024 Y81.273
G1 X54.771 Y81.017
G1 X54.519 Y80.760
G1 X54.266 Y80.503
G1 X54.013 Y80.247
G1 X53.761 Y79.990
G1 X53.508 Y79.734
G1 X53.256 Y79.477
G1 X53.004 Y79.221
G1 X52.751 Y78.964
G1 X52.499 Y78.708
G1 X52.247 Y78.451
G1 X52.012 Y78.182
G1 X51.897 Y77.854
G1 X51.645 Y77.597
G1 X51.393 Y77.341
G1 X51.274 Y77.015
G1 X51.044 Y76.744
G1 X50.819 Y76.469
G1 X50.695 Y76.146
G1 X50.444 Y75.890
G1 X50.325 Y75.564
G1 X50.114 Y75.280
G1 X49.998 Y74.952
G1 X49.747 Y74.696
G1 X49.620 Y74.375
G1 X49.411 Y74.090
G1 X49.392 Y73.730
G1 X49.219 Y73.432
G1 X49.120 Y73.093
G1 X48.922 Y72.804
G1 X48.914 Y72.443
G1 X48.705 Y72.158
G1 X48.687 Y71.798
G1 X48.669 Y71.438
G1 X48.460 Y71.154
G1 X48.454 Y70.792
G1 X48.418 Y70.437
G1 X48.222 Y70.148
G1 X48.222 Y69.786
G1 X48.161 Y69.441
G1 X47.989 Y69.143
G1 X47.991 Y68.781
G1 X47.901 Y68.448
G1 X47.758 Y68.138
G1 X47.722 Y67.783
G1 X47.527 Y67.495
G1 X47.520 Y67.134
G1 X47.313 Y66.851
G1 X47.297 Y66.491
G1 X47.124 Y66.195
G1 X47.066 Y65.850
G1 X46.949 Y65.530
G1 X46.827 Y65.209
G1 X46.620 Y64.927
G1 X46.513 Y64.598
G1 X46.373 Y64.289
G1 X46.338 Y63.936
G1 X46.146 Y63.649
G1 X45.999 Y63.343
G1 X45.895 Y63.014
G1 X45.659 Y62.754
G1 X45.455 Y62.475
G1 X45.319 Y62.165
G1 X45.209 Y61.840
G1 X45.003 Y61.561
G1 X44.888 Y61.240
G1 X44.641 Y60.990
G1 X44.524 Y60.671
G1 X44.303 Y60.404
G1 X44.079 Y60.139
G1 X43.964 Y59.820
G1 X43.717 Y59.571
G1 X43.470 Y59.323
G1 X43.223 Y59.075
G1 X43.122 Y58.748
G1 X42.883 Y58.494
G1 X42.636 Y58.246
G1 X42.388 Y57.999
G1 X42.139 Y57.752
G1 X41.891 Y57.506
G1 X41.642 Y57.259
G1 X41.393 Y57.013
G1 X41.143 Y56.766
G1 X40.893 Y56.520
G1 X40.643 Y56.274
G1 X40.359 Y56.083
G1 X40.056 Y55.935
G1 X39.805 Y55.689
G1 X39.554 Y55.443
G1 X39.217 Y55.348
G1 X38.964 Y55.103
G1 X38.671 Y54.927
G1 X38.373 Y54.764
G1 X38.120 Y54.517
G1 X37.782 Y54.422
G1 X37.493 Y54.234
G1 X37.189 Y54.082
G1 X36.935 Y53.835
G1 X36.599 Y53.737
G1 X36.312 Y53.539
G1 X35.951 Y53.533
G1 X35.667 Y53.328
G1 X35.335 Y53.222
G1 X35.028 Y53.074
G1 X34.671 Y53.111
G1 X34.577 Y53.435
G1 X34.575 Y53.789
G1 X34.572 Y54.143
G1 X34.570 Y54.497
G1 X34.567 Y54.851
G1 X34.564 Y55.206
G1 X34.562 Y55.560
G1 X34.559 Y55.915
G1 X34.556 Y56.270
G1 X34.552 Y56.625
G1 X34.549 Y56.980
G1 X34.546 Y57.336
G1 X34.362 Y57.629
G1 X34.299 Y57.970
G1 X34.296 Y58.326
G1 X34.251 Y58.675
G1 X34.050 Y58.962
G1 X34.045 Y59.318
G1 X33.974 Y59.658
G1 X33.799 Y59.955
G1 X33.773 Y60.309
G1 X33.559 Y60.592
G1 X33.546 Y60.949
G1 X33.340 Y61.235
G1 X33.234 Y61.569
G1 X33.059 Y61.867
G1 X33.238 Y62.158
G1 X33.336 Y62.492
G1 X33.529 Y62.777
G1 X33.682 Y63.080
G1 X33.764 Y63.412
G1 X33.859 Y63.738
G1 X33.998 Y64.046
G1 X34.037 Y64.396
G1 X34.230 Y64.681
G1 X34.383 Y64.984
G1 X34.464 Y65.317
G1 X34.461 Y65.676
G1 X34.641 Y65.967
G1 X34.694 Y66.312
G1 X34.818 Y66.627
G1 X34.927 Y66.948
G1 X34.924 Y67.307
G1 X35.076 Y67.611
G1 X35.359 Y67.810
G1 X35.718 Y67.808
G1 X36.061 Y67.740
G1 X36.359 Y67.562
G1 X36.655 Y67.381
G1 X36.992 Y67.277
G1 X37.280 Y67.075
G1 X37.588 Y66.920
G1 X37.844 Y66.663
G1 X38.178 Y66.555
G1 X38.438 Y66.304
G1 X38.694 Y66.047
G1 X38.950 Y65.790
G1 X39.053 Y65.451
G1 X39.308 Y65.194
G1 X39.563 Y64.937
G1 X39.730 Y64.633
G1 X39.921 Y64.340
G1 X40.221 Y64.166
G1 X40.448 Y64.381
G1 X40.444 Y64.740
G1 X40.440 Y65.100
G1 X40.436 Y65.459
G1 X40.356 Y65.798
G1 X40.190 Y66.102
G1 X40.187 Y66.462
G1 X40.079 Y66.789
G1 X39.942 Y67.105
G1 X39.938 Y67.465
G1 X39.802 Y67.781
G1 X39.693 Y68.108
G1 X39.613 Y68.447
G1 X39.449 Y68.751
G1 X39.418 Y69.108
G1 X39.208 Y69.395
G1 X39.197 Y69.755
G1 X38.987 Y70.042
G1 X38.957 Y70.399
G1 X38.792 Y70.703
G1 X38.685 Y71.038
G1 X38.476 Y71.326
G1 X38.335 Y71.641
G1 X38.214 Y71.968
G1 X37.999 Y72.253
G1 X37.877 Y72.579
G1 X37.738 Y72.896
G1 X37.521 Y73.177
G1 X37.279 Y73.444
G1 X37.165 Y73.775
G1 X36.909 Y74.032
G1 X36.654 Y74.289
G1 X36.526 Y74.612
G1 X36.298 Y74.887
G1 X36.042 Y75.144
G1 X35.787 Y75.401
G1 X35.575 Y75.684
G1 X35.564 Y76.045
G1 X35.352 Y76.332
G1 X35.325 Y76.689
G1 X35.323 Y77.051
G1 X35.238 Y77.388
G1 X35.080 Y77.695
G1 X35.077 Y78.056
G1 X34.964 Y78.382
G1 X34.834 Y78.700
G1 X34.887 Y79.048
G1 X35.139 Y79.302
G1 X35.487 Y79.350
G1 X35.801 Y79.214
G1 X36.126 Y79.105
G1 X36.485 Y79.103
G1 X36.788 Y78.938
G1 X37.124 Y78.858
G1 X37.483 Y78.855
G1 X37.774 Y78.663
G1 X38.111 Y78.561
G1 X38.402 Y78.368
G1 X38.760 Y78.353
G1 X39.028 Y78.115
G1 X39.302 Y77.888
G1 X39.620 Y77.757
G1 X39.939 Y77.627
G1 X40.212 Y77.398
G1 X40.467 Y77.141
G1 X40.721 Y76.883
G1 X41.002 Y76.668
G1 X41.285 Y76.819
G1 X41.291 Y77.180
G1 X41.093 Y77.471
G1 X40.991 Y77.811
G1 X40.810 Y78.109
G1 X40.636 Y78.409
G1 X40.533 Y78.747
G1 X40.282 Y79.008
G1 X40.088 Y79.300
G1 X39.927 Y79.606
G1 X39.672 Y79.863
G1 X39.418 Y80.121
G1 X39.317 Y80.461
G1 X39.063 Y80.719
G1 X38.808 Y80.976
G1 X38.644 Y81.281
G1 X38.453 Y81.574
G1 X38.199 Y81.832
G1 X37.944 Y82.089
G1 X37.689 Y82.346
G1 X37.434 Y82.603
G1 X37.179 Y82.860
G1 X36.924 Y83.117
G1 X36.669 Y83.374
G1 X36.414 Y83.632
G1 X36.159 Y83.889
G1 X35.904 Y84.146
G1 X35.640 Y84.392
G1 X35.310 Y84.504
G1 X35.055 Y84.761
G1 X34.800 Y85.018
G1 X34.545 Y85.275
G1 X34.221 Y85.397
G1 X33.951 Y85.633
G1 X33.677 Y85.861
G1 X33.357 Y85.991
G1 X33.102 Y86.248
G1 X32.777 Y86.369
G1 X32.493 Y86.586
G1 X32.169 Y86.707
G1 X31.854 Y86.847
G1 X31.569 Y87.058
G1 X31.236 Y87.166
G1 X30.932 Y87.330
G1 X30.577 Y87.360
G1 X30.490 Y87.684
G1 X30.728 Y87.949
G1 X30.981 Y88.204
G1 X31.311 Y88.313
G1 X31.593 Y88.525
G1 X31.910 Y88.654
G1 X32.163 Y88.909
G1 X32.488 Y89.025
G1 X32.754 Y89.262
G1 X33.007 Y89.516
G1 X33.288 Y89.727
G1 X33.598 Y89.869
G1 X33.851 Y90.124
G1 X34.105 Y90.379
G1 X34.294 Y90.670
G1 X34.455 Y90.974
G1 X34.708 Y91.229
G1 X34.961 Y91.484
G1 X35.212 Y91.742
G1 X35.312 Y92.080
G1 X35.565 Y92.335
G1 X35.725 Y92.639
G1 X35.915 Y92.931
G1 X36.013 Y93.271
G1 X36.201 Y93.564
G1 X36.364 Y93.867
G1 X36.467 Y94.203
G1 X36.673 Y94.489
G1 X36.812 Y94.804
G1 X36.914 Y95.133
G1 X36.994 Y95.471
G1 X37.152 Y95.777
G1 X37.181 Y96.134
G1 X37.386 Y96.421
G1 X37.394 Y96.782
G1 X37.602 Y97.068
G1 X37.626 Y97.427
G1 X37.625 Y97.789
G1 X37.624 Y98.151
G1 X37.458 Y98.455
G1 X37.181 Y98.568
G1 X36.927 Y98.312
G1 X36.674 Y98.057
G1 X36.420 Y97.801
G1 X36.195 Y97.527
G1 X36.069 Y97.205
G1 X35.815 Y96.950
G1 X35.698 Y96.623
G1 X35.464 Y96.354
G1 X35.211 Y96.098
G1 X34.958 Y95.843
G1 X34.704 Y95.588
G1 X34.451 Y95.332
G1 X34.197 Y95.077
G1 X33.940 Y94.827
G1 X33.606 Y94.724
G1 X33.352 Y94.469
G1 X33.099 Y94.214
G1 X32.787 Y94.073
G1 X32.503 Y93.866
G1 X32.169 Y93.762
G1 X31.869 Y93.598
G1 X31.578 Y93.409
G1 X31.240 Y93.310
G1 X30.950 Y93.119
G1 X30.592 Y93.108
G1 X30.310 Y92.894
G1 X29.952 Y92.881
G1 X29.661 Y92.692
G1 X29.312 Y92.643
G1 X28.953 Y92.640
G1 X28.669 Y92.433
G1 X28.313 Y92.406
G1 X27.953 Y92.408
G1 X27.593 Y92.409
G1 X27.291 Y92.248
G1 X26.958 Y92.198
G1 X26.697 Y92.449
G1 X26.635 Y92.782
G1 X26.845 Y93.067
G1 X26.852 Y93.428
G1 X27.056 Y93.714
G1 X27.086 Y94.071
G1 X27.242 Y94.377
G1 X27.324 Y94.713
G1 X27.322 Y95.075
G1 X27.506 Y95.369
G1 X27.560 Y95.718
G1 X27.561 Y96.080
G1 X27.766 Y96.366
G1 X27.796 Y96.723
G1 X27.794 Y97.085
G1 X27.866 Y97.426
G1 X28.032 Y97.728
G1 X28.031 Y98.090
G1 X28.029 Y98.452
G1 X28.003 Y98.811
G1 X27.756 Y99.074
G1 X27.425 Y99.144
G1 X27.374 Y99.112
G0 Z5.000
G0 X25.565 Y95.599
G1 Z-1.000 F400.0
G1 X25.307 Y95.345
G1 X25.049 Y95.090
G1 X24.790 Y94.836
G1 X24.531 Y94.583
G1 X24.224 Y94.435
G1 X23.947 Y94.212
G1 X23.680 Y93.970
G1 X23.373 Y93.832
G1 X23.086 Y93.662
G1 X22.822 Y93.437
G1 X22.562 Y93.287
G1 X22.362 Y93.080
G1 X22.201 Y93.050
G1 X22.106 Y92.912
G1 X21.922 Y92.910
G1 X21.656 Y92.898
G1 X21.398 Y92.789
G1 X21.039 Y92.792
G1 X20.746 Y92.659
G1 X20.405 Y92.579
G1 X20.110 Y92.417
G1 X19.800 Y92.278
G1 X19.465 Y92.178
G1 X19.174 Y91.987
G1 X18.854 Y91.860
G1 X18.592 Y91.625
G1 X18.330 Y91.386
G1 X18.068 Y91.146
G1 X17.806 Y90.903
G1 X17.729 Y90.644
G1 X17.987 Y90.445
G1 X18.279 Y90.646
G1 X18.633 Y90.666
G1 X18.985 Y90.683
G1 X19.336 Y90.703
G1 X19.683 Y90.725
G1 X20.025 Y90.753
G1 X20.309 Y90.967
G1 X20.642 Y91.022
G1 X20.967 Y91.055
G1 X21.281 Y91.090
G1 X21.581 Y91.123
G1 X21.868 Y91.149
G1 X22.144 Y91.177
G1 X22.343 Y91.415
G1 X22.528 Y91.627
G1 X22.746 Y91.718
G1 X22.906 Y91.911
G1 X23.164 Y91.958
G1 X23.396 Y92.091
G1 X23.697 Y92.154
G1 X23.999 Y92.241
G1 X24.269 Y92.405
G1 X24.521 Y92.610
G1 X24.779 Y92.823
G1 X24.905 Y93.099
G1 X25.128 Y93.349
G1 X25.156 Y93.663
G1 X25.356 Y93.931
G1 X25.470 Y94.240
G1 X25.672 Y94.515
G1 X25.702 Y94.847
G1 X25.925 Y95.121
G1 X25.955 Y95.459
G1 X25.745 Y95.658
G1 X25.565 Y95.599
G0 Z5.000
G0 X34.729 Y95.145
G1 Z-1.000 F400.0
G1 X34.471 Y94.891
G1 X34.213 Y94.637
G1 X33.954 Y94.383
G1 X33.695 Y94.130
G1 X33.436 Y93.877
G1 X33.116 Y93.746
G1 X32.841 Y93.518
G1 X32.567 Y93.287
G1 X32.247 Y93.157
G1 X31.987 Y92.905
G1 X31.668 Y92.782
G1 X31.335 Y92.698
G1 X31.038 Y92.521
G1 X30.746 Y92.331
G1 X30.415 Y92.254
G1 X30.111 Y92.110
G1 X29.807 Y91.977
G1 X29.488 Y91.944
G1 X29.213 Y91.766
G1 X28.933 Y91.653
G1 X28.658 Y91.626
G1 X28.439 Y91.430
G1 X28.199 Y91.381
G1 X27.939 Y91.409
G1 X27.658 Y91.451
G1 X27.408 Y91.375
G1 X27.134 Y91.317
G1 X26.800 Y91.356
G1 X26.456 Y91.387
G1 X26.107 Y91.413
G1 X25.817 Y91.294
G1 X25.493 Y91.216
G1 X25.217 Y91.041
G1 X24.857 Y91.043
G1 X24.579 Y90.861
G1 X24.318 Y90.646
G1 X23.985 Y90.549
G1 X23.730 Y90.319
G1 X23.415 Y90.190
G1 X23.131 Y89.994
G1 X22.873 Y89.758
G1 X22.614 Y89.519
G1 X22.355 Y89.279
G1 X22.096 Y89.038
G1 X21.982 Y88.725
G1 X21.765 Y88.454
G1 X21.627 Y88.151
G1 X21.517 Y87.844
G1 X21.724 Y87.579
G1 X21.732 Y87.239
G1 X21.907 Y86.962
G1 X22.151 Y86.725
G1 X22.240 Y86.403
G1 X22.484 Y86.166
G1 X22.727 Y85.928
G1 X22.974 Y85.698
G1 X23.296 Y85.606
G1 X23.587 Y85.460
G1 X23.931 Y85.444
G1 X24.199 Y85.252
G1 X24.545 Y85.261
G1 X24.881 Y85.325
G1 X25.167 Y85.520
G1 X25.508 Y85.547
G1 X25.769 Y85.790
G1 X26.018 Y86.051
G1 X26.137 Y86.379
G1 X26.347 Y86.667
G1 X26.479 Y86.987
G1 X26.725 Y87.249
G1 X26.969 Y87.512
G1 X27.210 Y87.776
G1 X27.447 Y88.041
G1 X27.707 Y88.240
G1 X27.962 Y88.423
G1 X28.174 Y88.687
G1 X28.433 Y88.792
G1 X28.617 Y89.038
G1 X28.821 Y89.196
G1 X29.031 Y89.320
G1 X29.296 Y89.365
G1 X29.525 Y89.501
G1 X29.800 Y89.586
G1 X30.027 Y89.771
G1 X30.351 Y89.839
G1 X30.604 Y90.033
G1 X30.886 Y90.201
G1 X31.198 Y90.325
G1 X31.456 Y90.545
G1 X31.792 Y90.643
G1 X32.058 Y90.865
G1 X32.319 Y91.098
G1 X32.580 Y91.334
G1 X32.841 Y91.573
G1 X33.102 Y91.814
G1 X33.354 Y92.063
G1 X33.471 Y92.375
G1 X33.732 Y92.622
G1 X33.992 Y92.869
G1 X34.133 Y93.173
G1 X34.351 Y93.449
G1 X34.468 Y93.769
G1 X34.631 Y94.066
G1 X34.835 Y94.348
G1 X35.089 Y94.604
G1 X35.130 Y94.948
G1 X34.956 Y95.198
G1 X34.729 Y95.145
G0 Z5.000
G0 X31.380 Y85.916
G1 Z-1.000 F400.0
G1 X31.531 Y85.646
G1 X31.781 Y85.385
G1 X31.904 Y85.068
G1 X32.164 Y84.816
G1 X32.425 Y84.565
G1 X32.577 Y84.270
G1 X32.810 Y84.009
G1 X33.062 Y83.761
G1 X33.205 Y83.487
G1 X33.372 Y83.241
G1 X33.591 Y83.034
G1 X33.689 Y82.822
G1 X33.819 Y82.646
G1 X33.929 Y82.467
G1 X33.946 Y82.203
G1 X34.052 Y81.963
G1 X34.142 Y81.680
G1 X34.206 Y81.356
G1 X34.451 Y81.252
G1 X34.716 Y81.168
G1 X34.966 Y80.997
G1 X35.265 Y80.977
G1 X35.572 Y80.952
G1 X35.889 Y80.924
G1 X36.190 Y80.796
G1 X36.490 Y80.648
G1 X36.826 Y80.623
G1 X37.131 Y80.474
G1 X37.448 Y80.345
G1 X37.731 Y80.127
G1 X38.028 Y80.212
G1 X37.946 Y80.526
G1 X37.685 Y80.776
G1 X37.532 Y81.073
G1 X37.308 Y81.341
G1 X37.045 Y81.586
G1 X36.781 Y81.827
G1 X36.515 Y82.064
G1 X36.248 Y82.295
G1 X35.980 Y82.518
G1 X35.712 Y82.726
G1 X35.447 Y82.913
G1 X35.195 Y83.069
G1 X34.980 Y83.189
G1 X34.826 Y83.299
G1 X34.716 Y83.456
G1 X34.595 Y83.674
G1 X34.438 Y83.926
G1 X34.228 Y84.132
G1 X33.986 Y84.314
G1 X33.760 Y84.583
G1 X33.526 Y84.849
G1 X33.224 Y84.972
G1 X32.949 Y85.177
G1 X32.662 Y85.353
G1 X32.410 Y85.613
G1 X32.090 Y85.731
G1 X31.808 Y85.940
G1 X31.467 Y85.954
G1 X31.380 Y85.916
G0 Z5.000
G0 X35.747 Y73.690
G1 Z-1.000 F400.0
G1 X35.535 Y73.448
G1 X35.508 Y73.109
G1 X35.533 Y72.758
G1 X35.563 Y72.412
G1 X35.599 Y72.074
G1 X35.644 Y71.749
G1 X35.695 Y71.443
G1 X35.749 Y71.165
G1 X35.786 Y70.920
G1 X35.589 Y70.741
G1 X35.545 Y70.497
G1 X35.510 Y70.233
G1 X35.466 Y69.946
G1 X35.569 Y69.706
G1 X35.788 Y69.563
G1 X36.074 Y69.595
G1 X36.271 Y69.409
G1 X36.512 Y69.307
G1 X36.748 Y69.158
G1 X36.978 Y68.940
G1 X37.204 Y68.683
G1 X37.491 Y68.557
G1 X37.728 Y68.292
G1 X38.013 Y68.135
G1 X38.327 Y68.155
G1 X38.351 Y68.470
G1 X38.140 Y68.756
G1 X38.101 Y69.093
G1 X37.885 Y69.374
G1 X37.821 Y69.694
G1 X37.635 Y69.971
G1 X37.492 Y70.251
G1 X37.257 Y70.482
G1 X37.085 Y70.680
G1 X36.988 Y70.836
G1 X36.978 Y71.007
G1 X36.928 Y71.192
G1 X36.854 Y71.417
G1 X36.823 Y71.735
G1 X36.704 Y72.018
G1 X36.584 Y72.319
G1 X36.501 Y72.656
G1 X36.294 Y72.921
G1 X36.119 Y73.214
G1 X35.979 Y73.526
G1 X35.747 Y73.690
G0 Z5.000
G0 X25.343 Y70.675
G1 Z-1.000 F400.0
G1 X25.056 Y70.479
G1 X24.764 Y70.301
G1 X24.450 Y70.176
G1 X24.177 Y69.957
G1 X23.865 Y69.916
G1 X23.609 Y69.689
G1 X23.327 Y69.634
G1 X23.057 Y69.616
G1 X22.812 Y69.533
G1 X22.600 Y69.392
G1 X22.328 Y69.428
G1 X22.034 Y69.471
G1 X21.721 Y69.513
G1 X21.415 Y69.647
G1 X21.160 Y69.657
G1 X20.985 Y69.426
G1 X21.010 Y69.117
G1 X21.033 Y68.818
G1 X21.048 Y68.527
G1 X21.052 Y68.240
G1 X21.045 Y67.952
G1 X21.028 Y67.659
G1 X20.998 Y67.357
G1 X20.773 Y67.097
G1 X20.724 Y66.778
G1 X20.541 Y66.494
G1 X20.419 Y66.178
G1 X20.266 Y65.907
G1 X20.493 Y65.685
G1 X20.820 Y65.667
G1 X21.151 Y65.691
G1 X21.477 Y65.714
G1 X21.761 Y65.873
G1 X22.054 Y65.988
G1 X22.341 Y66.092
G1 X22.601 Y66.257
G1 X22.836 Y66.462
G1 X23.101 Y66.562
G1 X23.288 Y66.806
G1 X23.510 Y66.945
G1 X23.726 Y67.091
G1 X23.909 Y67.288
G1 X24.105 Y67.471
G1 X24.318 Y67.651
G1 X24.549 Y67.834
G1 X24.792 Y68.025
G1 X24.903 Y68.286
G1 X25.122 Y68.519
G1 X25.255 Y68.790
G1 X25.394 Y69.066
G1 X25.414 Y69.378
G1 X25.436 Y69.697
G1 X25.459 Y70.022
G1 X25.483 Y70.353
G1 X25.451 Y70.673
G1 X25.343 Y70.675
G0 Z5.000
G0 X24.624 Y66.558
G1 Z-1.000 F400.0
G1 X24.335 Y66.365
G1 X24.038 Y66.191
G1 X23.783 Y65.934
G1 X23.528 Y65.676
G1 X23.270 Y65.421
G1 X22.949 Y65.304
G1 X22.661 Y65.121
G1 X22.379 Y64.927
G1 X22.067 Y64.807
G1 X21.798 Y64.597
G1 X21.488 Y64.562
G1 X21.238 Y64.334
G1 X20.947 Y64.301
G1 X20.661 Y64.294
G1 X20.375 Y64.299
G1 X20.085 Y64.338
G1 X19.839 Y64.520
G1 X19.640 Y64.291
G1 X19.442 Y64.072
G1 X19.245 Y63.859
G1 X19.184 Y63.572
G1 X18.969 Y63.378
G1 X18.741 Y63.184
G1 X18.618 Y62.933
G1 X18.415 Y62.708
G1 X18.161 Y62.499
G1 X17.922 Y62.272
G1 X17.799 Y61.991
G1 X17.537 Y61.763
G1 X17.397 Y61.477
G1 X17.164 Y61.223
G1 X16.902 Y60.983
G1 X16.640 Y60.740
G1 X16.416 Y60.474
G1 X16.267 Y60.176
G1 X16.150 Y59.866
G1 X16.136 Y59.527
G1 X16.283 Y59.246
G1 X16.521 Y59.013
G1 X16.757 Y58.780
G1 X17.039 Y58.631
G1 X17.312 Y58.464
G1 X17.640 Y58.426
G1 X17.980 Y58.442
G1 X18.318 Y58.457
G1 X18.618 Y58.598
G1 X18.921 Y58.721
G1 X19.234 Y58.806
G1 X19.512 Y58.984
G1 X19.779 Y59.180
G1 X20.080 Y59.289
G1 X20.336 Y59.489
G1 X20.599 Y59.652
G1 X20.814 Y59.907
G1 X21.096 Y60.003
G1 X21.303 Y60.244
G1 X21.503 Y60.480
G1 X21.561 Y60.799
G1 X21.753 Y61.015
G1 X21.884 Y61.262
G1 X22.004 Y61.504
G1 X22.068 Y61.771
G1 X22.291 Y61.959
G1 X22.474 Y62.179
G1 X22.626 Y62.421
G1 X22.738 Y62.691
G1 X22.957 Y62.932
G1 X23.103 Y63.206
G1 X23.241 Y63.491
G1 X23.466 Y63.752
G1 X23.597 Y64.053
G1 X23.754 Y64.345
G1 X23.969 Y64.620
G1 X24.087 Y64.937
G1 X24.265 Y65.228
G1 X24.459 Y65.515
G1 X24.571 Y65.841
G1 X24.771 Y66.128
G1 X24.776 Y66.473
G1 X24.624 Y66.558
G0 Z5.000
G0 X31.985 Y59.889
G1 Z-1.000 F400.0
G1 X31.779 Y59.636
G1 X31.709 Y59.299
G1 X31.575 Y59.020
G1 X31.479 Y58.738
G1 X31.462 Y58.434
G1 X31.439 Y58.170
G1 X31.380 Y57.963
G1 X31.222 Y57.804
G1 X31.207 Y57.585
G1 X31.031 Y57.379
G1 X30.920 Y57.128
G1 X30.783 Y56.857
G1 X30.755 Y56.625
G1 X30.978 Y56.470
G1 X31.279 Y56.508
G1 X31.481 Y56.341
G1 X31.727 Y56.261
G1 X31.950 Y56.107
G1 X32.175 Y55.911
G1 X32.387 Y55.647
G1 X32.614 Y55.390
G1 X32.892 Y55.426
G1 X32.903 Y55.767
G1 X32.871 Y56.113
G1 X32.831 Y56.449
G1 X32.782 Y56.771
G1 X32.723 Y57.068
G1 X32.664 Y57.329
G1 X32.627 Y57.549
G1 X32.488 Y57.713
G1 X32.451 Y57.888
G1 X32.527 Y58.151
G1 X32.577 Y58.454
G1 X32.451 Y58.690
G1 X32.477 Y59.038
G1 X32.473 Y59.385
G1 X32.321 Y59.662
G1 X32.189 Y59.937
G1 X31.985 Y59.889
G0 Z5.000
G0 X30.605 Y54.681
G1 Z-1.000 F400.0
G1 X30.593 Y54.389
G1 X30.646 Y54.095
G1 X30.728 Y53.832
G1 X30.956 Y53.633
G1 X30.965 Y53.439
G1 X31.124 Y53.311
G1 X31.135 Y53.105
G1 X31.182 Y52.871
G1 X31.283 Y52.622
G1 X31.445 Y52.381
G1 X31.640 Y52.372
G1 X31.865 Y52.470
G1 X32.049 Y52.642
G1 X32.290 Y52.699
G1 X32.544 Y52.769
G1 X32.778 Y52.909
G1 X32.754 Y53.123
G1 X32.616 Y53.368
G1 X32.372 Y53.552
G1 X32.132 Y53.692
G1 X31.940 Y53.802
G1 X31.811 Y53.926
G1 X31.702 Y54.109
G1 X31.516 Y54.188
G1 X31.327 Y54.394
G1 X31.097 Y54.581
G1 X30.826 Y54.695
G1 X30.605 Y54.681
G0 Z5.000
G0 X17.435 Y51.273
G1 Z-1.000 F400.0
G1 X17.150 Y51.078
G1 X16.859 Y50.903
G1 X16.610 Y50.642
G1 X16.292 Y50.529
G1 X16.017 Y50.321
G1 X15.731 Y50.156
G1 X15.428 Y50.035
G1 X15.167 Y49.813
G1 X14.884 Y49.672
G1 X14.602 Y49.549
G1 X14.292 Y49.545
G1 X14.031 Y49.393
G1 X13.748 Y49.313
G1 X13.438 Y49.326
G1 X13.171 Y49.519
G1 X12.860 Y49.594
G1 X12.535 Y49.616
G1 X12.261 Y49.830
G1 X11.944 Y49.948
G1 X11.655 Y50.129
G1 X11.387 Y49.967
G1 X11.234 Y49.692
G1 X11.253 Y49.349
G1 X11.184 Y49.042
G1 X11.057 Y48.763
G1 X11.076 Y48.432
G1 X11.094 Y48.105
G1 X11.072 Y47.790
G1 X10.883 Y47.541
G1 X10.891 Y47.222
G1 X10.896 Y46.906
G1 X10.897 Y46.590
G1 X10.894 Y46.274
G1 X10.879 Y45.957
G1 X10.658 Y45.698
G1 X10.627 Y45.376
G1 X10.613 Y45.048
G1 X10.597 Y44.718
G1 X10.581 Y44.384
G1 X10.564 Y44.047
G1 X10.722 Y43.776
G1 X10.766 Y43.451
G1 X10.749 Y43.106
G1 X10.770 Y42.767
G1 X11.000 Y42.529
G1 X11.232 Y42.291
G1 X11.548 Y42.207
G1 X11.778 Y41.966
G1 X12.049 Y41.798
G1 X12.383 Y41.791
G1 X12.640 Y41.586
G1 X12.973 Y41.585
G1 X13.305 Y41.592
G1 X13.636 Y41.597
G1 X13.967 Y41.600
G1 X14.262 Y41.718
G1 X14.552 Y41.848
G1 X14.809 Y42.059
G1 X15.108 Y42.165
G1 X15.385 Y42.311
G1 X15.641 Y42.504
G1 X15.865 Y42.748
G1 X16.089 Y42.990
G1 X16.312 Y43.228
G1 X16.535 Y43.463
G1 X16.624 Y43.772
G1 X16.832 Y44.012
G1 X17.025 Y44.260
G1 X17.134 Y44.547
G1 X17.224 Y44.838
G1 X17.204 Y45.166
G1 X17.186 Y45.488
G1 X17.170 Y45.805
G1 X17.159 Y46.119
G1 X17.152 Y46.430
G1 X17.150 Y46.739
G1 X17.155 Y47.049
G1 X17.164 Y47.361
G1 X17.178 Y47.677
G1 X17.195 Y47.997
G1 X17.214 Y48.321
G1 X17.234 Y48.651
G1 X17.323 Y48.971
G1 X17.502 Y49.261
G1 X17.520 Y49.602
G1 X17.539 Y49.946
G1 X17.579 Y50.290
G1 X17.793 Y50.574
G1 X17.813 Y50.923
G1 X17.784 Y51.264
G1 X17.468 Y51.298
G1 X17.435 Y51.273
G0 Z5.000
G0 X15.169 Y58.451
G1 Z-1.000 F400.0
G1 X15.087 Y58.118
G1 X14.875 Y57.871
G1 X14.718 Y57.595
G1 X14.594 Y57.308
G1 X14.383 Y57.081
G1 X14.317 Y56.771
G1 X14.155 Y56.523
G1 X14.042 Y56.257
G1 X13.961 Y55.976
G1 X13.744 Y55.765
G1 X13.544 Y55.538
G1 X13.417 Y55.275
G1 X13.302 Y55.002
G1 X13.086 Y54.761
G1 X12.963 Y54.479
G1 X12.821 Y54.201
G1 X12.759 Y53.892
G1 X12.559 Y53.624
G1 X12.386 Y53.343
G1 X12.295 Y53.031
G1 X12.176 Y52.724
G1 X12.031 Y52.425
G1 X11.966 Y52.095
G1 X11.769 Y51.810
G1 X11.915 Y51.529
G1 X12.150 Y51.297
G1 X12.385 Y51.063
G1 X12.665 Y50.914
G1 X13.003 Y50.905
G1 X13.263 Y50.713
G1 X13.601 Y50.723
G1 X13.936 Y50.737
G1 X14.233 Y50.878
G1 X14.534 Y50.999
G1 X14.845 Y51.084
G1 X15.120 Y51.259
G1 X15.438 Y51.292
G1 X15.692 Y51.507
G1 X15.969 Y51.646
G1 X16.189 Y51.901
G1 X16.471 Y52.008
G1 X16.709 Y52.212
G1 X16.981 Y52.323
G1 X17.189 Y52.557
G1 X17.396 Y52.784
G1 X17.686 Y52.864
G1 X17.910 Y53.068
G1 X17.992 Y53.357
G1 X18.200 Y53.577
G1 X18.396 Y53.806
G1 X18.385 Y54.116
G1 X18.578 Y54.353
G1 X18.603 Y54.654
G1 X18.758 Y54.913
G1 X18.846 Y55.201
G1 X18.953 Y55.487
G1 X19.106 Y55.765
G1 X19.321 Y56.027
G1 X19.438 Y56.333
G1 X19.616 Y56.614
G1 X19.812 Y56.892
G1 X19.925 Y57.211
G1 X20.127 Y57.491
G1 X20.296 Y57.785
G1 X20.365 Y58.103
G1 X20.058 Y58.179
G1 X19.774 Y57.963
G1 X19.455 Y57.832
G1 X19.144 Y57.693
G1 X18.809 Y57.623
G1 X18.520 Y57.429
G1 X18.182 Y57.392
G1 X17.904 Y57.170
G1 X17.575 Y57.134
G1 X17.253 Y57.108
G1 X16.939 Y57.084
G1 X16.701 Y57.259
G1 X16.418 Y57.345
G1 X16.174 Y57.526
G1 X15.919 Y57.693
G1 X15.697 Y57.952
G1 X15.537 Y58.252
G1 X15.349 Y58.497
G1 X15.169 Y58.451
G0 Z5.000
G0 X17.353 Y42.738
G1 Z-1.000 F400.0
G1 X17.113 Y42.478
G1 X17.015 Y42.137
G1 X16.780 Y41.876
G1 X16.546 Y41.616
G1 X16.316 Y41.357
G1 X16.083 Y41.108
G1 X15.791 Y41.001
G1 X15.572 Y40.749
G1 X15.305 Y40.612
G1 X15.062 Y40.420
G1 X14.750 Y40.405
G1 X14.485 Y40.271
G1 X14.186 Y40.210
G1 X13.853 Y40.233
G1 X13.515 Y40.256
G1 X13.173 Y40.277
G1 X12.882 Y40.466
G1 X12.545 Y40.538
G1 X12.196 Y40.558
G1 X11.908 Y40.764
G1 X11.577 Y40.877
G1 X11.277 Y41.050
G1 X11.060 Y40.848
G1 X11.072 Y40.506
G1 X11.084 Y40.166
G1 X11.256 Y39.877
G1 X11.344 Y39.559
G1 X11.355 Y39.225
G1 X11.553 Y38.951
G1 X11.611 Y38.630
G1 X11.753 Y38.342
G1 X11.862 Y38.046
G1 X11.944 Y37.742
G1 X12.106 Y37.470
G1 X12.132 Y37.152
G1 X12.335 Y36.901
G1 X12.467 Y36.624
G1 X12.559 Y36.334
G1 X12.624 Y36.032
G1 X12.767 Y35.762
G1 X12.939 Y35.504
G1 X13.016 Y35.195
G1 X13.180 Y34.930
G1 X13.320 Y34.652
G1 X13.546 Y34.422
G1 X13.623 Y34.100
G1 X13.847 Y33.861
G1 X14.073 Y33.622
G1 X14.300 Y33.381
G1 X14.607 Y33.292
G1 X14.874 Y33.122
G1 X15.142 Y32.952
G1 X15.455 Y32.892
G1 X15.747 Y32.775
G1 X16.039 Y32.655
G1 X16.368 Y32.653
G1 X16.699 Y32.650
G1 X17.029 Y32.645
G1 X17.361 Y32.638
G1 X17.695 Y32.629
G1 X18.029 Y32.627
G1 X18.287 Y32.830
G1 X18.622 Y32.837
G1 X18.896 Y33.000
G1 X19.212 Y33.086
G1 X19.446 Y33.323
G1 X19.679 Y33.560
G1 X19.958 Y33.717
G1 X20.179 Y33.911
G1 X20.320 Y34.197
G1 X20.558 Y34.430
G1 X20.646 Y34.744
G1 X20.836 Y35.007
G1 X20.970 Y35.294
G1 X21.055 Y35.600
G1 X20.958 Y35.913
G1 X20.697 Y36.156
G1 X20.548 Y36.447
G1 X20.329 Y36.708
G1 X20.079 Y36.951
G1 X19.964 Y37.249
G1 X19.705 Y37.477
G1 X19.564 Y37.754
G1 X19.358 Y38.003
G1 X19.260 Y38.294
G1 X19.106 Y38.555
G1 X18.930 Y38.805
G1 X18.697 Y39.020
G1 X18.681 Y39.336
G1 X18.559 Y39.609
G1 X18.475 Y39.909
G1 X18.294 Y40.162
G1 X18.194 Y40.460
G1 X18.101 Y40.763
G1 X18.060 Y41.095
G1 X17.911 Y41.378
G1 X17.926 Y41.734
G1 X17.852 Y42.060
G1 X17.725 Y42.363
G1 X17.699 Y42.714
G1 X17.394 Y42.767
G1 X17.353 Y42.738
G0 Z5.000
G0 X21.893 Y34.265
G1 Z-1.000 F400.0
G1 X21.803 Y33.928
G1 X21.623 Y33.644
G1 X21.495 Y33.336
G1 X21.270 Y33.089
G1 X21.047 Y32.844
G1 X20.824 Y32.603
G1 X20.602 Y32.365
G1 X20.380 Y32.131
G1 X20.098 Y32.009
G1 X19.840 Y31.830
G1 X19.525 Y31.751
G1 X19.246 Y31.606
G1 X18.901 Y31.602
G1 X18.633 Y31.417
G1 X18.279 Y31.427
G1 X17.924 Y31.440
G1 X17.568 Y31.453
G1 X17.210 Y31.464
G1 X16.852 Y31.474
G1 X16.501 Y31.524
G1 X16.208 Y31.717
G1 X15.848 Y31.726
G1 X15.489 Y31.734
G1 X15.281 Y31.569
G1 X15.540 Y31.322
G1 X15.713 Y31.034
G1 X15.905 Y30.754
G1 X16.164 Y30.510
G1 X16.424 Y30.268
G1 X16.683 Y30.027
G1 X16.942 Y29.787
G1 X17.201 Y29.549
G1 X17.459 Y29.313
G1 X17.716 Y29.079
G1 X18.053 Y28.985
G1 X18.313 Y28.760
G1 X18.566 Y28.534
G1 X18.858 Y28.374
G1 X19.154 Y28.230
G1 X19.400 Y28.013
G1 X19.642 Y27.799
G1 X19.969 Y27.728
G1 X20.199 Y27.516
G1 X20.474 Y27.387
G1 X20.734 Y27.240
G1 X21.035 Y27.175
G1 X21.278 Y27.016
G1 X21.533 Y26.885
G1 X21.737 Y26.650
G1 X22.019 Y26.563
G1 X22.258 Y26.367
G1 X22.520 Y26.222
G1 X22.803 Y26.107
G1 X23.052 Y25.888
G1 X23.337 Y25.753
G1 X23.625 Y25.621
G1 X23.937 Y25.547
G1 X24.213 Y25.358
G1 X24.494 Y25.173
G1 X24.815 Y25.094
G1 X25.121 Y24.964
G1 X25.427 Y24.831
G1 X25.756 Y24.756
G1 X26.046 Y24.570
G1 X26.390 Y24.538
G1 X26.671 Y24.320
G1 X27.018 Y24.297
G1 X27.304 Y24.092
G1 X27.649 Y24.043
G1 X27.955 Y23.889
G1 X28.283 Y23.789
G1 X28.636 Y23.778
G1 X28.789 Y23.966
G1 X28.621 Y24.265
G1 X28.424 Y24.553
G1 X28.315 Y24.882
G1 X28.120 Y25.169
G1 X27.948 Y25.464
G1 X27.834 Y25.787
G1 X27.620 Y26.065
G1 X27.470 Y26.366
G1 X27.343 Y26.676
G1 X27.120 Y26.948
G1 X26.990 Y27.253
G1 X26.844 Y27.548
G1 X26.627 Y27.814
G1 X26.592 Y28.138
G1 X26.419 Y28.413
G1 X26.340 Y28.717
G1 X26.337 Y29.037
G1 X26.144 Y29.293
G1 X26.102 Y29.603
G1 X26.106 Y29.923
G1 X25.906 Y30.170
G1 X25.896 Y30.490
G1 X25.898 Y30.815
G1 X25.704 Y31.064
G1 X25.594 Y31.346
G1 X25.284 Y31.430
G1 X25.058 Y31.655
G1 X24.773 Y31.769
G1 X24.527 Y31.958
G1 X24.307 Y32.192
G1 X24.088 Y32.430
G1 X23.868 Y32.672
G1 X23.622 Y32.876
G1 X23.343 Y33.008
G1 X23.117 Y33.259
G1 X22.890 Y33.513
G1 X22.659 Y33.768
G1 X22.427 Y34.025
G1 X22.189 Y34.279
G1 X21.893 Y34.265
G0 Z5.000
G0 X24.963 Y22.897
G1 Z-1.000 F400.0
G1 X24.932 Y22.558
G1 X25.123 Y22.270
G1 X25.124 Y21.907
G1 X25.179 Y21.560
G1 X25.345 Y21.264
G1 X25.342 Y20.901
G1 X25.340 Y20.539
G1 X25.353 Y20.179
G1 X25.544 Y19.897
G1 X25.547 Y19.536
G1 X25.540 Y19.174
G1 X25.532 Y18.813
G1 X25.523 Y18.452
G1 X25.514 Y18.092
G1 X25.674 Y17.813
G1 X25.690 Y17.467
G1 X25.666 Y17.114
G1 X25.587 Y16.775
G1 X25.414 Y16.474
G1 X25.369 Y16.136
G1 X25.308 Y15.817
G1 X25.213 Y15.537
G1 X24.958 Y15.315
G1 X24.888 Y15.236
G1 X24.821 Y15.244
G1 X24.905 Y15.029
G1 X24.863 Y14.762
G1 X24.765 Y14.463
G1 X24.583 Y14.196
G1 X24.376 Y13.925
G1 X24.120 Y13.747
G1 X23.819 Y13.712
G1 X23.504 Y13.677
G1 X23.178 Y13.643
G1 X22.843 Y13.612
G1 X22.501 Y13.585
G1 X22.183 Y13.461
G1 X21.868 Y13.325
G1 X21.518 Y13.305
G1 X21.165 Y13.283
G1 X20.876 Y13.075
G1 X20.523 Y13.039
G1 X20.221 Y12.869
G1 X19.886 Y12.761
G1 X19.595 Y12.558
G1 X19.283 Y12.412
G1 X18.954 Y12.293
G1 X18.683 Y12.058
G1 X18.424 Y11.808
G1 X18.164 Y11.557
G1 X17.905 Y11.306
G1 X17.876 Y10.981
G1 X18.202 Y10.934
G1 X18.489 Y11.144
G1 X18.845 Y11.160
G1 X19.200 Y11.171
G1 X19.514 Y11.308
G1 X19.837 Y11.423
G1 X20.189 Y11.437
G1 X20.540 Y11.451
G1 X20.864 Y11.392
G1 X20.685 Y11.109
G1 X20.565 Y10.785
G1 X20.309 Y10.528
G1 X20.163 Y10.218
G1 X19.952 Y9.933
G1 X19.913 Y9.583
G1 X19.914 Y9.232
G1 X20.163 Y9.247
G1 X20.486 Y9.366
G1 X20.766 Y9.584
G1 X21.076 Y9.722
G1 X21.387 Y9.849
G1 X21.731 Y9.861
G1 X22.027 Y10.019
G1 X22.344 Y10.119
G1 X22.658 Y10.223
G1 X22.951 Y10.379
G1 X23.223 Y10.589
G1 X23.536 Y10.700
G1 X23.775 Y10.961
G1 X24.054 Y11.128
G1 X24.318 Y11.327
G1 X24.632 Y11.377
G1 X24.910 Y11.517
G1 X25.201 Y11.617
G1 X25.521 Y11.611
G1 X25.843 Y11.601
G1 X26.143 Y11.671
G1 X26.412 Y11.815
G1 X26.742 Y11.798
G1 X27.075 Y11.781
G1 X27.337 Y11.954
G1 X27.650 Y12.033
G1 X27.919 Y12.195
G1 X28.150 Y12.370
G1 X28.278 Y12.655
G1 X28.513 Y12.881
G1 X28.602 Y13.186
G1 X28.796 Y13.440
G1 X28.921 Y13.724
G1 X29.030 Y14.017
G1 X29.238 Y14.270
G1 X29.245 Y14.596
G1 X29.433 Y14.859
G1 X29.481 Y15.176
G1 X29.482 Y15.504
G1 X29.485 Y15.832
G1 X29.495 Y16.160
G1 X29.709 Y16.426
G1 X29.745 Y16.755
G1 X29.755 Y17.090
G1 X29.765 Y17.426
G1 X29.777 Y17.764
G1 X29.790 Y18.103
G1 X29.802 Y18.445
G1 X29.815 Y18.789
G1 X29.828 Y19.134
G1 X29.841 Y19.481
G1 X29.692 Y19.768
G1 X29.629 Y20.094
G1 X29.641 Y20.445
G1 X29.653 Y20.797
G1 X29.664 Y21.150
G1 X29.488 Y21.431
G1 X29.401 Y21.762
G1 X29.162 Y22.007
G1 X28.828 Y22.051
G1 X28.482 Y22.042
G1 X28.147 Y22.078
G1 X27.875 Y22.265
G1 X27.532 Y22.269
G1 X27.267 Y22.477
G1 X26.927 Y22.486
G1 X26.589 Y22.505
G1 X26.322 Y22.712
G1 X25.982 Y22.717
G1 X25.713 Y22.922
G1 X25.377 Y22.951
G1 X25.038 Y22.938
G1 X24.963 Y22.897
G0 Z5.000
G0 X44.054 Y20.289
G1 Z-1.000 F400.0
G1 X43.999 Y19.952
G1 X44.120 Y19.629
G1 X44.369 Y19.369
G1 X44.618 Y19.109
G1 X44.735 Y18.779
G1 X44.970 Y18.509
G1 X45.216 Y18.248
G1 X45.461 Y17.986
G1 X45.704 Y17.724
G1 X45.945 Y17.461
G1 X46.182 Y17.199
G1 X46.416 Y16.936
G1 X46.645 Y16.673
G1 X46.882 Y16.436
G1 X47.153 Y16.307
G1 X47.361 Y16.052
G1 X47.560 Y15.803
G1 X47.750 Y15.564
G1 X48.012 Y15.488
G1 X48.206 Y15.284
G1 X48.400 Y15.084
G1 X48.605 Y14.893
G1 X48.870 Y14.771
G1 X49.149 Y14.647
G1 X49.389 Y14.448
G1 X49.637 Y14.243
G1 X49.890 Y14.031
G1 X50.032 Y13.765
G1 X49.778 Y13.606
G1 X49.416 Y13.615
G1 X49.056 Y13.626
G1 X48.696 Y13.642
G1 X48.339 Y13.664
G1 X47.986 Y13.698
G1 X47.646 Y13.752
G1 X47.344 Y13.850
G1 X47.186 Y14.001
G1 X47.212 Y13.993
G1 X47.041 Y13.843
G1 X46.736 Y13.749
G1 X46.395 Y13.696
G1 X46.042 Y13.663
G1 X45.684 Y13.641
G1 X45.325 Y13.626
G1 X44.994 Y13.528
G1 X44.676 Y13.403
G1 X44.315 Y13.392
G1 X43.996 Y13.267
G1 X43.668 Y13.152
G1 X43.379 Y12.952
G1 X43.051 Y12.836
G1 X42.733 Y12.701
G1 X42.449 Y12.496
G1 X42.178 Y12.265
G1 X41.847 Y12.153
G1 X41.586 Y11.908
G1 X41.326 Y11.662
G1 X41.091 Y11.399
G1 X41.198 Y11.111
G1 X41.521 Y11.013
G1 X41.824 Y10.885
G1 X42.179 Y10.897
G1 X42.498 Y11.025
G1 X42.818 Y11.157
G1 X43.095 Y11.382
G1 X43.370 Y11.612
G1 X43.692 Y11.740
G1 X44.006 Y11.872
G1 X44.040 Y11.651
G1 X43.781 Y11.399
G1 X43.521 Y11.147
G1 X43.262 Y10.894
G1 X43.003 Y10.640
G1 X42.745 Y10.386
G1 X42.491 Y10.129
G1 X42.446 Y9.786
G1 X42.614 Y9.537
G1 X42.923 Y9.676
G1 X43.243 Y9.790
G1 X43.590 Y9.805
G1 X43.934 Y9.820
G1 X44.276 Y9.835
G1 X44.616 Y9.850
G1 X44.953 Y9.865
G1 X45.287 Y9.880
G1 X45.619 Y9.893
G1 X45.948 Y9.905
G1 X46.275 Y9.914
G1 X46.598 Y9.935
G1 X46.855 Y10.155
G1 X47.144 Y10.278
G1 X47.422 Y10.410
G1 X47.730 Y10.457
G1 X47.984 Y10.639
G1 X48.304 Y10.627
G1 X48.603 Y10.693
G1 X48.871 Y10.835
G1 X49.201 Y10.816
G1 X49.535 Y10.797
G1 X49.873 Y10.777
G1 X50.215 Y10.758
G1 X50.553 Y10.769
G1 X50.818 Y10.952
G1 X51.168 Y10.939
G1 X51.519 Y10.924
G1 X51.872 Y10.910
G1 X52.226 Y10.897
G1 X52.582 Y10.884
G1 X52.938 Y10.873
G1 X53.296 Y10.863
G1 X53.653 Y10.853
G1 X54.012 Y10.849
G1 X54.180 Y11.103
G1 X54.137 Y11.440
G1 X53.881 Y11.690
G1 X53.621 Y11.936
G1 X53.360 Y12.180
G1 X53.019 Y12.280
G1 X52.759 Y12.523
G1 X52.499 Y12.765
G1 X52.239 Y13.004
G1 X51.980 Y13.242
G1 X51.720 Y13.477
G1 X51.462 Y13.710
G1 X51.245 Y13.962
G1 X51.106 Y14.242
G1 X50.853 Y14.466
G1 X50.603 Y14.687
G1 X50.356 Y14.904
G1 X50.270 Y15.200
G1 X50.035 Y15.417
G1 X49.869 Y15.670
G1 X49.729 Y15.935
G1 X49.505 Y16.155
G1 X49.433 Y16.466
G1 X49.267 Y16.729
G1 X49.143 Y17.017
G1 X49.060 Y17.334
G1 X48.879 Y17.603
G1 X48.771 Y17.913
G1 X48.668 Y18.229
G1 X48.479 Y18.505
G1 X48.382 Y18.831
G1 X48.256 Y19.140
G1 X48.223 Y19.492
G1 X48.044 Y19.780
G1 X47.902 Y20.086
G1 X47.637 Y20.289
G1 X47.301 Y20.290
G1 X46.965 Y20.290
G1 X46.629 Y20.292
G1 X46.292 Y20.295
G1 X45.955 Y20.299
G1 X45.617 Y20.305
G1 X45.278 Y20.311
G1 X44.938 Y20.319
G1 X44.597 Y20.327
G1 X44.255 Y20.336
G1 X44.054 Y20.289
G0 Z5.000
G0 X53.910 Y62.578
G1 Z-1.000 F400.0
G1 X54.049 Y62.298
G1 X54.287 Y62.031
G1 X54.396 Y61.697
G1 X54.551 Y61.388
G1 X54.738 Y61.094
G1 X54.839 Y60.754
G1 X55.017 Y60.456
G1 X55.040 Y60.097
G1 X55.243 Y59.809
G1 X55.363 Y59.482
G1 X55.486 Y59.162
G1 X55.546 Y58.813
G1 X55.716 Y58.514
G1 X55.742 Y58.155
G1 X55.931 Y57.865
G1 X55.953 Y57.505
G1 X55.996 Y57.150
G1 X56.161 Y56.854
G1 X56.182 Y56.495
G1 X56.215 Y56.139
G1 X56.309 Y55.816
G1 X56.320 Y55.479
G1 X56.284 Y56.114
G1 X56.326 Y55.754
G1 X56.361 Y55.413
G1 X56.465 Y55.096
G1 X56.492 Y54.739
G1 X56.509 Y54.379
G1 X56.520 Y54.017
G1 X56.619 Y53.690
G1 X56.733 Y53.368
G1 X56.742 Y53.007
G1 X56.750 Y52.645
G1 X56.756 Y52.283
G1 X56.762 Y51.921
G1 X56.766 Y51.559
G1 X56.898 Y51.245
G1 X56.992 Y50.912
G1 X56.996 Y50.550
G1 X57.000 Y50.188
G1 X57.003 Y49.826
G1 X57.006 Y49.463
G1 X57.009 Y49.101
G1 X57.012 Y48.738
G1 X57.014 Y48.376
G1 X57.032 Y48.015
G1 X57.240 Y48.067
G1 X57.241 Y48.429
G1 X57.286 Y48.779
G1 X57.461 Y49.071
G1 X57.456 Y49.433
G1 X57.451 Y49.794
G1 X57.446 Y50.156
G1 X57.440 Y50.518
G1 X57.433 Y50.879
G1 X57.425 Y51.239
G1 X57.417 Y51.600
G1 X57.406 Y51.960
G1 X57.394 Y52.319
G1 X57.380 Y52.677
G1 X57.364 Y53.033
G1 X57.344 Y53.388
G1 X57.307 Y53.738
G1 X57.104 Y54.029
G1 X57.061 Y54.375
G1 X57.017 Y54.710
G1 X56.960 Y55.027
G1 X56.891 Y55.309
G1 X56.826 Y55.539
G1 X56.609 Y55.691
G1 X56.607 Y55.825
G1 X56.699 Y56.052
G1 X56.777 Y56.348
G1 X56.725 Y56.616
G1 X56.681 Y56.924
G1 X56.704 Y57.281
G1 X56.585 Y57.575
G1 X56.532 Y57.914
G1 X56.537 Y58.276
G1 X56.375 Y58.567
G1 X56.335 Y58.920
G1 X56.213 Y59.235
G1 X56.108 Y59.564
G1 X55.913 Y59.851
G1 X55.800 Y60.178
G1 X55.673 Y60.497
G1 X55.476 Y60.786
G1 X55.373 Y61.121
G1 X55.132 Y61.381
G1 X54.891 Y61.640
G1 X54.760 Y61.960
G1 X54.548 Y62.242
G1 X54.303 Y62.501
G1 X53.998 Y62.621
G1 X53.910 Y62.578
G0 Z5.000
G0 X58.031 Y68.579
G1 Z-1.000 F400.0
G1 X58.178 Y68.307
G1 X58.487 Y68.153
G1 X58.838 Y68.109
G1 X59.127 Y67.906
G1 X59.437 Y67.754
G1 X59.765 Y67.636
G1 X60.051 Y67.422
G1 X60.370 Y67.290
G1 X60.688 Y67.154
G1 X60.973 Y66.941
G1 X61.300 Y66.822
G1 X61.607 Y66.664
G1 X61.894 Y66.460
G1 X62.158 Y66.213
G1 X62.485 Y66.096
G1 X62.785 Y65.925
G1 X63.074 Y65.729
G1 X63.336 Y65.478
G1 X63.658 Y65.357
G1 X63.916 Y65.102
G1 X64.175 Y64.849
G1 X64.467 Y64.678
G1 X64.737 Y64.457
G1 X64.987 Y64.195
G1 X65.228 Y63.931
G1 X65.318 Y63.719
G1 X65.085 Y63.699
G1 X65.287 Y63.836
G1 X65.584 Y63.682
G1 X65.864 Y63.464
G1 X66.134 Y63.227
G1 X66.399 Y62.983
G1 X66.662 Y62.734
G1 X66.923 Y62.483
G1 X67.183 Y62.231
G1 X67.443 Y61.978
G1 X67.701 Y61.724
G1 X67.960 Y61.470
G1 X68.218 Y61.215
G1 X68.476 Y60.960
G1 X68.733 Y60.705
G1 X68.845 Y60.376
G1 X69.101 Y60.120
G1 X69.358 Y59.864
G1 X69.524 Y59.563
G1 X69.723 Y59.275
G1 X69.979 Y59.019
G1 X70.227 Y58.756
G1 X70.343 Y58.428
G1 X70.599 Y58.171
G1 X70.855 Y57.914
G1 X70.994 Y57.600
G1 X71.217 Y57.321
G1 X71.458 Y57.341
G1 X71.339 Y57.657
G1 X71.205 Y57.974
G1 X70.989 Y58.257
G1 X70.870 Y58.582
G1 X70.613 Y58.838
G1 X70.468 Y59.148
G1 X70.254 Y59.431
G1 X70.139 Y59.757
G1 X69.881 Y60.011
G1 X69.623 Y60.266
G1 X69.477 Y60.573
G1 X69.253 Y60.847
G1 X69.007 Y61.108
G1 X68.881 Y61.422
G1 X68.621 Y61.672
G1 X68.359 Y61.921
G1 X68.097 Y62.168
G1 X67.965 Y62.469
G1 X67.717 Y62.720
G1 X67.451 Y62.956
G1 X67.185 Y63.186
G1 X66.918 Y63.407
G1 X66.651 Y63.615
G1 X66.389 Y63.805
G1 X66.139 Y63.968
G1 X65.918 Y64.103
G1 X65.747 Y64.228
G1 X65.616 Y64.383
G1 X65.468 Y64.546
G1 X65.279 Y64.675
G1 X65.099 Y64.939
G1 X64.895 Y65.208
G1 X64.622 Y65.337
G1 X64.385 Y65.600
G1 X64.145 Y65.865
G1 X63.873 Y66.066
G1 X63.589 Y66.248
G1 X63.275 Y66.370
G1 X63.019 Y66.625
G1 X62.738 Y66.832
G1 X62.440 Y66.997
G1 X62.119 Y67.118
G1 X61.836 Y67.335
G1 X61.490 Y67.360
G1 X61.204 Y67.568
G1 X60.874 Y67.681
G1 X60.575 Y67.856
G1 X60.282 Y68.043
G1 X59.940 Y68.110
G1 X59.625 Y68.243
G1 X59.303 Y68.362
G1 X58.966 Y68.441
G1 X58.665 Y68.613
G1 X58.309 Y68.623
G1 X58.031 Y68.579
G0 Z5.000
G0 X66.565 Y75.283
G1 Z-1.000 F400.0
G1 X66.274 Y75.114
G1 X65.912 Y75.118
G1 X65.550 Y75.122
G1 X65.188 Y75.125
G1 X64.826 Y75.128
G1 X64.463 Y75.131
G1 X64.125 Y75.057
G1 X63.820 Y74.908
G1 X63.457 Y74.909
G1 X63.095 Y74.911
G1 X62.737 Y74.883
G1 X62.450 Y74.687
G1 X62.088 Y74.685
G1 X61.738 Y74.634
G1 X61.443 Y74.455
G1 X61.081 Y74.455
G1 X60.742 Y74.377
G1 X60.436 Y74.224
G1 X60.323 Y74.020
G1 X60.681 Y73.992
G1 X60.987 Y74.147
G1 X61.327 Y74.223
G1 X61.689 Y74.223
G1 X62.052 Y74.223
G1 X62.415 Y74.223
G1 X62.777 Y74.223
G1 X63.106 Y74.323
G1 X63.422 Y74.452
G1 X63.785 Y74.451
G1 X64.148 Y74.451
G1 X64.510 Y74.450
G1 X64.873 Y74.449
G1 X65.235 Y74.448
G1 X65.598 Y74.447
G1 X65.950 Y74.492
G1 X66.242 Y74.668
G1 X66.605 Y74.666
G1 X66.967 Y74.663
G1 X67.329 Y74.660
G1 X67.692 Y74.656
G1 X68.054 Y74.652
G1 X68.416 Y74.647
G1 X68.778 Y74.641
G1 X69.140 Y74.634
G1 X69.501 Y74.625
G1 X69.862 Y74.614
G1 X70.221 Y74.600
G1 X70.579 Y74.580
G1 X70.934 Y74.552
G1 X71.270 Y74.462
G1 X71.584 Y74.326
G1 X71.912 Y74.239
G1 X72.052 Y74.018
G1 X71.842 Y74.107
G1 X72.091 Y74.276
G1 X72.432 Y74.342
G1 X72.788 Y74.374
G1 X73.073 Y74.257
G1 X73.425 Y74.223
G1 X73.787 Y74.223
G1 X74.150 Y74.223
G1 X74.467 Y74.110
G1 X74.796 Y74.017
G1 X75.159 Y74.014
G1 X75.520 Y74.000
G1 X75.807 Y73.806
G1 X76.168 Y73.791
G1 X76.527 Y73.762
G1 X76.816 Y73.569
G1 X77.177 Y73.561
G1 X77.529 Y73.511
G1 X77.824 Y73.331
G1 X78.186 Y73.327
G1 X78.527 Y73.250
G1 X78.833 Y73.095
G1 X79.191 Y73.065
G1 X79.480 Y72.865
G1 X79.841 Y72.854
G1 X80.130 Y72.652
G1 X80.488 Y72.623
G1 X80.793 Y72.463
G1 X81.134 Y72.387
G1 X81.462 Y72.281
G1 X81.781 Y72.151
G1 X82.131 Y72.097
G1 X82.427 Y71.913
G1 X82.731 Y71.751
G1 X83.073 Y71.675
G1 X83.380 Y71.789
G1 X83.141 Y72.048
G1 X82.810 Y72.160
G1 X82.523 Y72.368
G1 X82.200 Y72.491
G1 X81.878 Y72.619
G1 X81.591 Y72.824
G1 X81.232 Y72.847
G1 X80.931 Y73.016
G1 X80.592 Y73.115
G1 X80.301 Y73.310
G1 X79.989 Y73.452
G1 X79.655 Y73.543
G1 X79.320 Y73.630
G1 X79.009 Y73.773
G1 X78.653 Y73.809
G1 X78.363 Y73.998
G1 X78.001 Y74.008
G1 X77.716 Y74.206
G1 X77.355 Y74.224
G1 X77.056 Y74.386
G1 X76.711 Y74.443
G1 X76.348 Y74.443
G1 X76.060 Y74.621
G1 X75.706 Y74.651
G1 X75.344 Y74.653
G1 X75.064 Y74.834
G1 X74.707 Y74.840
G1 X74.347 Y74.827
G1 X73.989 Y74.811
G1 X73.708 Y74.939
G1 X73.380 Y74.961
G1 X73.041 Y74.921
G1 X72.717 Y74.868
G1 X72.422 Y74.804
G1 X72.253 Y74.935
G1 X72.034 Y74.937
G1 X71.819 Y74.942
G1 X71.583 Y74.983
G1 X71.311 Y75.040
G1 X71.007 Y75.094
G1 X70.682 Y75.140
G1 X70.344 Y75.177
G1 X69.998 Y75.208
G1 X69.647 Y75.232
G1 X69.293 Y75.252
G1 X68.936 Y75.269
G1 X68.578 Y75.283
G1 X68.219 Y75.295
G1 X67.859 Y75.305
G1 X67.499 Y75.314
G1 X67.138 Y75.322
G1 X66.777 Y75.329
G1 X66.565 Y75.283
G0 Z5.000
G0 X82.002 Y92.610
G1 Z-1.000 F400.0
G1 X81.709 Y92.421
G1 X81.349 Y92.419
G1 X80.988 Y92.418
G1 X80.629 Y92.402
G1 X80.345 Y92.186
G1 X79.985 Y92.173
G1 X79.630 Y92.141
G1 X79.343 Y91.933
G1 X78.983 Y91.928
G1 X78.622 Y91.927
G1 X78.309 Y91.787
G1 X77.981 Y91.683
G1 X77.620 Y91.682
G1 X77.318 Y91.513
G1 X76.978 Y91.438
G1 X76.618 Y91.436
G1 X76.327 Y91.240
G1 X75.976 Y91.193
G1 X75.616 Y91.186
G1 X75.331 Y90.974
G1 X74.975 Y90.948
G1 X74.673 Y90.778
G1 X74.333 Y90.704
G1 X73.973 Y90.702
G1 X73.683 Y90.506
G1 X73.332 Y90.459
G1 X73.019 Y90.317
G1 X72.690 Y90.215
G1 X72.355 Y90.130
G1 X72.049 Y89.972
G1 X71.694 Y89.938
G1 X71.408 Y89.731
G1 X71.096 Y89.585
G1 X70.767 Y89.484
G1 X70.432 Y89.398
G1 X70.126 Y89.241
G1 X69.772 Y89.207
G1 X69.485 Y89.000
G1 X69.174 Y88.853
G1 X68.846 Y88.737
G1 X68.563 Y88.521
G1 X68.204 Y88.508
G1 X67.915 Y88.310
G1 X67.577 Y88.208
G1 X67.283 Y88.023
G1 X66.983 Y87.851
G1 X66.648 Y87.746
G1 X66.361 Y87.540
G1 X66.051 Y87.392
G1 X65.723 Y87.277
G1 X65.440 Y87.061
G1 X65.119 Y86.934
G1 X64.801 Y86.801
G1 X64.517 Y86.587
G1 X64.187 Y86.476
G1 X63.880 Y86.320
G1 X63.592 Y86.120
G1 X63.255 Y86.018
G1 X63.000 Y85.761
G1 X62.699 Y85.593
G1 X62.407 Y85.403
G1 X62.070 Y85.302
G1 X61.814 Y85.046
G1 X61.519 Y84.865
G1 X61.222 Y84.688
G1 X60.886 Y84.585
G1 X60.629 Y84.331
G1 X60.339 Y84.137
G1 X60.037 Y83.973
G1 X59.782 Y83.716
G1 X59.446 Y83.613
G1 X59.190 Y83.359
G1 X58.935 Y83.102
G1 X58.639 Y82.924
G1 X58.343 Y82.745
G1 X58.089 Y82.488
G1 X57.832 Y82.234
G1 X57.497 Y82.130
G1 X57.243 Y81.873
G1 X56.989 Y81.616
G1 X56.735 Y81.359
G1 X56.421 Y81.222
G1 X56.144 Y81.002
G1 X55.890 Y80.745
G1 X55.636 Y80.488
G1 X55.382 Y80.232
G1 X55.128 Y79.975
G1 X54.875 Y79.718
G1 X54.621 Y79.461
G1 X54.367 Y79.204
G1 X54.114 Y78.947
G1 X53.860 Y78.690
G1 X53.607 Y78.434
G1 X53.353 Y78.177
G1 X53.100 Y77.920
G1 X52.900 Y77.631
G1 X52.748 Y77.322
G1 X52.494 Y77.065
G1 X52.241 Y76.808
G1 X51.989 Y76.551
G1 X51.890 Y76.210
G1 X51.636 Y75.953
G1 X51.466 Y75.652
G1 X51.285 Y75.355
G1 X51.033 Y75.097
G1 X50.934 Y74.757
G1 X50.750 Y74.461
G1 X50.583 Y74.159
G1 X50.330 Y73.902
G1 X50.273 Y73.553
G1 X50.147 Y73.234
G1 X50.025 Y72.909
G1 X49.813 Y72.624
G1 X49.797 Y72.263
G1 X49.614 Y71.967
G1 X49.559 Y71.618
G1 X49.432 Y71.298
G1 X49.321 Y70.972
G1 X49.321 Y70.610
G1 X49.166 Y70.302
G1 X49.083 Y69.965
G1 X49.083 Y69.602
G1 X48.900 Y69.306
G1 X48.846 Y68.957
G1 X48.843 Y68.594
G1 X48.640 Y68.306
G1 X48.609 Y67.949
G1 X48.598 Y67.587
G1 X48.387 Y67.302
G1 X48.372 Y66.941
G1 X48.189 Y66.646
G1 X48.136 Y66.296
G1 X48.008 Y65.978
G1 X47.900 Y65.651
G1 X47.828 Y65.309
G1 X47.664 Y65.007
G1 X47.480 Y64.712
G1 X47.428 Y64.362
G1 X47.300 Y64.044
G1 X47.181 Y63.718
G1 X46.971 Y63.434
G1 X46.856 Y63.106
G1 X46.718 Y62.791
G1 X46.516 Y62.504
G1 X46.414 Y62.168
G1 X46.252 Y61.865
G1 X46.068 Y61.572
G1 X45.821 Y61.315
G1 X45.723 Y60.976
G1 X45.550 Y60.679
G1 X45.379 Y60.380
G1 X45.130 Y60.125
G1 X45.034 Y59.785
G1 X44.786 Y59.530
G1 X44.538 Y59.276
G1 X44.381 Y58.973
G1 X44.195 Y58.682
G1 X43.947 Y58.428
G1 X43.707 Y58.169
G1 X43.606 Y57.835
G1 X43.358 Y57.582
G1 X43.111 Y57.329
G1 X42.863 Y57.076
G1 X42.616 Y56.823
G1 X42.369 Y56.571
G1 X42.122 Y56.319
G1 X41.875 Y56.067
G1 X41.628 Y55.816
G1 X41.380 Y55.564
G1 X41.133 Y55.314
G1 X40.886 Y55.063
G1 X40.574 Y54.939
G1 X40.307 Y54.719
G1 X40.059 Y54.469
G1 X39.792 Y54.248
G1 X39.479 Y54.126
G1 X39.231 Y53.876
G1 X38.911 Y53.764
G1 X38.649 Y53.534
G1 X38.381 Y53.316
G1 X38.067 Y53.192
G1 X37.751 Y53.072
G1 X37.473 Y52.865
G1 X37.148 Y52.758
G1 X36.843 Y52.616
G1 X36.560 Y52.420
G1 X36.227 Y52.324
G1 X35.933 Y52.157
G1 X35.577 Y52.141
G1 X35.297 Y51.935
G1 X34.981 Y51.810
G1 X34.663 Y51.690
G1 X34.383 Y51.483
G1 X34.056 Y51.375
G1 X33.748 Y51.237
G1 X33.396 Y51.200
G1 X33.110 Y51.009
G1 X32.804 Y50.860
G1 X32.474 Y50.756
G1 X32.192 Y50.550
G1 X31.875 Y50.423
G1 X31.623 Y50.175
G1 X31.296 Y50.064
G1 X31.014 Y49.855
G1 X30.691 Y49.737
G1 X30.438 Y49.488
G1 X30.185 Y49.239
G1 X29.857 Y49.128
G1 X29.591 Y48.895
G1 X29.314 Y48.726
G1 X29.277 Y49.057
G1 X29.479 Y49.338
G1 X29.623 Y49.643
G1 X29.877 Y49.893
G1 X30.130 Y50.142
G1 X30.383 Y50.391
G1 X30.480 Y50.724
G1 X30.671 Y51.009
G1 X30.656 Y51.364
G1 X30.439 Y51.646
G1 X30.318 Y51.969
G1 X30.178 Y52.280
G1 X30.127 Y52.627
G1 X29.932 Y52.917
G1 X29.916 Y53.273
G1 X29.698 Y53.555
G1 X29.681 Y53.911
G1 X29.678 Y54.268
G1 X29.674 Y54.625
G1 X29.671 Y54.983
G1 X29.667 Y55.340
G1 X29.664 Y55.698
G1 X29.660 Y56.056
G1 X29.846 Y56.344
G1 X29.894 Y56.690
G1 X29.894 Y57.048
G1 X30.099 Y57.329
G1 X30.124 Y57.683
G1 X30.282 Y57.983
G1 X30.357 Y58.319
G1 X30.459 Y58.643
G1 X30.595 Y58.954
G1 X30.800 Y59.236
G1 X30.824 Y59.591
G1 X30.983 Y59.891
G1 X31.085 Y60.223
G1 X31.290 Y60.505
G1 X31.425 Y60.817
G1 X31.540 Y61.141
G1 X31.751 Y61.421
G1 X31.867 Y61.744
G1 X32.002 Y62.057
G1 X32.207 Y62.340
G1 X32.231 Y62.696
G1 X32.391 Y62.996
G1 X32.493 Y63.329
G1 X32.697 Y63.613
G1 X32.833 Y63.925
G1 X32.934 Y64.252
G1 X33.011 Y64.588
G1 X33.168 Y64.891
G1 X33.357 Y65.180
G1 X33.401 Y65.531
G1 X33.535 Y65.843
G1 X33.635 Y66.171
G1 X33.713 Y66.507
G1 X33.869 Y66.811
G1 X33.866 Y67.172
G1 X33.972 Y67.497
G1 X34.100 Y67.812
G1 X34.098 Y68.174
G1 X34.233 Y68.487
G1 X34.332 Y68.815
G1 X34.330 Y69.176
G1 X34.327 Y69.537
G1 X34.406 Y69.874
G1 X34.562 Y70.179
G1 X34.560 Y70.540
G1 X34.558 Y70.902
G1 X34.555 Y71.263
G1 X34.553 Y71.625
G1 X34.551 Y71.987
G1 X34.549 Y72.348
G1 X34.577 Y72.705
G1 X34.781 Y72.991
G1 X34.645 Y73.305
G1 X34.542 Y73.635
G1 X34.540 Y73.997
G1 X34.538 Y74.359
G1 X34.536 Y74.721
G1 X34.534 Y75.083
G1 X34.533 Y75.445
G1 X34.531 Y75.806
G1 X34.447 Y76.144
G1 X34.289 Y76.451
G1 X34.287 Y76.813
G1 X34.284 Y77.175
G1 X34.090 Y77.468
G1 X34.043 Y77.820
G1 X34.036 Y78.182
G1 X33.825 Y78.469
G1 X33.799 Y78.827
G1 X33.631 Y79.130
G1 X33.557 Y79.472
G1 X33.445 Y79.798
G1 X33.310 Y80.117
G1 X33.099 Y80.404
G1 X33.073 Y80.763
G1 X32.904 Y81.065
G1 X32.799 Y81.402
G1 X32.594 Y81.691
G1 X32.449 Y82.004
G1 X32.333 Y82.334
G1 X32.094 Y82.603
G1 X31.873 Y82.882
G1 X31.738 Y83.201
G1 X31.615 Y83.526
G1 X31.383 Y83.799
G1 X31.154 Y84.073
G1 X31.028 Y84.397
G1 X30.896 Y84.717
G1 X30.673 Y84.996
G1 X30.418 Y85.253
G1 X30.189 Y85.527
G1 X30.063 Y85.851
G1 X29.808 Y86.108
G1 X29.552 Y86.365
G1 X29.297 Y86.622
G1 X29.009 Y86.822
G1 X28.651 Y86.815
G1 X28.380 Y86.586
G1 X28.110 Y86.355
G1 X27.788 Y86.233
G1 X27.555 Y85.964
G1 X27.438 Y85.637
G1 X27.184 Y85.383
G1 X27.058 Y85.062
G1 X26.846 Y84.778
G1 X26.736 Y84.447
G1 X26.475 Y84.203
G1 X26.145 Y84.095
G1 X25.891 Y83.840
G1 X25.580 Y83.701
G1 X25.220 Y83.703
G1 X24.861 Y83.701
G1 X24.576 Y83.496
G1 X24.221 Y83.466
G1 X23.916 Y83.626
G1 X23.580 Y83.710
G1 X23.220 Y83.712
G1 X22.926 Y83.900
G1 X22.588 Y84.002
G1 X22.331 Y84.258
G1 X22.035 Y84.440
G1 X21.736 Y84.615
G1 X21.480 Y84.872
G1 X21.305 Y85.173
G1 X21.124 Y85.470
G1 X20.869 Y85.728
G1 X20.767 Y86.068
G1 X20.580 Y86.363
G1 X20.578 Y86.724
G1 X20.577 Y87.086
G1 X20.575 Y87.448
G1 X20.574 Y87.810
G1 X20.587 Y88.170
G1 X20.801 Y88.453
G1 X20.921 Y88.777
G1 X21.044 Y89.094
G1 X20.770 Y89.269
G1 X20.410 Y89.270
G1 X20.050 Y89.272
G1 X19.689 Y89.273
G1 X19.369 Y89.155
G1 X19.049 Y89.034
G1 X18.689 Y89.036
G1 X18.328 Y89.037
G1 X17.984 Y88.976
G1 X17.688 Y88.799
G1 X17.328 Y88.800
G1 X16.995 Y88.710
G1 X16.687 Y88.560
G1 X16.400 Y88.360
G1 X16.064 Y88.259
G1 X15.767 Y88.083
G1 X15.471 Y87.907
G1 X15.134 Y87.807
G1 X14.878 Y87.554
G1 X14.586 Y87.365
G1 X14.285 Y87.202
G1 X14.031 Y86.947
G1 X13.777 Y86.693
G1 X13.523 Y86.438
G1 X13.269 Y86.184
G1 X13.129 Y85.871
G1 X12.917 Y85.590
G1 X12.674 Y85.327
G1 X12.565 Y84.996
G1 X12.311 Y84.741
G1 X12.172 Y84.427
G1 X11.966 Y84.142
G1 X11.862 Y83.808
G1 X11.699 Y83.505
G1 X11.510 Y83.214
G1 X11.259 Y82.957
G1 X11.159 Y82.620
G1 X10.983 Y82.323
G1 X10.807 Y82.026
G1 X10.553 Y81.772
G1 X10.299 Y81.518
G1 X10.052 Y81.258
G1 X9.947 Y80.924
G1 X9.693 Y80.670
G1 X9.439 Y80.416
G1 X9.184 Y80.162
G1 X8.912 Y79.934
G1 X8.591 Y79.810
G1 X8.336 Y79.556
G1 X8.082 Y79.302
G1 X7.753 Y79.190
G1 X7.488 Y78.950
G1 X7.210 Y78.734
G1 X6.894 Y78.599
G1 X6.570 Y78.480
G1 X6.287 Y78.266
G1 X5.961 Y78.149
G1 X5.706 Y77.895
G1 X5.386 Y77.768
G1 X5.103 Y77.556
G1 X4.744 Y77.537
G1 X4.446 Y77.363
G1 X4.192 Y77.109
G1 X3.852 Y77.011
G1 X3.561 Y76.821
G1 X3.258 Y76.659
G1 X3.003 Y76.405
G1 X2.665 Y76.305
G1 X2.408 Y76.054
G1 X2.154 Y75.800
G1 X2.055 Y75.462
G1 X1.801 Y75.207
G1 X1.621 Y74.912
G1 X1.605 Y74.554
G1 X1.391 Y74.271
G1 X1.383 Y73.911
G1 X1.385 Y73.551
G1 X1.386 Y73.190
G1 X1.388 Y72.830
G1 X1.390 Y72.469
G1 X1.590 Y72.180
G1 X1.633 Y71.827
G1 X1.780 Y71.516
G1 X1.877 Y71.185
G1 X1.967 Y70.851
G1 X2.122 Y70.543
G1 X2.322 Y70.254
G1 X2.425 Y69.916
G1 X2.682 Y69.661
G1 X2.849 Y69.358
G1 X3.040 Y69.065
G1 X3.294 Y68.808
G1 X3.397 Y68.470
G1 X3.654 Y68.215
G1 X3.911 Y67.959
G1 X4.175 Y67.713
G1 X4.509 Y67.603
G1 X4.817 Y67.447
G1 X5.173 Y67.478
G1 X5.286 Y67.803
G1 X5.499 Y68.086
G1 X5.627 Y68.405
G1 X5.882 Y68.658
G1 X6.136 Y68.912
G1 X6.245 Y69.241
G1 X6.489 Y69.504
G1 X6.743 Y69.757
G1 X7.077 Y69.863
G1 X7.338 Y70.108
G1 X7.592 Y70.362
G1 X7.882 Y70.554
G1 X8.186 Y70.713
G1 X8.524 Y70.792
G1 X8.852 Y70.893
G1 X9.166 Y71.029
G1 X9.527 Y71.027
G1 X9.843 Y71.157
G1 X10.169 Y71.264
G1 X10.530 Y71.262
G1 X10.890 Y71.272
G1 X11.173 Y71.486
G1 X11.533 Y71.498
G1 X11.894 Y71.496
G1 X12.221 Y71.598
G1 X12.535 Y71.733
G1 X12.897 Y71.731
G1 X13.257 Y71.733
G1 X13.542 Y71.939
G1 X13.899 Y71.966
G1 X14.202 Y72.126
G1 X14.535 Y72.230
G1 X14.820 Y72.437
G1 X15.134 Y72.574
G1 X15.459 Y72.691
G1 X15.727 Y72.924
G1 X15.981 Y73.178
G1 X16.094 Y73.505
G1 X16.332 Y73.770
G1 X16.503 Y74.047
G1 X16.246 Y74.303
G1 X16.175 Y74.581
G1 X16.429 Y74.835
G1 X16.699 Y75.065
G1 X17.059 Y75.074
G1 X17.419 Y75.072
G1 X17.744 Y74.959
G1 X18.062 Y74.823
G1 X18.235 Y74.549
G1 X17.990 Y74.346
G1 X17.632 Y74.326
G1 X17.506 Y74.012
G1 X17.293 Y73.730
G1 X17.176 Y73.405
G1 X17.038 Y73.092
G1 X16.826 Y72.813
G1 X16.572 Y72.559
G1 X16.318 Y72.306
G1 X16.064 Y72.052
G1 X15.737 Y71.939
G1 X15.455 Y71.726
G1 X15.132 Y71.604
G1 X14.815 Y71.473
G1 X14.532 Y71.264
G1 X14.174 Y71.243
G1 X13.875 Y71.073
G1 X13.533 Y71.006
G1 X13.172 Y71.007
G1 X12.883 Y70.811
G1 X12.530 Y70.771
G1 X12.169 Y70.773
G1 X11.822 Y70.716
G1 X11.528 Y70.536
G1 X11.166 Y70.538
G1 X10.805 Y70.539
G1 X10.506 Y70.369
G1 X10.163 Y70.302
G1 X9.802 Y70.303
G1 X9.513 Y70.107
G1 X9.160 Y70.067
G1 X8.849 Y69.925
G1 X8.520 Y69.813
G1 X8.237 Y69.600
G1 X7.915 Y69.477
G1 X7.661 Y69.223
G1 X7.439 Y68.948
G1 X7.572 Y68.649
G1 X7.932 Y68.633
G1 X8.226 Y68.443
G1 X8.577 Y68.390
G1 X8.938 Y68.388
G1 X9.300 Y68.387
G1 X9.661 Y68.385
G1 X10.023 Y68.383
G1 X10.384 Y68.382
G1 X10.735 Y68.428
G1 X11.026 Y68.618
G1 X11.329 Y68.778
G1 X11.663 Y68.882
G1 X11.948 Y69.089
G1 X12.263 Y69.225
G1 X12.588 Y69.343
G1 X12.871 Y69.556
G1 X13.196 Y69.673
G1 X13.511 Y69.806
G1 X13.861 Y69.854
G1 X14.152 Y70.042
G1 X14.511 Y70.054
G1 X14.794 Y70.267
G1 X15.154 Y70.278
G1 X15.445 Y70.467
G1 X15.795 Y70.514
G1 X16.155 Y70.516
G1 X16.439 Y70.723
G1 X16.796 Y70.749
G1 X17.157 Y70.746
G1 X17.518 Y70.744
G1 X17.878 Y70.742
G1 X18.239 Y70.740
G1 X18.600 Y70.738
G1 X18.960 Y70.736
G1 X19.321 Y70.734
G1 X19.682 Y70.732
G1 X20.042 Y70.729
G1 X20.403 Y70.727
G1 X20.763 Y70.725
G1 X21.123 Y70.723
G1 X21.427 Y70.557
G1 X21.766 Y70.479
G1 X22.126 Y70.476
G1 X22.487 Y70.474
G1 X22.811 Y70.579
G1 X23.126 Y70.710
G1 X23.486 Y70.708
G1 X23.846 Y70.710
G1 X24.129 Y70.918
G1 X24.461 Y71.022
G1 X24.764 Y71.181
G1 X25.053 Y71.371
G1 X25.390 Y71.469
G1 X25.643 Y71.723
G1 X25.896 Y71.976
G1 X26.149 Y72.230
G1 X26.401 Y72.483
G1 X26.635 Y72.751
G1 X26.751 Y73.076
G1 X26.888 Y73.390
G1 X27.094 Y73.675
G1 X27.197 Y74.009
G1 X27.358 Y74.311
G1 X27.383 Y74.668
G1 X27.590 Y74.953
G1 X27.592 Y75.314
G1 X27.590 Y75.675
G1 X27.722 Y75.990
G1 X27.826 Y76.317
G1 X27.824 Y76.678
G1 X27.835 Y77.038
G1 X28.057 Y77.009
G1 X28.068 Y76.648
G1 X28.274 Y76.359
G1 X28.308 Y76.003
G1 X28.310 Y75.642
G1 X28.312 Y75.280
G1 X28.314 Y74.919
G1 X28.316 Y74.558
G1 X28.163 Y74.252
G1 X28.081 Y73.916
G1 X28.083 Y73.555
G1 X27.900 Y73.262
G1 X27.803 Y72.923
G1 X27.610 Y72.634
G1 X27.455 Y72.329
G1 X27.202 Y72.076
G1 X27.101 Y71.740
G1 X26.853 Y71.483
G1 X26.660 Y71.194
G1 X26.662 Y70.834
G1 X26.664 Y70.473
G1 X26.667 Y70.112
G1 X26.669 Y69.751
G1 X26.672 Y69.391
G1 X26.674 Y69.030
G1 X26.677 Y68.669
G1 X26.606 Y68.330
G1 X26.441 Y68.030
G1 X26.444 Y67.669
G1 X26.345 Y67.342
G1 X26.209 Y67.030
G1 X26.165 Y66.680
G1 X25.974 Y66.391
G1 X25.965 Y66.032
G1 X25.753 Y65.751
G1 X25.638 Y65.425
G1 X25.499 Y65.114
G1 X25.295 Y64.830
G1 X25.268 Y64.475
G1 X25.110 Y64.173
G1 X25.006 Y63.841
G1 X24.799 Y63.558
G1 X24.665 Y63.245
G1 X24.547 Y62.922
G1 X24.315 Y62.655
G1 X24.091 Y62.384
G1 X23.966 Y62.065
G1 X23.839 Y61.748
G1 X23.629 Y61.467
G1 X23.520 Y61.138
G1 X23.372 Y60.832
G1 X23.170 Y60.549
G1 X22.924 Y60.292
G1 X22.820 Y59.960
G1 X22.660 Y59.659
G1 X22.471 Y59.371
G1 X22.373 Y59.035
G1 X22.186 Y58.745
G1 X22.023 Y58.446
G1 X21.770 Y58.194
G1 X21.671 Y57.859
G1 X21.473 Y57.574
G1 X21.322 Y57.269
G1 X21.213 Y56.941
G1 X21.002 Y56.660
G1 X20.874 Y56.344
G1 X20.758 Y56.025
G1 X20.694 Y55.684
G1 X20.521 Y55.389
G1 X20.342 Y55.096
G1 X20.243 Y54.762
G1 X20.046 Y54.476
G1 X20.037 Y54.119
G1 X19.824 Y53.839
G1 X19.809 Y53.483
G1 X19.628 Y53.191
G1 X19.571 Y52.848
G1 X19.447 Y52.532
G1 X19.333 Y52.213
G1 X19.265 Y51.874
G1 X19.094 Y51.578
G1 X19.096 Y51.220
G1 X19.000 Y50.893
G1 X18.857 Y50.586
G1 X18.859 Y50.228
G1 X18.860 Y49.871
G1 X18.819 Y49.522
G1 X18.622 Y49.236
G1 X18.622 Y48.879
G1 X18.623 Y48.522
G1 X18.624 Y48.164
G1 X18.626 Y47.807
G1 X18.617 Y47.451
G1 X18.402 Y47.171
G1 X18.387 Y46.816
G1 X18.387 Y46.458
G1 X18.388 Y46.101
G1 X18.412 Y45.747
G1 X18.625 Y45.466
G1 X18.632 Y45.109
G1 X18.632 Y44.752
G1 X18.633 Y44.395
G1 X18.633 Y44.038
G1 X18.636 Y43.682
G1 X18.842 Y43.398
G1 X18.876 Y43.047
G1 X18.886 Y42.691
G1 X19.102 Y42.410
G1 X19.118 Y42.055
G1 X19.303 Y41.764
G1 X19.360 Y41.421
G1 X19.488 Y41.106
G1 X19.601 Y40.786
G1 X19.673 Y40.449
G1 X19.843 Y40.152
G1 X20.028 Y39.861
G1 X20.128 Y39.527
G1 X20.324 Y39.240
G1 X20.482 Y38.939
G1 X20.590 Y38.610
G1 X20.837 Y38.352
G1 X21.045 Y38.072
G1 X21.192 Y37.765
G1 X21.305 Y37.440
G1 X21.546 Y37.178
G1 X21.801 Y36.927
G1 X22.008 Y36.647
G1 X22.155 Y36.340
G1 X22.410 Y36.089
G1 X22.666 Y35.838
G1 X22.921 Y35.587
G1 X23.020 Y35.253
G1 X23.274 Y35.001
G1 X23.529 Y34.750
G1 X23.784 Y34.500
G1 X24.038 Y34.249
G1 X24.293 Y33.998
G1 X24.548 Y33.747
G1 X24.825 Y33.532
G1 X25.142 Y33.401
G1 X25.396 Y33.151
G1 X25.651 Y32.900
G1 X25.984 Y32.796
G1 X26.244 Y32.554
G1 X26.522 Y32.417
G1 X26.777 Y32.672
G1 X26.819 Y33.022
G1 X26.821 Y33.378
G1 X26.824 Y33.734
G1 X26.826 Y34.090
G1 X26.828 Y34.446
G1 X26.838 Y34.802
G1 X27.053 Y35.083
G1 X27.076 Y35.436
G1 X27.097 Y35.790
G1 X27.312 Y36.070
G1 X27.323 Y36.425
G1 X27.362 Y36.774
G1 X27.566 Y37.058
G1 X27.717 Y37.363
G1 X27.831 Y37.688
G1 X28.076 Y37.950
G1 X28.296 Y37.841
G1 X28.138 Y37.539
G1 X28.052 Y37.208
G1 X28.050 Y36.854
G1 X28.024 Y36.502
G1 X27.811 Y36.220
G1 X27.803 Y35.865
G1 X27.801 Y35.510
G1 X27.796 Y35.155
G1 X27.588 Y34.871
G1 X27.554 Y34.521
G1 X27.551 Y34.165
G1 X27.549 Y33.809
G1 X27.546 Y33.453
G1 X27.543 Y33.097
G1 X27.541 Y32.741
G1 X27.538 Y32.384
G1 X27.535 Y32.028
G1 X27.605 Y31.692
G1 X27.771 Y31.396
G1 X27.768 Y31.039
G1 X27.765 Y30.682
G1 X27.786 Y30.329
G1 X27.995 Y30.049
G1 X28.000 Y29.692
G1 X28.204 Y29.410
G1 X28.232 Y29.058
G1 X28.387 Y28.757
G1 X28.491 Y28.428
G1 X28.699 Y28.148
G1 X28.704 Y27.790
G1 X28.908 Y27.509
G1 X29.009 Y27.177
G1 X29.172 Y26.879
G1 X29.357 Y26.590
G1 X29.453 Y26.254
G1 X29.704 Y26.003
G1 X29.881 Y25.710
G1 X30.052 Y25.415
G1 X30.150 Y25.081
G1 X30.350 Y24.797
G1 X30.494 Y24.490
G1 X30.585 Y24.161
G1 X30.671 Y23.830
G1 X30.818 Y23.524
G1 X30.851 Y23.172
G1 X31.050 Y22.887
G1 X31.048 Y22.528
G1 X31.107 Y22.185
G1 X31.282 Y21.890
G1 X31.278 Y21.531
G1 X31.275 Y21.171
G1 X31.272 Y20.811
G1 X31.269 Y20.451
G1 X31.284 Y20.093
G1 X31.494 Y19.812
G1 X31.499 Y19.452
G1 X31.496 Y19.092
G1 X31.493 Y18.731
G1 X31.491 Y18.371
G1 X31.488 Y18.010
G1 X31.485 Y17.650
G1 X31.482 Y17.289
G1 X31.442 Y16.935
G1 X31.240 Y16.645
G1 X31.235 Y16.285
G1 X31.233 Y15.924
G1 X31.230 Y15.563
G1 X31.165 Y15.218
G1 X30.986 Y14.919
G1 X30.984 Y14.558
G1 X30.890 Y14.225
G1 X30.738 Y13.914
G1 X30.536 Y13.625
G1 X30.433 Y13.287
G1 X30.255 Y12.988
G1 X30.076 Y12.689
G1 X29.973 Y12.350
G1 X29.720 Y12.091
G1 X29.464 Y11.834
G1 X29.209 Y11.577
G1 X28.953 Y11.320
G1 X28.689 Y11.074
G1 X28.333 Y11.050
G1 X27.975 Y11.030
G1 X27.691 Y10.814
G1 X27.332 Y10.803
G1 X26.973 Y10.800
G1 X26.613 Y10.798
G1 X26.260 Y10.761
G1 X25.972 Y10.556
G1 X25.613 Y10.545
G1 X25.328 Y10.331
G1 X24.971 Y10.307
G1 X24.672 Y10.131
G1 X24.335 Y10.027
G1 X24.047 Y9.822
G1 X23.737 Y9.672
G1 X23.481 Y9.416
G1 X23.225 Y9.159
G1 X22.969 Y8.902
G1 X22.713 Y8.645
G1 X22.457 Y8.389
G1 X22.311 Y8.076
G1 X22.104 Y7.788
G1 X22.070 Y7.432
G1 X22.247 Y7.222
G1 X22.543 Y7.405
G1 X22.842 Y7.579
G1 X23.185 Y7.650
G1 X23.507 Y7.767
G1 X23.826 Y7.894
G1 X24.186 Y7.896
G1 X24.546 Y7.905
G1 X24.831 Y8.119
G1 X25.162 Y8.231
G1 X25.469 Y8.385
G1 X25.823 Y8.422
G1 X26.103 Y8.560
G1 X25.929 Y8.282
G1 X25.673 Y8.025
G1 X25.417 Y7.768
G1 X25.195 Y7.489
G1 X25.061 Y7.170
G1 X24.947 Y6.845
G1 X24.873 Y6.503
G1 X24.703 Y6.201
G1 X24.701 Y5.840
G1 X24.699 Y5.478
G1 X24.920 Y5.251
G1 X25.222 Y5.417
G1 X25.478 Y5.674
G1 X25.734 Y5.930
G1 X26.073 Y6.032
G1 X26.329 Y6.289
G1 X26.627 Y6.464
G1 X26.923 Y6.647
G1 X27.261 Y6.749
G1 X27.550 Y6.950
G1 X27.908 Y6.962
G1 X28.192 Y7.178
G1 X28.550 Y7.198
G1 X28.907 Y7.221
G1 X29.191 Y7.435
G1 X29.550 Y7.444
G1 X29.909 Y7.446
G1 X30.227 Y7.573
G1 X30.549 Y7.690
G1 X30.908 Y7.692
G1 X31.267 Y7.694
G1 X31.608 Y7.765
G1 X31.907 Y7.939
G1 X32.263 Y7.963
G1 X32.547 Y8.177
G1 X32.864 Y8.311
G1 X33.119 Y8.568
G1 X33.374 Y8.825
G1 X33.578 Y9.113
G1 X33.582 Y9.475
G1 X33.647 Y9.820
G1 X33.824 Y10.119
G1 X33.826 Y10.481
G1 X33.829 Y10.843
G1 X33.831 Y11.204
G1 X33.833 Y11.566
G1 X33.835 Y11.928
G1 X33.929 Y12.261
G1 X34.078 Y12.572
G1 X34.118 Y12.927
G1 X34.319 Y13.217
G1 X34.471 Y13.527
G1 X34.583 Y13.859
G1 X34.797 Y14.145
G1 X34.927 Y14.466
G1 X35.047 Y14.789
G1 X35.114 Y15.134
G1 X35.290 Y15.434
G1 X35.313 Y15.793
G1 X35.526 Y16.079
G1 X35.657 Y16.399
G1 X35.776 Y16.723
G1 X35.844 Y17.067
G1 X36.019 Y17.367
G1 X36.043 Y17.726
G1 X36.256 Y18.012
G1 X36.267 Y18.373
G1 X36.471 Y18.662
G1 X36.509 Y19.017
G1 X36.662 Y19.326
G1 X36.752 Y19.661
G1 X36.755 Y20.022
G1 X36.937 Y20.320
G1 X36.999 Y20.666
G1 X37.004 Y21.027
G1 X37.208 Y21.316
G1 X37.246 Y21.671
G1 X37.258 Y22.031
G1 X37.473 Y22.317
G1 X37.493 Y22.676
G1 X37.519 Y23.033
G1 X37.731 Y23.320
G1 X37.741 Y23.680
G1 X37.786 Y24.032
G1 X37.984 Y24.323
G1 X37.989 Y24.683
G1 X37.993 Y25.043
G1 X38.007 Y25.403
G1 X38.222 Y25.688
G1 X38.243 Y26.046
G1 X38.247 Y26.406
G1 X38.347 Y26.736
G1 X38.492 Y27.048
G1 X38.497 Y27.408
G1 X38.502 Y27.767
G1 X38.507 Y28.126
G1 X38.636 Y28.444
G1 X38.753 Y28.767
G1 X38.758 Y29.126
G1 X38.763 Y29.484
G1 X38.769 Y29.842
G1 X38.774 Y30.200
G1 X38.780 Y30.558
G1 X38.786 Y30.915
G1 X38.792 Y31.272
G1 X38.798 Y31.629
G1 X38.804 Y31.986
G1 X38.810 Y32.342
G1 X38.816 Y32.697
G1 X38.668 Y32.997
G1 X38.589 Y33.325
G1 X38.595 Y33.680
G1 X38.602 Y34.034
G1 X38.510 Y34.356
G1 X38.374 Y34.660
G1 X38.380 Y35.013
G1 X38.259 Y35.322
G1 X38.152 Y35.636
G1 X38.087 Y35.968
G1 X37.923 Y36.258
G1 X37.904 Y36.606
G1 X37.698 Y36.880
G1 X37.694 Y37.230
G1 X37.493 Y37.506
G1 X37.393 Y37.830
G1 X37.227 Y38.120
G1 X37.255 Y38.467
G1 X37.524 Y38.412
G1 X37.710 Y38.131
G1 X37.871 Y37.840
G1 X38.123 Y37.596
G1 X38.219 Y37.270
G1 X38.414 Y36.993
G1 X38.562 Y36.696
G1 X38.666 Y36.375
G1 X38.872 Y36.102
G1 X38.997 Y35.794
G1 X39.107 Y35.481
G1 X39.168 Y35.148
G1 X39.333 Y34.858
G1 X39.327 Y34.505
G1 X39.416 Y34.182
G1 X39.553 Y33.880
G1 X39.546 Y33.525
G1 X39.539 Y33.170
G1 X39.573 Y32.823
G1 X39.764 Y32.541
G1 X39.758 Y32.185
G1 X39.752 Y31.828
G1 X39.746 Y31.472
G1 X39.739 Y31.114
G1 X39.733 Y30.757
G1 X39.728 Y30.399
G1 X39.722 Y30.041
G1 X39.716 Y29.683
G1 X39.711 Y29.324
G1 X39.706 Y28.965
G1 X39.700 Y28.606
G1 X39.628 Y28.264
G1 X39.454 Y27.964
G1 X39.450 Y27.605
G1 X39.445 Y27.245
G1 X39.440 Y26.885
G1 X39.341 Y26.554
G1 X39.195 Y26.242
G1 X39.191 Y25.882
G1 X39.185 Y25.522
G1 X38.980 Y25.233
G1 X38.943 Y24.879
G1 X38.939 Y24.518
G1 X38.935 Y24.158
G1 X38.779 Y23.849
G1 X38.691 Y23.514
G1 X38.687 Y23.153
G1 X38.706 Y22.796
G1 X38.946 Y22.535
G1 X39.274 Y22.446
G1 X39.630 Y22.449
G1 X39.986 Y22.452
G1 X40.342 Y22.455
G1 X40.697 Y22.458
G1 X41.053 Y22.461
G1 X41.345 Y22.287
G1 X41.683 Y22.226
G1 X42.038 Y22.228
G1 X42.394 Y22.231
G1 X42.749 Y22.234
G1 X43.103 Y22.236
G1 X43.458 Y22.238
G1 X43.813 Y22.241
G1 X44.167 Y22.243
G1 X44.522 Y22.245
G1 X44.876 Y22.247
G1 X45.230 Y22.248
G1 X45.584 Y22.250
G1 X45.938 Y22.251
G1 X46.292 Y22.253
G1 X46.646 Y22.254
G1 X47.000 Y22.255
G1 X47.347 Y22.294
G1 X47.433 Y22.629
G1 X47.434 Y22.992
G1 X47.435 Y23.354
G1 X47.338 Y23.685
G1 X47.201 Y23.999
G1 X47.202 Y24.361
G1 X47.203 Y24.724
G1 X47.161 Y25.077
G1 X46.971 Y25.368
G1 X46.972 Y25.730
G1 X46.973 Y26.093
G1 X46.975 Y26.455
G1 X46.976 Y26.818
G1 X46.978 Y27.180
G1 X46.979 Y27.543
G1 X46.992 Y27.904
G1 X47.201 Y28.190
G1 X47.218 Y28.551
G1 X47.220 Y28.913
G1 X47.222 Y29.276
G1 X47.403 Y29.572
G1 X47.458 Y29.922
G1 X47.463 Y30.284
G1 X47.663 Y30.573
G1 X47.696 Y30.930
G1 X47.849 Y31.238
G1 X47.954 Y31.573
G1 X48.157 Y31.860
G1 X48.288 Y32.179
G1 X48.406 Y32.505
G1 X48.629 Y32.777
G1 X48.872 Y33.034
G1 X49.079 Y33.315
G1 X49.209 Y33.632
G1 X49.450 Y33.889
G1 X49.716 Y34.100
G1 X50.011 Y34.242
G1 X50.250 Y34.496
G1 X50.488 Y34.749
G1 X50.803 Y34.849
G1 X51.070 Y35.050
G1 X51.410 Y35.052
G1 X51.676 Y35.257
G1 X52.015 Y35.273
G1 X52.356 Y35.279
G1 X52.621 Y35.485
G1 X52.965 Y35.485
G1 X53.312 Y35.475
G1 X53.660 Y35.464
G1 X53.944 Y35.262
G1 X53.990 Y35.000
G1 X53.644 Y34.990
G1 X53.296 Y34.999
G1 X52.950 Y35.009
G1 X52.669 Y34.840
G1 X52.341 Y34.785
G1 X52.038 Y34.672
G1 X51.735 Y34.551
G1 X51.469 Y34.343
G1 X51.157 Y34.236
G1 X50.919 Y33.984
G1 X50.621 Y33.849
G1 X50.357 Y33.634
G1 X50.117 Y33.380
G1 X49.876 Y33.125
G1 X49.762 Y32.800
G1 X49.540 Y32.529
G1 X49.323 Y32.254
G1 X49.202 Y31.931
G1 X49.078 Y31.610
G1 X48.874 Y31.324
G1 X48.767 Y30.992
G1 X48.620 Y30.682
G1 X48.427 Y30.391
G1 X48.388 Y30.036
G1 X48.380 Y29.674
G1 X48.174 Y29.388
G1 X48.153 Y29.028
G1 X48.152 Y28.665
G1 X48.151 Y28.302
G1 X48.132 Y27.942
G1 X47.924 Y27.656
G1 X47.915 Y27.294
G1 X47.914 Y26.932
G1 X47.913 Y26.569
G1 X47.912 Y26.206
G1 X47.913 Y25.844
G1 X48.108 Y25.555
G1 X48.145 Y25.199
G1 X48.144 Y24.837
G1 X48.144 Y24.474
G1 X48.151 Y24.112
G1 X48.359 Y23.827
G1 X48.378 Y23.466
G1 X48.396 Y23.106
G1 X48.605 Y22.821
G1 X48.614 Y22.459
G1 X48.811 Y22.170
G1 X48.848 Y21.814
G1 X48.994 Y21.503
G1 X49.084 Y21.169
G1 X49.175 Y20.835
G1 X49.322 Y20.524
G1 X49.520 Y20.234
G1 X49.556 Y19.878
G1 X49.704 Y19.568
G1 X49.813 Y19.235
G1 X50.023 Y18.950
G1 X50.150 Y18.628
G1 X50.276 Y18.306
G1 X50.486 Y18.020
G1 X50.598 Y17.689
G1 X50.849 Y17.432
G1 X50.984 Y17.114
G1 X51.199 Y16.834
G1 X51.437 Y16.566
G1 X51.550 Y16.235
G1 X51.802 Y15.978
G1 X51.936 Y15.660
G1 X52.152 Y15.380
G1 X52.405 Y15.123
G1 X52.657 Y14.866
G1 X52.910 Y14.609
G1 X53.162 Y14.352
G1 X53.415 Y14.095
G1 X53.668 Y13.838
G1 X53.921 Y13.581
G1 X54.174 Y13.324
G1 X54.427 Y13.067
G1 X54.695 Y12.831
G1 X55.016 Y12.709
G1 X55.269 Y12.452
G1 X55.523 Y12.195
G1 X55.776 Y11.938
G1 X56.104 Y11.826
G1 X56.366 Y11.580
G1 X56.620 Y11.323
G1 X56.873 Y11.066
G1 X57.127 Y10.809
G1 X56.901 Y10.635
G1 X56.617 Y10.435
G1 X56.266 Y10.397
G1 X55.909 Y10.398
G1 X55.552 Y10.400
G1 X55.194 Y10.401
G1 X54.837 Y10.402
G1 X54.480 Y10.403
G1 X54.123 Y10.403
G1 X53.766 Y10.397
G1 X53.485 Y10.183
G1 X53.130 Y10.164
G1 X52.773 Y10.165
G1 X52.416 Y10.165
G1 X52.059 Y10.166
G1 X51.702 Y10.166
G1 X51.345 Y10.167
G1 X50.988 Y10.167
G1 X50.633 Y10.148
G1 X50.352 Y9.934
G1 X49.996 Y9.926
G1 X49.638 Y9.926
G1 X49.281 Y9.924
G1 X48.996 Y9.722
G1 X48.646 Y9.684
G1 X48.290 Y9.676
G1 X48.008 Y9.462
G1 X47.682 Y9.349
G1 X47.375 Y9.200
G1 X47.025 Y9.161
G1 X46.739 Y8.959
G1 X46.433 Y8.807
G1 X46.180 Y8.550
G1 X45.849 Y8.444
G1 X45.591 Y8.193
G1 X45.338 Y7.936
G1 X45.084 Y7.680
G1 X44.831 Y7.423
G1 X44.578 Y7.166
G1 X44.324 Y6.909
G1 X44.090 Y6.639
G1 X44.186 Y6.320
G1 X44.540 Y6.296
G1 X44.898 Y6.297
G1 X45.256 Y6.297
G1 X45.613 Y6.298
G1 X45.947 Y6.382
G1 X46.200 Y6.639
G1 X46.453 Y6.896
G1 X46.706 Y7.152
G1 X46.959 Y7.409
G1 X47.285 Y7.525
G1 X47.566 Y7.740
G1 X47.885 Y7.865
G1 X48.078 Y7.818
G1 X47.825 Y7.561
G1 X47.489 Y7.461
G1 X47.235 Y7.205
G1 X46.983 Y6.947
G1 X46.884 Y6.607
G1 X46.699 Y6.312
G1 X46.532 Y6.009
G1 X46.460 Y5.666
G1 X46.349 Y5.340
G1 X46.221 Y5.021
G1 X46.220 Y4.658
G1 X46.378 Y4.373
G1 X46.696 Y4.485
G1 X47.014 Y4.615
G1 X47.295 Y4.829
G1 X47.651 Y4.849
G1 X47.946 Y5.027
G1 X48.288 Y5.091
G1 X48.645 Y5.093
G1 X48.931 Y5.295
G1 X49.265 Y5.397
G1 X49.518 Y5.654
G1 X49.819 Y5.817
G1 X50.108 Y6.009
G1 X50.444 Y6.007
G1 X50.308 Y5.728
G1 X50.063 Y5.466
G1 X49.957 Y5.131
G1 X49.798 Y4.824
G1 X49.607 Y4.532
G1 X49.560 Y4.179
G1 X49.424 Y3.864
G1 X49.322 Y3.534
G1 X49.404 Y3.197
G1 X49.740 Y3.218
G1 X49.993 Y3.475
G1 X50.246 Y3.731
G1 X50.499 Y3.987
G1 X50.752 Y4.244
G1 X51.005 Y4.500
G1 X51.258 Y4.756
G1 X51.511 Y5.012
G1 X51.842 Y5.118
G1 X52.125 Y5.327
G1 X52.437 Y5.467
G1 X52.760 Y5.586
G1 X53.041 Y5.801
G1 X53.363 Y5.921
G1 X53.676 Y6.055
G1 X54.022 Y6.105
G1 X54.312 Y6.295
G1 X54.668 Y6.308
G1 X54.949 Y6.523
G1 X55.306 Y6.535
G1 X55.659 Y6.563
G1 X55.942 Y6.771
G1 X56.299 Y6.774
G1 X56.657 Y6.773
G1 X56.968 Y6.909
G1 X57.293 Y7.012
G1 X57.651 Y7.011
G1 X58.008 Y7.024
G1 X58.288 Y7.239
G1 X58.645 Y7.250
G1 X59.003 Y7.248
G1 X59.326 Y7.357
G1 X59.640 Y7.487
G1 X59.998 Y7.486
G1 X60.356 Y7.489
G1 X60.638 Y7.699
G1 X60.992 Y7.723
G1 X61.291 Y7.889
G1 X61.482 Y8.180
G1 X61.640 Y8.484
G1 X61.745 Y8.819
G1 X61.951 Y9.104
G1 X61.954 Y9.466
G1 X61.905 Y9.817
G1 X61.713 Y10.111
G1 X61.551 Y10.416
G1 X61.444 Y10.752
G1 X61.196 Y11.015
G1 X60.942 Y11.272
G1 X60.751 Y11.565
G1 X60.587 Y11.870
G1 X60.333 Y12.128
G1 X60.079 Y12.385
G1 X59.979 Y12.726
G1 X59.789 Y13.020
G1 X59.774 Y13.381
G1 X59.559 Y13.666
G1 X59.545 Y14.027
G1 X59.543 Y14.389
G1 X59.648 Y14.716
G1 X59.778 Y15.032
G1 X59.776 Y15.393
G1 X59.778 Y15.755
G1 X59.983 Y16.040
G1 X60.008 Y16.397
G1 X60.169 Y16.699
G1 X60.241 Y17.039
G1 X60.347 Y17.365
G1 X60.475 Y17.680
G1 X60.524 Y18.030
G1 X60.709 Y18.322
G1 X60.720 Y18.681
G1 X60.930 Y18.964
G1 X60.940 Y19.324
G1 X61.128 Y19.613
G1 X61.172 Y19.964
G1 X61.174 Y20.325
G1 X61.379 Y20.608
G1 X61.402 Y20.965
G1 X61.413 Y21.324
G1 X61.623 Y21.606
G1 X61.631 Y21.965
G1 X61.627 Y22.326
G1 X61.624 Y22.686
G1 X61.813 Y22.974
G1 X61.855 Y23.324
G1 X61.852 Y23.685
G1 X61.848 Y24.045
G1 X61.844 Y24.404
G1 X61.840 Y24.764
G1 X61.836 Y25.124
G1 X61.832 Y25.483
G1 X61.833 Y25.843
G1 X62.038 Y26.124
G1 X62.059 Y26.479
G1 X62.054 Y26.838
G1 X62.050 Y27.197
G1 X62.236 Y27.379
G1 X62.291 Y27.031
G1 X62.426 Y26.715
G1 X62.537 Y26.390
G1 X62.542 Y26.030
G1 X62.546 Y25.671
G1 X62.625 Y25.333
G1 X62.791 Y25.029
G1 X62.795 Y24.670
G1 X62.799 Y24.310
G1 X62.803 Y23.950
G1 X62.807 Y23.591
G1 X62.784 Y23.235
G1 X62.579 Y22.952
G1 X62.579 Y22.592
G1 X62.582 Y22.232
G1 X62.585 Y21.872
G1 X62.589 Y21.511
G1 X62.459 Y21.197
G1 X62.356 Y20.872
G1 X62.359 Y20.512
G1 X62.350 Y20.152
G1 X62.140 Y19.870
G1 X62.130 Y19.511
G1 X62.105 Y19.154
G1 X61.901 Y18.870
G1 X61.895 Y18.510
G1 X61.691 Y18.226
G1 X61.666 Y17.869
G1 X61.681 Y17.509
G1 X61.916 Y17.237
G1 X62.171 Y16.980
G1 X62.386 Y16.698
G1 X62.526 Y16.382
G1 X62.781 Y16.125
G1 X63.036 Y15.867
G1 X63.291 Y15.610
G1 X63.546 Y15.353
G1 X63.801 Y15.096
G1 X64.056 Y14.838
G1 X64.311 Y14.581
G1 X64.566 Y14.324
G1 X64.821 Y14.067
G1 X65.077 Y13.809
G1 X65.332 Y13.552
G1 X65.587 Y13.296
G1 X65.925 Y13.193
G1 X66.180 Y12.937
G1 X66.436 Y12.679
G1 X66.739 Y12.515
G1 X67.030 Y12.321
G1 X67.287 Y12.067
G1 X67.623 Y11.963
G1 X67.879 Y11.706
G1 X68.183 Y11.542
G1 X68.474 Y11.348
G1 X68.812 Y11.246
G1 X69.104 Y11.056
G1 X69.406 Y10.888
G1 X69.740 Y10.781
G1 X70.027 Y10.572
G1 X70.339 Y10.428
G1 X70.667 Y10.324
G1 X71.003 Y10.240
G1 X71.308 Y10.078
G1 X71.599 Y9.883
G1 X71.949 Y9.834
G1 X72.309 Y9.827
G1 X72.594 Y9.615
G1 X72.950 Y9.588
G1 X73.309 Y9.570
G1 X73.593 Y9.354
G1 X73.952 Y9.341
G1 X74.312 Y9.339
G1 X74.672 Y9.336
G1 X74.963 Y9.140
G1 X75.314 Y9.093
G1 X75.674 Y9.090
G1 X76.034 Y9.088
G1 X76.394 Y9.086
G1 X76.754 Y9.084
G1 X77.114 Y9.088
G1 X77.397 Y9.297
G1 X77.754 Y9.319
G1 X78.114 Y9.317
G1 X78.475 Y9.315
G1 X78.833 Y9.328
G1 X79.116 Y9.541
G1 X79.475 Y9.550
G1 X79.830 Y9.580
G1 X80.115 Y9.784
G1 X80.475 Y9.790
G1 X80.759 Y10.000
G1 X81.116 Y10.022
G1 X81.416 Y10.190
G1 X81.756 Y10.259
G1 X82.058 Y10.131
G1 X81.749 Y10.004
G1 X81.467 Y9.791
G1 X81.142 Y9.673
G1 X80.828 Y9.537
G1 X80.544 Y9.330
G1 X80.187 Y9.305
G1 X79.828 Y9.293
G1 X79.546 Y9.080
G1 X79.187 Y9.070
G1 X78.831 Y9.043
G1 X78.547 Y8.836
G1 X78.187 Y8.835
G1 X77.826 Y8.837
G1 X77.466 Y8.834
G1 X77.183 Y8.626
G1 X76.826 Y8.602
G1 X76.466 Y8.604
G1 X76.106 Y8.606
G1 X75.746 Y8.608
G1 X75.408 Y8.690
G1 X75.104 Y8.852
G1 X74.744 Y8.854
G1 X74.384 Y8.856
G1 X74.024 Y8.858
G1 X73.664 Y8.861
G1 X73.373 Y9.055
G1 X73.023 Y9.105
G1 X72.663 Y9.112
G1 X72.378 Y9.323
G1 X72.022 Y9.352
G1 X71.663 Y9.368
G1 X71.380 Y9.585
G1 X71.021 Y9.599
G1 X70.730 Y9.794
G1 X70.380 Y9.843
G1 X70.067 Y9.983
G1 X69.741 Y10.102
G1 X69.457 Y10.319
G1 X69.134 Y10.442
G1 X68.818 Y10.580
G1 X68.533 Y10.792
G1 X68.201 Y10.902
G1 X67.896 Y11.063
G1 X67.607 Y11.260
G1 X67.348 Y11.513
G1 X67.013 Y11.619
G1 X66.757 Y11.876
G1 X66.452 Y12.036
G1 X66.164 Y12.234
G1 X65.905 Y12.487
G1 X65.570 Y12.593
G1 X65.315 Y12.850
G1 X65.060 Y13.107
G1 X64.805 Y13.364
G1 X64.550 Y13.622
G1 X64.295 Y13.879
G1 X64.040 Y14.136
G1 X63.785 Y14.393
G1 X63.530 Y14.650
G1 X63.275 Y14.908
G1 X63.020 Y15.165
G1 X62.765 Y15.422
G1 X62.510 Y15.680
G1 X62.255 Y15.937
G1 X62.138 Y16.266
G1 X61.900 Y16.535
G1 X61.645 Y16.792
G1 X61.318 Y16.868
G1 X61.188 Y16.558
G1 X60.978 Y16.275
G1 X60.965 Y15.915
G1 X60.783 Y15.622
G1 X60.730 Y15.273
G1 X60.730 Y14.912
G1 X60.528 Y14.626
G1 X60.498 Y14.270
G1 X60.510 Y13.909
G1 X60.725 Y13.623
G1 X60.742 Y13.263
G1 X60.928 Y12.967
G1 X61.029 Y12.627
G1 X61.282 Y12.369
G1 X61.537 Y12.111
G1 X61.704 Y11.808
G1 X61.891 Y11.513
G1 X62.146 Y11.256
G1 X62.401 Y10.998
G1 X62.644 Y10.733
G1 X62.667 Y10.373
G1 X62.842 Y10.073
G1 X62.909 Y9.728
G1 X62.911 Y9.367
G1 X62.877 Y9.011
G1 X62.677 Y8.724
G1 X62.677 Y8.362
G1 X62.679 Y8.000
G1 X62.847 Y7.721
G1 X63.164 Y7.587
G1 X63.485 Y7.461
G1 X63.768 Y7.245
G1 X64.095 Y7.128
G1 X64.405 Y6.981
G1 X64.691 Y6.774
G1 X65.045 Y6.739
G1 X65.350 Y6.582
G1 X65.681 Y6.471
G1 X65.965 Y6.258
G1 X66.324 Y6.248
G1 X66.610 Y6.041
G1 X66.964 Y6.006
G1 X67.269 Y5.848
G1 X67.601 Y5.738
G1 X67.885 Y5.525
G1 X68.244 Y5.515
G1 X68.530 Y5.307
G1 X68.884 Y5.273
G1 X69.190 Y5.114
G1 X69.525 Y5.029
G1 X69.853 Y4.926
G1 X70.165 Y4.785
G1 X70.516 Y4.737
G1 X70.806 Y4.541
G1 X71.166 Y4.539
G1 X71.506 Y4.464
G1 X71.807 Y4.294
G1 X72.166 Y4.292
G1 X72.526 Y4.291
G1 X72.820 Y4.102
G1 X73.167 Y4.046
G1 X73.527 Y4.045
G1 X73.887 Y4.043
G1 X74.204 Y3.911
G1 X74.529 Y3.799
G1 X74.889 Y3.797
G1 X75.249 Y3.795
G1 X75.609 Y3.793
G1 X75.969 Y3.791
G1 X76.329 Y3.789
G1 X76.689 Y3.788
G1 X77.049 Y3.786
G1 X77.408 Y3.795
G1 X77.690 Y4.009
G1 X78.049 Y4.022
G1 X78.409 Y4.020
G1 X78.770 Y4.018
G1 X79.062 Y4.204
G1 X79.410 Y4.256
G1 X79.770 Y4.257
G1 X80.055 Y4.463
G1 X80.410 Y4.491
G1 X80.714 Y4.650
G1 X81.050 Y4.729
G1 X81.378 Y4.831
G1 X81.690 Y4.970
G1 X81.975 Y5.176
G1 X82.331 Y5.204
G1 X82.634 Y5.363
G1 X82.967 Y5.468
G1 X83.251 Y5.676
